;FLAVOR:Marlin
;TIME:1874
;Filament used: 1.47522m
;Layer height: 0.2
;Generated with Cura_SteamEngine master
M190 S60
M104 S200
M109 S200
M82 ;absolute extrusion mode
; -- START GCODE --
G21                     ;set units to millimetres
G90                     ;set to absolute positioning
M106 S0                 ;set fan speed to zero (turned off)
G28 X0 Y0               ;move to the X/Y origin (Home)
G28 Z0                  ;move to the Z origin (Home)
G1 Z15.0 F1200          ;move Z to position 15.0 mm
G92 E0                  ;zero the extruded length
G1 E20 F200             ;extrude 20mm of feed stock
G92 E0                  ;zero the extruded length again
G1 F7200                ;set feedrate to 120 mm/s
; -- end of START GCODE --
G92 E0
G1 F1500 E-6.5
;LAYER_COUNT:101
;LAYER:0
M107
G0 F3600 X91.985 Y89.602 Z0.2
;TYPE:SKIRT
G1 F1500 E0
G1 F1200 X92.102 Y89.485 E0.0055
G1 X92.688 Y88.955 E0.03178
G1 X93.324 Y88.488 E0.05803
G1 X94.004 Y88.087 E0.08428
G1 X94.722 Y87.757 E0.11057
G1 X95.469 Y87.502 E0.13682
G1 X96.238 Y87.323 E0.16308
G1 X97.022 Y87.223 E0.18937
G1 X97.617 Y87.2 E0.20917
G1 X117.383 Y87.2 E0.86659
G1 X118.172 Y87.24 E0.89287
G1 X118.952 Y87.359 E0.91911
G1 X119.717 Y87.557 E0.94539
G1 X120.457 Y87.831 E0.97164
G1 X121.166 Y88.179 E0.99791
G1 X121.837 Y88.597 E1.0242
G1 X122.461 Y89.08 E1.05045
G1 X122.898 Y89.485 E1.07026
G1 X123.015 Y89.602 E1.07577
G1 X123.545 Y90.188 E1.10205
G1 X124.012 Y90.824 E1.12829
G1 X124.413 Y91.504 E1.15455
G1 X124.743 Y92.222 E1.18083
G1 X124.998 Y92.969 E1.20708
G1 X125.177 Y93.738 E1.23334
G1 X125.277 Y94.522 E1.25963
G1 X125.3 Y95.117 E1.27943
G1 X125.3 Y114.883 E1.93685
G1 X125.26 Y115.672 E1.96313
G1 X125.141 Y116.452 E1.98937
G1 X124.943 Y117.217 E2.01565
G1 X124.669 Y117.957 E2.0419
G1 X124.321 Y118.666 E2.06817
G1 X123.903 Y119.337 E2.09446
G1 X123.42 Y119.961 E2.12071
G1 X123.015 Y120.398 E2.14053
G1 X122.898 Y120.515 E2.14603
G1 X122.312 Y121.045 E2.17231
G1 X121.676 Y121.512 E2.19855
G1 X120.996 Y121.913 E2.22481
G1 X120.278 Y122.243 E2.25109
G1 X119.531 Y122.498 E2.27734
G1 X118.762 Y122.677 E2.3036
G1 X117.978 Y122.777 E2.32989
G1 X117.383 Y122.8 E2.3497
G1 X97.617 Y122.8 E3.00712
G1 X96.828 Y122.76 E3.03339
G1 X96.048 Y122.641 E3.05964
G1 X95.283 Y122.443 E3.08592
G1 X94.543 Y122.169 E3.11216
G1 X93.834 Y121.821 E3.13843
G1 X93.163 Y121.403 E3.16473
G1 X92.539 Y120.92 E3.19097
G1 X92.102 Y120.515 E3.21079
G1 X91.985 Y120.398 E3.21629
G1 X91.455 Y119.812 E3.24257
G1 X90.988 Y119.176 E3.26881
G1 X90.587 Y118.496 E3.29507
G1 X90.257 Y117.778 E3.32135
G1 X90.002 Y117.031 E3.34761
G1 X89.823 Y116.262 E3.37387
G1 X89.723 Y115.478 E3.40015
G1 X89.7 Y114.883 E3.41996
G1 X89.7 Y95.117 E4.07738
G1 X89.74 Y94.328 E4.10365
G1 X89.859 Y93.548 E4.1299
G1 X90.057 Y92.783 E4.15618
G1 X90.331 Y92.043 E4.18243
G1 X90.679 Y91.334 E4.20869
G1 X91.097 Y90.663 E4.23499
G1 X91.58 Y90.039 E4.26123
G1 X91.985 Y89.602 E4.28105
G0 F3600 X92.267 Y89.884
G1 F1200 X92.384 Y89.767 E4.28655
G1 X92.956 Y89.253 E4.31213
G1 X93.578 Y88.8 E4.33772
G1 X94.243 Y88.414 E4.3633
G1 X94.945 Y88.099 E4.38889
G1 X95.676 Y87.859 E4.41448
G1 X96.427 Y87.696 E4.44004
G1 X97.192 Y87.612 E4.46564
G1 X97.617 Y87.6 E4.47978
G1 X117.383 Y87.6 E5.1372
G1 X118.151 Y87.64 E5.16278
G1 X118.911 Y87.759 E5.18836
G1 X119.654 Y87.957 E5.21394
G1 X120.373 Y88.231 E5.23953
G1 X121.059 Y88.578 E5.2651
G1 X121.706 Y88.994 E5.29068
G1 X122.306 Y89.475 E5.31626
G1 X122.616 Y89.767 E5.33042
G1 X122.733 Y89.884 E5.33593
G1 X123.247 Y90.456 E5.3615
G1 X123.7 Y91.078 E5.3871
G1 X124.086 Y91.743 E5.41267
G1 X124.401 Y92.445 E5.43826
G1 X124.641 Y93.176 E5.46385
G1 X124.804 Y93.927 E5.48941
G1 X124.888 Y94.692 E5.51501
G1 X124.9 Y95.117 E5.52915
G1 X124.9 Y114.883 E6.18657
G1 X124.86 Y115.651 E6.21215
G1 X124.741 Y116.411 E6.23773
G1 X124.543 Y117.154 E6.26331
G1 X124.269 Y117.873 E6.2889
G1 X123.922 Y118.559 E6.31447
G1 X123.506 Y119.206 E6.34005
G1 X123.025 Y119.806 E6.36563
G1 X122.733 Y120.116 E6.37979
G1 X122.616 Y120.233 E6.3853
G1 X122.044 Y120.747 E6.41088
G1 X121.422 Y121.2 E6.43647
G1 X120.757 Y121.586 E6.46204
G1 X120.055 Y121.901 E6.48763
G1 X119.324 Y122.141 E6.51322
G1 X118.573 Y122.304 E6.53878
G1 X117.808 Y122.388 E6.56438
G1 X117.383 Y122.4 E6.57852
G1 X97.617 Y122.4 E7.23594
G1 X96.849 Y122.36 E7.26152
G1 X96.089 Y122.241 E7.28711
G1 X95.346 Y122.043 E7.31268
G1 X94.627 Y121.769 E7.33827
G1 X93.941 Y121.422 E7.36384
G1 X93.294 Y121.006 E7.38942
G1 X92.694 Y120.525 E7.415
G1 X92.384 Y120.233 E7.42917
G1 X92.267 Y120.116 E7.43467
G1 X91.753 Y119.544 E7.46025
G1 X91.3 Y118.922 E7.48584
G1 X90.914 Y118.257 E7.51141
G1 X90.599 Y117.555 E7.53701
G1 X90.359 Y116.824 E7.5626
G1 X90.196 Y116.073 E7.58816
G1 X90.112 Y115.308 E7.61375
G1 X90.1 Y114.883 E7.62789
G1 X90.1 Y95.117 E8.28531
G1 X90.14 Y94.349 E8.31089
G1 X90.259 Y93.589 E8.33648
G1 X90.457 Y92.846 E8.36205
G1 X90.731 Y92.127 E8.38764
G1 X91.078 Y91.441 E8.41321
G1 X91.494 Y90.794 E8.4388
G1 X91.975 Y90.194 E8.46437
G1 X92.267 Y89.884 E8.47854
G0 F3600 X92.55 Y90.167
G1 F1200 X92.667 Y90.05 E8.48404
G1 X93.224 Y89.55 E8.50894
G1 X93.83 Y89.113 E8.53379
G1 X94.48 Y88.742 E8.55868
G1 X95.166 Y88.443 E8.58357
G1 X95.88 Y88.219 E8.60846
G1 X96.613 Y88.072 E8.63332
G1 X97.617 Y88 E8.6668
G1 X117.383 Y88 E9.32422
G1 X118.13 Y88.04 E9.3491
G1 X118.868 Y88.159 E9.37397
G1 X119.59 Y88.357 E9.39887
G1 X120.286 Y88.63 E9.42373
G1 X120.949 Y88.977 E9.44862
G1 X121.572 Y89.392 E9.47352
G1 X122.333 Y90.05 E9.50698
G1 X122.45 Y90.167 E9.51248
G1 X122.95 Y90.724 E9.53738
G1 X123.387 Y91.33 E9.56223
G1 X123.758 Y91.98 E9.58712
G1 X124.057 Y92.666 E9.61201
G1 X124.281 Y93.38 E9.6369
G1 X124.428 Y94.113 E9.66176
G1 X124.5 Y95.117 E9.69524
G1 X124.5 Y114.883 E10.35266
G1 X124.46 Y115.63 E10.37754
G1 X124.341 Y116.368 E10.40241
G1 X124.143 Y117.09 E10.42731
G1 X123.87 Y117.786 E10.45217
G1 X123.523 Y118.449 E10.47706
G1 X123.108 Y119.072 E10.50196
G1 X122.45 Y119.833 E10.53542
G1 X122.333 Y119.95 E10.54092
G1 X121.776 Y120.45 E10.56582
G1 X121.17 Y120.887 E10.59067
G1 X120.52 Y121.258 E10.61556
G1 X119.834 Y121.557 E10.64045
G1 X119.12 Y121.781 E10.66534
G1 X118.387 Y121.928 E10.6902
G1 X117.383 Y122 E10.72368
G1 X97.617 Y122 E11.3811
G1 X96.87 Y121.96 E11.40598
G1 X96.132 Y121.841 E11.43085
G1 X95.41 Y121.643 E11.45575
G1 X94.714 Y121.37 E11.48061
G1 X94.051 Y121.023 E11.5055
G1 X93.428 Y120.608 E11.5304
G1 X92.667 Y119.95 E11.56386
G1 X92.55 Y119.833 E11.56936
G1 X92.05 Y119.276 E11.59426
G1 X91.613 Y118.67 E11.61911
G1 X91.242 Y118.02 E11.644
G1 X90.943 Y117.334 E11.66889
G1 X90.719 Y116.62 E11.69378
G1 X90.572 Y115.887 E11.71865
G1 X90.5 Y114.883 E11.75212
G1 X90.5 Y95.117 E12.40954
G1 X90.54 Y94.37 E12.43443
G1 X90.659 Y93.632 E12.45929
G1 X90.857 Y92.91 E12.48419
G1 X91.13 Y92.214 E12.50905
G1 X91.477 Y91.551 E12.53394
G1 X91.892 Y90.928 E12.55884
G1 X92.55 Y90.167 E12.5923
G0 F3600 X92.833 Y90.45
G1 F1200 X92.95 Y90.333 E12.59781
G1 X93.491 Y89.849 E12.62195
G1 X94.082 Y89.426 E12.64612
G1 X94.716 Y89.072 E12.67027
G1 X95.385 Y88.789 E12.69443
G1 X96.081 Y88.581 E12.71859
G1 X96.796 Y88.451 E12.74276
G1 X97.617 Y88.4 E12.77012
G1 X117.383 Y88.4 E13.42754
G1 X118.108 Y88.44 E13.45169
G1 X118.825 Y88.559 E13.47587
G1 X119.524 Y88.757 E13.50003
G1 X120.197 Y89.03 E13.52419
G1 X120.836 Y89.375 E13.54834
G1 X121.433 Y89.789 E13.5725
G1 X122.05 Y90.333 E13.59986
G1 X122.167 Y90.45 E13.60537
G1 X122.651 Y90.991 E13.62951
G1 X123.074 Y91.582 E13.65368
G1 X123.428 Y92.216 E13.67783
G1 X123.711 Y92.885 E13.70199
G1 X123.919 Y93.581 E13.72615
G1 X124.049 Y94.296 E13.75033
G1 X124.1 Y95.117 E13.77768
G1 X124.1 Y114.883 E14.4351
G1 X124.06 Y115.608 E14.45925
G1 X123.941 Y116.325 E14.48343
G1 X123.743 Y117.024 E14.50759
G1 X123.47 Y117.697 E14.53175
G1 X123.125 Y118.336 E14.5559
G1 X122.711 Y118.933 E14.58006
G1 X122.167 Y119.55 E14.60742
G1 X122.05 Y119.667 E14.61293
G1 X121.509 Y120.151 E14.63707
G1 X120.918 Y120.574 E14.66124
G1 X120.284 Y120.928 E14.68539
G1 X119.615 Y121.211 E14.70955
G1 X118.919 Y121.419 E14.73371
G1 X118.204 Y121.549 E14.75789
G1 X117.383 Y121.6 E14.78524
G1 X97.617 Y121.6 E15.44266
G1 X96.892 Y121.56 E15.46681
G1 X96.175 Y121.441 E15.49099
G1 X95.476 Y121.243 E15.51515
G1 X94.803 Y120.97 E15.53931
G1 X94.164 Y120.625 E15.56346
G1 X93.567 Y120.211 E15.58762
G1 X92.95 Y119.667 E15.61498
G1 X92.833 Y119.55 E15.62049
G1 X92.349 Y119.009 E15.64463
G1 X91.926 Y118.418 E15.6688
G1 X91.572 Y117.784 E15.69295
G1 X91.289 Y117.115 E15.71711
G1 X91.081 Y116.419 E15.74127
G1 X90.951 Y115.704 E15.76545
G1 X90.9 Y114.883 E15.79281
G1 X90.9 Y95.117 E16.45022
G1 X90.94 Y94.392 E16.47438
G1 X91.059 Y93.675 E16.49855
G1 X91.257 Y92.976 E16.52271
G1 X91.53 Y92.303 E16.54687
G1 X91.875 Y91.664 E16.57102
G1 X92.289 Y91.067 E16.59518
G1 X92.833 Y90.45 E16.62254
G0 F3600 X93.116 Y90.733
G1 F1200 X93.233 Y90.616 E16.62805
G1 X93.758 Y90.147 E16.65146
G1 X94.333 Y89.741 E16.67487
G1 X94.951 Y89.403 E16.6983
G1 X95.602 Y89.136 E16.7217
G1 X96.28 Y88.946 E16.74512
G1 X96.975 Y88.833 E16.76854
G1 X97.617 Y88.8 E16.78992
G1 X117.383 Y88.8 E17.44734
G1 X118.086 Y88.84 E17.47076
G1 X118.78 Y88.959 E17.49418
G1 X119.455 Y89.157 E17.51758
G1 X120.104 Y89.429 E17.54098
G1 X120.718 Y89.774 E17.56441
G1 X121.289 Y90.185 E17.58781
G1 X121.767 Y90.616 E17.60921
G1 X121.884 Y90.733 E17.61472
G1 X122.353 Y91.258 E17.63813
G1 X122.759 Y91.833 E17.66154
G1 X123.097 Y92.451 E17.68497
G1 X123.364 Y93.102 E17.70837
G1 X123.554 Y93.78 E17.73179
G1 X123.667 Y94.475 E17.75521
G1 X123.7 Y95.117 E17.77659
G1 X123.7 Y114.883 E18.43401
G1 X123.66 Y115.586 E18.45743
G1 X123.541 Y116.28 E18.48085
G1 X123.343 Y116.955 E18.50425
G1 X123.071 Y117.604 E18.52766
G1 X122.726 Y118.218 E18.55108
G1 X122.315 Y118.789 E18.57448
G1 X121.884 Y119.267 E18.59589
G1 X121.767 Y119.384 E18.60139
G1 X121.242 Y119.853 E18.6248
G1 X120.667 Y120.259 E18.64822
G1 X120.049 Y120.597 E18.67164
G1 X119.398 Y120.864 E18.69505
G1 X118.72 Y121.054 E18.71847
G1 X118.025 Y121.167 E18.74188
G1 X117.383 Y121.2 E18.76327
G1 X97.617 Y121.2 E19.42069
G1 X96.914 Y121.16 E19.44411
G1 X96.22 Y121.041 E19.46752
G1 X95.545 Y120.843 E19.49092
G1 X94.896 Y120.571 E19.51433
G1 X94.282 Y120.226 E19.53775
G1 X93.711 Y119.815 E19.56115
G1 X93.233 Y119.384 E19.58256
G1 X93.116 Y119.267 E19.58806
G1 X92.647 Y118.742 E19.61148
G1 X92.241 Y118.167 E19.63489
G1 X91.903 Y117.549 E19.65832
G1 X91.636 Y116.898 E19.68172
G1 X91.446 Y116.22 E19.70514
G1 X91.333 Y115.525 E19.72856
G1 X91.3 Y114.883 E19.74994
G1 X91.3 Y95.117 E20.40736
G1 X91.34 Y94.414 E20.43078
G1 X91.459 Y93.72 E20.4542
G1 X91.657 Y93.045 E20.47759
G1 X91.929 Y92.396 E20.501
G1 X92.274 Y91.782 E20.52442
G1 X92.685 Y91.211 E20.54782
G1 X93.116 Y90.733 E20.56923
G0 F3600 X93.399 Y91.016
G1 F1200 X93.516 Y90.899 E20.57473
G1 X94.025 Y90.446 E20.5974
G1 X94.583 Y90.057 E20.62002
G1 X95.183 Y89.735 E20.64267
G1 X95.817 Y89.486 E20.66532
G1 X96.476 Y89.313 E20.68798
G1 X97.15 Y89.219 E20.71062
G1 X97.617 Y89.2 E20.72616
G1 X117.383 Y89.2 E21.38358
G1 X118.063 Y89.24 E21.40624
G1 X118.733 Y89.359 E21.42887
G1 X119.385 Y89.556 E21.45153
G1 X120.009 Y89.828 E21.47417
G1 X120.597 Y90.172 E21.49682
G1 X121.141 Y90.582 E21.51948
G1 X121.484 Y90.899 E21.53502
G1 X121.601 Y91.016 E21.54052
G1 X122.054 Y91.525 E21.56318
G1 X122.443 Y92.083 E21.58581
G1 X122.765 Y92.683 E21.60845
G1 X123.014 Y93.317 E21.63111
G1 X123.187 Y93.976 E21.65377
G1 X123.281 Y94.65 E21.6764
G1 X123.3 Y95.117 E21.69195
G1 X123.3 Y114.883 E22.34937
G1 X123.26 Y115.563 E22.37203
G1 X123.141 Y116.233 E22.39466
G1 X122.944 Y116.885 E22.41731
G1 X122.672 Y117.509 E22.43995
G1 X122.328 Y118.097 E22.46261
G1 X121.918 Y118.641 E22.48527
G1 X121.601 Y118.984 E22.5008
G1 X121.484 Y119.101 E22.5063
G1 X120.975 Y119.554 E22.52897
G1 X120.417 Y119.943 E22.55159
G1 X119.817 Y120.265 E22.57424
G1 X119.183 Y120.514 E22.5969
G1 X118.524 Y120.687 E22.61956
G1 X117.85 Y120.781 E22.64219
G1 X117.383 Y120.8 E22.65774
G1 X97.617 Y120.8 E23.31516
G1 X96.937 Y120.76 E23.33781
G1 X96.267 Y120.641 E23.36044
G1 X95.615 Y120.444 E23.3831
G1 X94.991 Y120.172 E23.40574
G1 X94.403 Y119.828 E23.4284
G1 X93.859 Y119.418 E23.45105
G1 X93.516 Y119.101 E23.46659
G1 X93.399 Y118.984 E23.47209
G1 X92.946 Y118.475 E23.49475
G1 X92.557 Y117.917 E23.51738
G1 X92.235 Y117.317 E23.54003
G1 X91.986 Y116.683 E23.56268
G1 X91.813 Y116.024 E23.58534
G1 X91.719 Y115.35 E23.60798
G1 X91.7 Y114.883 E23.62352
G1 X91.7 Y95.117 E24.28094
G1 X91.74 Y94.437 E24.3036
G1 X91.859 Y93.767 E24.32623
G1 X92.056 Y93.115 E24.34888
G1 X92.328 Y92.491 E24.37153
G1 X92.672 Y91.903 E24.39418
G1 X93.082 Y91.359 E24.41684
G1 X93.399 Y91.016 E24.43237
G0 F3600 X93.682 Y91.299
G1 F1200 X93.799 Y91.182 E24.43788
G1 X94.291 Y90.746 E24.45974
G1 X94.832 Y90.374 E24.48158
G1 X95.414 Y90.07 E24.50342
G1 X96.029 Y89.839 E24.52527
G1 X96.668 Y89.684 E24.54714
G1 X97.617 Y89.6 E24.57883
G1 X117.383 Y89.6 E25.23625
G1 X118.039 Y89.64 E25.2581
G1 X118.685 Y89.759 E25.27995
G1 X119.312 Y89.956 E25.30181
G1 X119.91 Y90.228 E25.32366
G1 X120.471 Y90.57 E25.34551
G1 X121.201 Y91.182 E25.3772
G1 X121.318 Y91.299 E25.3827
G1 X121.754 Y91.791 E25.40457
G1 X122.126 Y92.332 E25.4264
G1 X122.43 Y92.914 E25.44824
G1 X122.661 Y93.529 E25.47009
G1 X122.816 Y94.168 E25.49196
G1 X122.9 Y95.117 E25.52365
G1 X122.9 Y114.883 E26.18107
G1 X122.86 Y115.539 E26.20293
G1 X122.741 Y116.185 E26.22478
G1 X122.544 Y116.812 E26.24664
G1 X122.272 Y117.41 E26.26849
G1 X121.93 Y117.971 E26.29034
G1 X121.318 Y118.701 E26.32202
G1 X121.201 Y118.818 E26.32753
G1 X120.709 Y119.254 E26.34939
G1 X120.168 Y119.626 E26.37123
G1 X119.586 Y119.93 E26.39307
G1 X118.971 Y120.161 E26.41492
G1 X118.332 Y120.316 E26.43679
G1 X117.383 Y120.4 E26.46847
G1 X97.617 Y120.4 E27.12589
G1 X96.961 Y120.36 E27.14775
G1 X96.315 Y120.241 E27.1696
G1 X95.688 Y120.044 E27.19146
G1 X95.09 Y119.772 E27.21331
G1 X94.529 Y119.43 E27.23516
G1 X93.799 Y118.818 E27.26685
G1 X93.682 Y118.701 E27.27235
G1 X93.246 Y118.209 E27.29421
G1 X92.874 Y117.668 E27.31605
G1 X92.57 Y117.086 E27.33789
G1 X92.339 Y116.471 E27.35974
G1 X92.184 Y115.832 E27.38161
G1 X92.1 Y114.883 E27.4133
G1 X92.1 Y95.117 E28.07072
G1 X92.14 Y94.461 E28.09258
G1 X92.259 Y93.815 E28.11442
G1 X92.456 Y93.188 E28.13628
G1 X92.728 Y92.59 E28.15813
G1 X93.07 Y92.029 E28.17999
G1 X93.682 Y91.299 E28.21167
G0 F3600 X93.964 Y91.581
G1 F1200 X94.081 Y91.464 E28.21717
G1 X94.556 Y91.047 E28.2382
G1 X95.079 Y90.692 E28.25922
G1 X95.643 Y90.406 E28.28025
G1 X96.238 Y90.194 E28.30126
G1 X96.856 Y90.058 E28.32231
G1 X97.617 Y90 E28.34769
G1 X117.383 Y90 E29.00511
G1 X118.014 Y90.04 E29.02614
G1 X118.635 Y90.159 E29.04717
G1 X119.235 Y90.356 E29.06818
G1 X119.807 Y90.627 E29.08923
G1 X120.339 Y90.967 E29.11023
G1 X120.919 Y91.464 E29.13563
G1 X121.036 Y91.581 E29.14113
G1 X121.453 Y92.056 E29.16216
G1 X121.808 Y92.579 E29.18318
G1 X122.094 Y93.143 E29.20421
G1 X122.306 Y93.738 E29.22522
G1 X122.442 Y94.356 E29.24627
G1 X122.5 Y95.117 E29.27165
G1 X122.5 Y114.883 E29.92907
G1 X122.46 Y115.514 E29.9501
G1 X122.341 Y116.135 E29.97113
G1 X122.144 Y116.735 E29.99214
G1 X121.873 Y117.307 E30.01319
G1 X121.533 Y117.839 E30.03419
G1 X121.036 Y118.419 E30.05959
G1 X120.919 Y118.536 E30.0651
G1 X120.444 Y118.953 E30.08612
G1 X119.921 Y119.308 E30.10714
G1 X119.357 Y119.594 E30.12818
G1 X118.762 Y119.806 E30.14918
G1 X118.144 Y119.942 E30.17023
G1 X117.383 Y120 E30.19562
G1 X97.617 Y120 E30.85304
G1 X96.986 Y119.96 E30.87406
G1 X96.365 Y119.841 E30.89509
G1 X95.765 Y119.644 E30.9161
G1 X95.193 Y119.373 E30.93715
G1 X94.661 Y119.033 E30.95815
G1 X94.081 Y118.536 E30.98355
G1 X93.964 Y118.419 E30.98906
G1 X93.547 Y117.944 E31.01008
G1 X93.192 Y117.421 E31.0311
G1 X92.906 Y116.857 E31.05214
G1 X92.694 Y116.262 E31.07315
G1 X92.558 Y115.644 E31.09419
G1 X92.5 Y114.883 E31.11958
G1 X92.5 Y95.117 E31.777
G1 X92.54 Y94.486 E31.79803
G1 X92.659 Y93.865 E31.81906
G1 X92.856 Y93.265 E31.84006
G1 X93.127 Y92.693 E31.86111
G1 X93.467 Y92.161 E31.88211
G1 X93.964 Y91.581 E31.90752
G0 F3600 X94.247 Y91.864
