;FLAVOR:Marlin
;TIME:2471
;Filament used: 0.588062m
;Layer height: 0.3
;Generated with Cura_SteamEngine master
M104 S185
M109 S185
M82 ;absolute extrusion mode
G28 ;Home
G1 Z15.0 F6000 ;Move the platform down 15mm
;Prime the extruder
G92 E0
G1 F200 E3
G92 E0
G92 E0
G1 F1500 E-6.5
;LAYER_COUNT:67
;LAYER:0
M107
G0 F1500 X37.365 Y37.007 Z0.3
;TYPE:SKIRT
G1 F1500 E0
G1 F1200 X37.815 Y36.665 E0.01008
G1 X38.308 Y36.389 E0.02015
G1 X38.836 Y36.185 E0.03024
G1 X39.386 Y36.058 E0.0403
G1 X40.009 Y36.009 E0.05144
G1 X59.991 Y36.01 E0.40762
G1 X60.555 Y36.05 E0.4177
G1 X61.108 Y36.169 E0.42779
G1 X61.638 Y36.365 E0.43786
G1 X62.136 Y36.633 E0.44794
G1 X62.59 Y36.97 E0.45802
G1 X62.993 Y37.366 E0.46809
G1 X63.336 Y37.816 E0.47818
G1 X63.611 Y38.309 E0.48824
G1 X63.815 Y38.837 E0.49833
G1 X63.942 Y39.388 E0.50841
G1 X63.991 Y40.01 E0.51953
G1 X63.991 Y59.991 E0.8757
G1 X63.951 Y60.555 E0.88578
G1 X63.832 Y61.108 E0.89586
G1 X63.636 Y61.638 E0.90593
G1 X63.368 Y62.135 E0.916
G1 X63.032 Y62.59 E0.92608
G1 X62.635 Y62.993 E0.93616
G1 X62.185 Y63.335 E0.94624
G1 X61.692 Y63.611 E0.95631
G1 X61.164 Y63.815 E0.9664
G1 X60.614 Y63.942 E0.97646
G1 X59.991 Y63.991 E0.9876
G1 X40.009 Y63.991 E1.34379
G1 X39.445 Y63.951 E1.35387
G1 X38.892 Y63.832 E1.36395
G1 X38.362 Y63.636 E1.37402
G1 X37.865 Y63.368 E1.38409
G1 X37.41 Y63.032 E1.39417
G1 X37.007 Y62.635 E1.40425
G1 X36.665 Y62.185 E1.41433
G1 X36.389 Y61.692 E1.4244
G1 X36.185 Y61.164 E1.43449
G1 X36.058 Y60.614 E1.44455
G1 X36.009 Y59.991 E1.45569
G1 X36.009 Y40.009 E1.81188
G1 X36.049 Y39.445 E1.82196
G1 X36.168 Y38.892 E1.83204
G1 X36.364 Y38.362 E1.84211
G1 X36.632 Y37.865 E1.85218
G1 X36.968 Y37.41 E1.86226
G1 X37.365 Y37.007 E1.87234
G0 F1500 X37.756 Y37.201
G1 F1200 X38.198 Y36.898 E1.88189
G1 X38.681 Y36.663 E1.89147
G1 X39.192 Y36.503 E1.90101
G1 X39.722 Y36.42 E1.91058
G1 X40.009 Y36.409 E1.9157
G1 X59.991 Y36.41 E2.27188
G1 X60.526 Y36.45 E2.28145
G1 X61.049 Y36.569 E2.29101
G1 X61.548 Y36.764 E2.30056
G1 X62.013 Y37.032 E2.31012
G1 X62.433 Y37.365 E2.31968
G1 X62.799 Y37.757 E2.32924
G1 X63.103 Y38.199 E2.3388
G1 X63.337 Y38.682 E2.34837
G1 X63.497 Y39.194 E2.35793
G1 X63.58 Y39.723 E2.36747
G1 X63.591 Y40.01 E2.37259
G1 X63.591 Y59.991 E2.72876
G1 X63.551 Y60.526 E2.73832
G1 X63.432 Y61.049 E2.74789
G1 X63.237 Y61.548 E2.75744
G1 X62.969 Y62.013 E2.767
G1 X62.636 Y62.433 E2.77656
G1 X62.244 Y62.799 E2.78612
G1 X61.802 Y63.102 E2.79567
G1 X61.319 Y63.337 E2.80524
G1 X60.808 Y63.497 E2.81479
G1 X60.278 Y63.58 E2.82435
G1 X59.991 Y63.591 E2.82947
G1 X40.009 Y63.591 E3.18566
G1 X39.474 Y63.551 E3.19522
G1 X38.951 Y63.432 E3.20478
G1 X38.452 Y63.237 E3.21433
G1 X37.987 Y62.969 E3.2239
G1 X37.567 Y62.636 E3.23345
G1 X37.201 Y62.244 E3.24301
G1 X36.898 Y61.802 E3.25256
G1 X36.663 Y61.319 E3.26214
G1 X36.503 Y60.808 E3.27168
G1 X36.42 Y60.278 E3.28125
G1 X36.409 Y59.991 E3.28637
G1 X36.409 Y40.009 E3.64255
G1 X36.449 Y39.474 E3.65212
G1 X36.568 Y38.951 E3.66168
G1 X36.763 Y38.452 E3.67123
G1 X37.031 Y37.987 E3.68079
G1 X37.364 Y37.567 E3.69035
G1 X37.756 Y37.201 E3.69991
G0 F1500 X37.758 Y37.734
G1 F1200 X38.145 Y37.408 E3.70893
G1 X38.578 Y37.147 E3.71794
G1 X39.046 Y36.957 E3.72694
G1 X39.539 Y36.844 E3.73596
G1 X40.009 Y36.809 E3.74436
G1 X59.991 Y36.81 E4.10055
G1 X60.495 Y36.85 E4.10956
G1 X60.987 Y36.969 E4.11858
G1 X61.453 Y37.164 E4.12759
G1 X61.883 Y37.429 E4.13659
G1 X62.266 Y37.76 E4.14561
G1 X62.592 Y38.146 E4.15462
G1 X62.853 Y38.579 E4.16363
G1 X63.043 Y39.048 E4.17265
G1 X63.156 Y39.54 E4.18165
G1 X63.191 Y40.01 E4.19005
G1 X63.191 Y59.991 E4.54622
G1 X63.151 Y60.495 E4.55523
G1 X63.032 Y60.986 E4.56424
G1 X62.838 Y61.453 E4.57325
G1 X62.572 Y61.883 E4.58226
G1 X62.242 Y62.266 E4.59128
G1 X61.855 Y62.592 E4.60029
G1 X61.422 Y62.853 E4.60931
G1 X60.954 Y63.043 E4.61831
G1 X60.461 Y63.156 E4.62733
G1 X59.991 Y63.191 E4.63573
G1 X40.009 Y63.191 E4.99191
G1 X39.505 Y63.151 E5.00093
G1 X39.014 Y63.032 E5.00993
G1 X38.547 Y62.838 E5.01895
G1 X38.117 Y62.572 E5.02796
G1 X37.734 Y62.242 E5.03697
G1 X37.408 Y61.855 E5.04599
G1 X37.147 Y61.422 E5.055
G1 X36.957 Y60.954 E5.06401
G1 X36.844 Y60.461 E5.07302
G1 X36.809 Y59.991 E5.08142
G1 X36.809 Y40.009 E5.43761
G1 X36.849 Y39.505 E5.44662
G1 X36.968 Y39.014 E5.45563
G1 X37.162 Y38.547 E5.46464
G1 X37.428 Y38.117 E5.47365
G1 X37.758 Y37.734 E5.48267
G1 F1500 E-1.01733
G0 F1500 X40.614 Y39.335
G0 X40.614 Y40.614
G0 X59.33 Y59.33
G0 X59.4 Y59.4
;TYPE:WALL-INNER
G1 F1500 E5.48267
G1 F1200 X40.6 Y59.4 E5.81778
G1 X40.6 Y40.6 E6.1529
G1 X59.4 Y40.6 E6.48802
G1 X59.4 Y59.4 E6.82313
G0 F1500 X59.8 Y59.8
;TYPE:WALL-OUTER
G1 F1200 X40.2 Y59.8 E7.17251
G1 X40.2 Y40.2 E7.52189
G1 X59.8 Y40.2 E7.87126
G1 X59.8 Y59.8 E8.22064
G0 F1500 X59.6 Y59.8
G0 X59.33 Y59.33
G0 X59.01 Y59.01
;TYPE:SKIN
G1 F1200 X40.99 Y59.01 E8.54185
G1 X40.99 Y40.99 E8.86307
G1 X59.01 Y40.99 E9.18428
G1 X59.01 Y59.01 E9.50549
G0 F1500 X58.829 Y41.293
G0 X58.767 Y41.231
G1 F1200 X58.484 Y41.514 E9.51575
G1 X58.899 Y41.929
G0 F1500 X58.829 Y42.424
G1 F1200 X57.574 Y41.169 E9.54738
G1 X57.504 Y41.099
G0 F1500 X57.009 Y41.169
G1 F1200 X58.829 Y42.99 E9.59328
G1 X58.899 Y43.06
G0 F1500 X58.829 Y43.556
G1 F1200 X56.443 Y41.169 E9.65344
G1 X56.373 Y41.099
G0 F1500 X55.877 Y41.169
G1 F1200 X58.829 Y44.122 E9.72787
G1 X58.899 Y44.192
G0 F1500 X58.829 Y44.687
G1 F1200 X55.312 Y41.169 E9.81654
G1 X55.242 Y41.099
G0 F1500 X54.746 Y41.169
G1 F1200 X58.829 Y45.253 E9.91948
G1 X58.899 Y45.323
G0 F1500 X58.829 Y45.819
G1 F1200 X54.18 Y41.169 E10.03669
G1 X54.11 Y41.099
G0 F1500 X53.614 Y41.169
G1 F1200 X58.829 Y46.384 E10.16815
G1 X58.899 Y46.454
G0 F1500 X58.829 Y46.95
G1 F1200 X53.049 Y41.169 E10.31387
G1 X52.979 Y41.099
G0 F1500 X52.483 Y41.169
G1 F1200 X58.829 Y47.516 E10.47386
G1 X58.899 Y47.586
G0 F1500 X58.829 Y48.081
G1 F1200 X51.917 Y41.169 E10.6481
G1 X51.847 Y41.099
G0 F1500 X51.352 Y41.169
G1 F1200 X58.829 Y48.647 E10.8366
G1 X58.899 Y48.717
G0 F1500 X58.829 Y49.213
G1 F1200 X50.786 Y41.169 E11.03937
G1 X50.716 Y41.099
G0 F1500 X50.22 Y41.169
G1 F1200 X58.829 Y49.778 E11.25639
G1 X58.899 Y49.848
G0 F1500 X58.829 Y50.344
G1 F1200 X49.655 Y41.169 E11.48767
G1 X49.585 Y41.099
G0 F1500 X49.089 Y41.169
G1 F1200 X58.829 Y50.91 E11.73322
G1 X58.899 Y50.98
G0 F1500 X58.829 Y51.475
G1 F1200 X48.523 Y41.169 E11.99302
G1 X48.453 Y41.099
G0 F1500 X47.958 Y41.169
G1 F1200 X58.829 Y52.041 E12.26708
G1 X58.899 Y52.111
G0 F1500 X58.829 Y52.607
G1 F1200 X47.392 Y41.169 E12.55541
G1 X47.322 Y41.099
G0 F1500 X46.826 Y41.169
G1 F1200 X58.829 Y53.173 E12.858
G1 X58.899 Y53.243
G0 F1500 X58.829 Y53.738
G1 F1200 X46.261 Y41.169 E13.17484
G1 X46.191 Y41.099
G0 F1500 X45.695 Y41.169
G1 F1200 X58.829 Y54.304 E13.50594
G1 X58.899 Y54.374
G0 F1500 X58.829 Y54.87
G1 F1200 X45.129 Y41.169 E13.85132
G1 X45.059 Y41.099
G0 F1500 X44.563 Y41.169
G1 F1200 X58.829 Y55.435 E14.21095
G1 X58.899 Y55.505
G0 F1500 X58.829 Y56.001
G1 F1200 X43.998 Y41.169 E14.58483
G1 X43.928 Y41.099
G0 F1500 X43.432 Y41.169
G1 F1200 X58.829 Y56.567 E14.97299
G1 X58.899 Y56.637
G0 F1500 X58.829 Y57.132
G1 F1200 X42.866 Y41.169 E15.37539
G1 X42.796 Y41.099
G0 F1500 X42.301 Y41.169
G1 F1200 X58.829 Y57.698 E15.79206
G1 X58.899 Y57.768
G0 F1500 X58.829 Y58.264
G1 F1200 X41.735 Y41.169 E16.22299
G1 X41.665 Y41.099
G0 F1500 X41.169 Y41.169
G1 F1200 X58.829 Y58.829 E16.66818
G1 X58.899 Y58.899
G0 F1500 X58.263 Y58.829
G1 F1200 X41.169 Y41.735 E17.0991
G1 X41.099 Y41.665
G0 F1500 X41.169 Y42.301
G1 F1200 X57.697 Y58.829 E17.51575
G1 X57.767 Y58.899
G0 F1500 X57.132 Y58.829
G1 F1200 X41.169 Y42.866 E17.91816
G1 X41.099 Y42.796
G0 F1500 X41.169 Y43.432
G1 F1200 X56.566 Y58.829 E18.3063
G1 X56.636 Y58.899
G0 F1500 X56 Y58.829
G1 F1200 X41.169 Y43.998 E18.68017
G1 X41.099 Y43.928
G0 F1500 X41.169 Y44.563
G1 F1200 X55.435 Y58.829 E19.0398
G1 X55.505 Y58.899
G0 F1500 X54.869 Y58.829
G1 F1200 X41.169 Y45.129 E19.38517
G1 X41.099 Y45.059
G0 F1500 X41.169 Y45.695
G1 F1200 X54.303 Y58.829 E19.71626
G1 X54.373 Y58.899
G0 F1500 X53.737 Y58.829
G1 F1200 X41.169 Y46.261 E20.03308
G1 X41.099 Y46.191
G0 F1500 X41.169 Y46.826
G1 F1200 X53.172 Y58.829 E20.33567
G1 X53.242 Y58.899
G0 F1500 X52.606 Y58.829
G1 F1200 X41.169 Y47.392 E20.62398
G1 X41.099 Y47.322
G0 F1500 X41.169 Y47.958
G1 F1200 X52.04 Y58.829 E20.89802
G1 X52.11 Y58.899
G0 F1500 X51.475 Y58.829
G1 F1200 X41.169 Y48.523 E21.15783
G1 X41.099 Y48.453
G0 F1500 X41.169 Y49.089
G1 F1200 X50.909 Y58.829 E21.40336
G1 X50.979 Y58.899
G0 F1500 X50.343 Y58.829
G1 F1200 X41.169 Y49.655 E21.63463
G1 X41.099 Y49.585
G0 F1500 X41.169 Y50.22
G1 F1200 X49.778 Y58.829 E21.85165
G1 X49.848 Y58.899
G0 F1500 X49.212 Y58.829
G1 F1200 X41.169 Y50.786 E22.05441
G1 X41.099 Y50.716
G0 F1500 X41.169 Y51.352
G1 F1200 X48.646 Y58.829 E22.24289
G1 X48.716 Y58.899
G0 F1500 X48.081 Y58.829
G1 F1200 X41.169 Y51.917 E22.41714
G1 X41.099 Y51.847
G0 F1500 X41.169 Y52.483
G1 F1200 X47.515 Y58.829 E22.57711
G1 X47.585 Y58.899
G0 F1500 X46.949 Y58.829
G1 F1200 X41.169 Y53.049 E22.72282
G1 X41.099 Y52.979
G0 F1500 X41.169 Y53.614
G1 F1200 X46.384 Y58.829 E22.85428
G1 X46.454 Y58.899
G0 F1500 X45.818 Y58.829
G1 F1200 X41.169 Y54.18 E22.97148
G1 X41.099 Y54.11
G0 F1500 X41.169 Y54.746
G1 F1200 X45.252 Y58.829 E23.07441
G1 X45.322 Y58.899
G0 F1500 X44.687 Y58.829
G1 F1200 X41.169 Y55.312 E23.16308
G1 X41.099 Y55.242
G0 F1500 X41.169 Y55.877
G1 F1200 X44.121 Y58.829 E23.23749
G1 X44.191 Y58.899
G0 F1500 X43.555 Y58.829
G1 F1200 X41.169 Y56.443 E23.29764
G1 X41.099 Y56.373
G0 F1500 X41.169 Y57.009
G1 F1200 X42.989 Y58.829 E23.34352
G1 X43.059 Y58.899
G0 F1500 X42.424 Y58.829
G1 F1200 X41.169 Y57.574 E23.37516
G1 X41.099 Y57.504
G0 F1500 X41.169 Y58.14
G1 F1200 X41.858 Y58.829 E23.39253
G1 X41.928 Y58.899
G0 F1500 X41.292 Y58.829
G1 F1200 X41.169 Y58.706 E23.39563
G0 F1500 X59.33 Y59.33
G0 X59.4 Y59.4
;TIME_ELAPSED:78.971132
;LAYER:1
M106 S255
G0 X59.4 Y59.4 Z0.6
;TYPE:WALL-INNER
G1 F1200 X40.6 Y59.4 E23.73075
G1 X40.6 Y40.6 E24.06586
G1 X59.4 Y40.6 E24.40098
G1 X59.4 Y59.4 E24.7361
G0 F1500 X59.8 Y59.8
;TYPE:WALL-OUTER
G1 F900 X40.2 Y59.8 E25.08547
G1 X40.2 Y40.2 E25.43485
G1 X59.8 Y40.2 E25.78423
G1 X59.8 Y59.8 E26.1336
G0 F1500 X59.6 Y59.8
G0 X59.33 Y59.33
G0 X59.01 Y59.01
;TYPE:SKIN
G1 F900 X40.99 Y59.01 E26.45482
G1 X40.99 Y40.99 E26.77603
G1 X59.01 Y40.99 E27.09724
G1 X59.01 Y59.01 E27.41846
G0 F1500 X58.267 Y58.829
G1 F900 X58.829 Y58.267 E27.43262
G0 F1500 X58.829 Y57.702
G1 F900 X57.701 Y58.829 E27.46105
G1 X57.631 Y58.899
G0 F1500 X57.135 Y58.829
G1 F900 X58.829 Y57.136 E27.50374
G1 X58.899 Y57.066
G0 F1500 X58.829 Y56.57
G1 F900 X56.569 Y58.829 E27.5607
G1 X56.499 Y58.899
G0 F1500 X56.004 Y58.829
G1 F900 X58.829 Y56.004 E27.63191
G1 X58.899 Y55.934
G0 F1500 X58.829 Y55.439
G1 F900 X55.438 Y58.829 E27.71738
G1 X55.368 Y58.899
G0 F1500 X54.872 Y58.829
G1 F900 X58.829 Y54.873 E27.81712
G1 X58.899 Y54.803
G0 F1500 X58.829 Y54.307
G1 F900 X54.307 Y58.829 E27.93112
G1 X54.237 Y58.899
G0 F1500 X53.741 Y58.829
G1 F900 X58.829 Y53.742 E28.05937
G1 X58.899 Y53.672
G0 F1500 X58.829 Y53.176
G1 F900 X53.175 Y58.829 E28.20188
G1 X53.105 Y58.899
G0 F1500 X52.61 Y58.829
G1 F900 X58.829 Y52.61 E28.35866
G1 X58.899 Y52.54
G0 F1500 X58.829 Y52.045
G1 F900 X52.044 Y58.829 E28.52969
G1 X51.974 Y58.899
G0 F1500 X51.478 Y58.829
G1 F900 X58.829 Y51.479 E28.71499
G1 X58.899 Y51.409
G0 F1500 X58.829 Y50.913
G1 F900 X50.913 Y58.829 E28.91454
G1 X50.843 Y58.899
G0 F1500 X50.347 Y58.829
G1 F900 X58.829 Y50.348 E29.12835
G1 X58.899 Y50.278
G0 F1500 X58.829 Y49.782
G1 F900 X49.781 Y58.829 E29.35642
G1 X49.711 Y58.899
G0 F1500 X49.216 Y58.829
G1 F900 X58.829 Y49.216 E29.59876
G1 X58.899 Y49.146
G0 F1500 X58.829 Y48.651
G1 F900 X48.65 Y58.829 E29.85535
G1 X48.58 Y58.899
G0 F1500 X48.084 Y58.829
G1 F900 X58.829 Y48.085 E30.1262
G1 X58.899 Y48.015
G0 F1500 X58.829 Y47.519
G1 F900 X47.518 Y58.829 E30.41133
G1 X47.448 Y58.899
G0 F1500 X46.953 Y58.829
G1 F900 X58.829 Y46.954 E30.71069
G1 X58.899 Y46.884
G0 F1500 X58.829 Y46.388
G1 F900 X46.387 Y58.829 E31.02433
G1 X46.317 Y58.899
G0 F1500 X45.821 Y58.829
G1 F900 X58.829 Y45.822 E31.35223
G1 X58.899 Y45.752
G0 F1500 X58.829 Y45.256
G1 F900 X45.256 Y58.829 E31.69439
G1 X45.186 Y58.899
G0 F1500 X44.69 Y58.829
G1 F900 X58.829 Y44.691 E32.05081
G1 X58.899 Y44.621
G0 F1500 X58.829 Y44.125
G1 F900 X44.124 Y58.829 E32.42149
G1 X44.054 Y58.899
G0 F1500 X43.559 Y58.829
G1 F900 X58.829 Y43.559 E32.80643
G1 X58.899 Y43.489
G0 F1500 X58.829 Y42.994
G1 F900 X42.993 Y58.829 E33.20563
G1 X42.923 Y58.899
G0 F1500 X42.427 Y58.829
G1 F900 X58.829 Y42.428 E33.61909
G1 X58.899 Y42.358
G0 F1500 X58.829 Y41.862
G1 F900 X41.862 Y58.829 E34.04681
G1 X41.792 Y58.899
G0 F1500 X41.296 Y58.829
G1 F900 X58.829 Y41.297 E34.48878
G1 X58.899 Y41.227
G0 F1500 X58.39 Y41.169
G1 F900 X41.169 Y58.39 E34.92291
G1 X41.099 Y58.46
G0 F1500 X41.169 Y57.825
G1 F900 X57.825 Y41.169 E35.34278
G1 X57.895 Y41.099
G0 F1500 X57.259 Y41.169
G1 F900 X41.169 Y57.259 E35.74839
G1 X41.099 Y57.329
G0 F1500 X41.169 Y56.693
G1 F900 X56.693 Y41.169 E36.13974
G1 X56.763 Y41.099
G0 F1500 X56.128 Y41.169
G1 F900 X41.169 Y56.128 E36.51684
G1 X41.099 Y56.198
G0 F1500 X41.169 Y55.562
G1 F900 X55.562 Y41.169 E36.87967
G1 X55.632 Y41.099
G0 F1500 X54.996 Y41.169
G1 F900 X41.169 Y54.996 E37.22823
G1 X41.099 Y55.066
G0 F1500 X41.169 Y54.43
G1 F900 X54.43 Y41.169 E37.56252
G1 X54.5 Y41.099
G0 F1500 X53.865 Y41.169
G1 F900 X41.169 Y53.865 E37.88258
G1 X41.099 Y53.935
G0 F1500 X41.169 Y53.299
G1 F900 X53.299 Y41.169 E38.18836
G1 X53.369 Y41.099
G0 F1500 X52.733 Y41.169
G1 F900 X41.169 Y52.733 E38.47988
G1 X41.099 Y52.803
G0 F1500 X41.169 Y52.168
G1 F900 X52.168 Y41.169 E38.75715
G1 X52.238 Y41.099
G0 F1500 X51.602 Y41.169
G1 F900 X41.169 Y51.602 E39.02015
G1 X41.099 Y51.672
G0 F1500 X41.169 Y51.036
G1 F900 X51.036 Y41.169 E39.26889
G1 X51.106 Y41.099
G0 F1500 X50.471 Y41.169
G1 F900 X41.169 Y50.471 E39.50338
G1 X41.099 Y50.541
G0 F1500 X41.169 Y49.905
G1 F900 X49.905 Y41.169 E39.7236
G1 X49.975 Y41.099
G0 F1500 X49.339 Y41.169
G1 F900 X41.169 Y49.339 E39.92956
G1 X41.099 Y49.409
G0 F1500 X41.169 Y48.774
G1 F900 X48.774 Y41.169 E40.12127
G1 X48.844 Y41.099
G0 F1500 X48.208 Y41.169
G1 F900 X41.169 Y48.208 E40.29872
G1 X41.099 Y48.278
G0 F1500 X41.169 Y47.642
G1 F900 X47.642 Y41.169 E40.4619
G1 X47.712 Y41.099
G0 F1500 X47.077 Y41.169
G1 F900 X41.169 Y47.077 E40.61083
G1 X41.099 Y47.147
G0 F1500 X41.169 Y46.511
G1 F900 X46.511 Y41.169 E40.7455
G1 X46.581 Y41.099
G0 F1500 X45.945 Y41.169
G1 F900 X41.169 Y45.945 E40.86589
G1 X41.099 Y46.015
G0 F1500 X41.169 Y45.379
G1 F900 X45.379 Y41.169 E40.97202
G1 X45.449 Y41.099
G0 F1500 X44.814 Y41.169
G1 F900 X41.169 Y44.814 E41.06391
G1 X41.099 Y44.884
G0 F1500 X41.169 Y44.248
G1 F900 X44.248 Y41.169 E41.14153
G1 X44.318 Y41.099
G0 F1500 X43.682 Y41.169
G1 F900 X41.169 Y43.682 E41.20488
G1 X41.099 Y43.752
G0 F1500 X41.169 Y43.117
G1 F900 X43.117 Y41.169 E41.25398
G1 X43.187 Y41.099
G0 F1500 X42.551 Y41.169
G1 F900 X41.169 Y42.551 E41.28882
G1 X41.099 Y42.621
G0 F1500 X41.169 Y41.985
G1 F900 X41.985 Y41.169 E41.30939
G1 X42.055 Y41.099
G0 F1500 X41.42 Y41.169
G1 F900 X41.169 Y41.42 E41.31572
G0 F1500 X59.33 Y59.33
G0 X59.4 Y59.4
;TIME_ELAPSED:147.864127
;LAYER:2
G0 X59.4 Y59.4 Z0.9
;TYPE:WALL-INNER
G1 F1200 X40.6 Y59.4 E41.65084
G1 X40.6 Y40.6 E41.98595
G1 X59.4 Y40.6 E42.32107
G1 X59.4 Y59.4 E42.65619
G0 F1500 X59.8 Y59.8
;TYPE:WALL-OUTER
G1 F600 X40.2 Y59.8 E43.00556
G1 X40.2 Y40.2 E43.35494
G1 X59.8 Y40.2 E43.70432
G1 X59.8 Y59.8 E44.05369
G0 F1500 X59.6 Y59.8
G0 X59.33 Y59.33
G0 X59.01 Y59.01
;TYPE:SKIN
G1 F600 X40.99 Y59.01 E44.37491
G1 X40.99 Y40.99 E44.69612
G1 X59.01 Y40.99 E45.01733
G1 X59.01 Y59.01 E45.33855
G0 F1500 X58.829 Y41.293
G0 X58.767 Y41.231
G1 F600 X58.484 Y41.514 E45.3488
G1 X58.899 Y41.929
G0 F1500 X58.829 Y42.424
G1 F600 X57.574 Y41.169 E45.38044
G1 X57.504 Y41.099
G0 F1500 X57.009 Y41.169
G1 F600 X58.829 Y42.99 E45.42633
G1 X58.899 Y43.06
G0 F1500 X58.829 Y43.556
G1 F600 X56.443 Y41.169 E45.48649
G1 X56.373 Y41.099
G0 F1500 X55.877 Y41.169
G1 F600 X58.829 Y44.122 E45.56092
G1 X58.899 Y44.192
