;FLAVOR:Marlin
;TIME:9885
;Filament used: 1.85662m
;Layer height: 0.3
;Generated with Cura_SteamEngine master
M104 S185
M109 S185
M82 ;absolute extrusion mode
; -- START GCODE --
G21                     ;set units to millimetres
G90                     ;set to absolute positioning
M106 S0                 ;set fan speed to zero (turned off)
G28 X0 Y0               ;move to the X/Y origin (Home)
G28 Z0                  ;move to the Z origin (Home)
G1 Z15.0 F1200          ;move Z to position 15.0 mm
G92 E0                  ;zero the extruded length
G1 E20 F200             ;extrude 20mm of feed stock
G92 E0                  ;zero the extruded length again
G1 F7200                ;set feedrate to 120 mm/s
; -- end of START GCODE --
G92 E0
G1 F2400 E-1
;LAYER_COUNT:44
;LAYER:0
M107
G0 F1500 X65.295 Y69.279 Z0.2
;TYPE:SKIRT
G1 F2400 E0
G1 F1200 X65.707 Y68.986 E0.00601
G1 X66.161 Y68.763 E0.01202
G1 X66.644 Y68.613 E0.01803
G1 X67.345 Y68.535 E0.02641
G1 X96.94 Y68.529 E0.3781
G1 X97.045 Y68.531 E0.37935
G1 X101.089 Y68.662 E0.42744
G1 X103.816 Y68.662 E0.45984
G1 X108.715 Y68.52 E0.51808
G1 X108.81 Y68.519 E0.51921
G1 X128.863 Y68.53 E0.75751
G1 X129.367 Y68.57 E0.76352
G1 X129.858 Y68.689 E0.76953
G1 X130.325 Y68.884 E0.77554
G1 X130.754 Y69.15 E0.78154
G1 X131.137 Y69.481 E0.78755
G1 X131.463 Y69.867 E0.79356
G1 X131.724 Y70.3 E0.79957
G1 X131.913 Y70.769 E0.80558
G1 X131.994 Y71.08 E0.80939
G1 X133.406 Y77.883 E0.89196
G1 X134.072 Y80.491 E0.92395
G1 X135.665 Y85.773 E0.98951
G1 X137.538 Y90.914 E1.05453
G1 X139.7 Y95.943 E1.11958
G1 X142.147 Y100.851 E1.18475
G1 X144.855 Y105.591 E1.24963
G1 X147.861 Y110.22 E1.31522
G1 X149.571 Y112.647 E1.3505
G1 X149.828 Y113.082 E1.3565
G1 X150.014 Y113.552 E1.36251
G1 X150.124 Y114.045 E1.36851
G1 X150.154 Y114.401 E1.37276
G1 X150.259 Y118.167 E1.41753
G1 X150.854 Y125.414 E1.50394
G1 X150.854 Y125.944 E1.51024
G1 X149.961 Y136.551 E1.63673
G1 X149.879 Y137.05 E1.64274
G1 X149.719 Y137.53 E1.64875
G1 X149.486 Y137.979 E1.65476
G1 X149.185 Y138.385 E1.66077
G1 X148.824 Y138.739 E1.66678
G1 X148.403 Y139.036 E1.6729
G1 X145.109 Y140.987 E1.7184
G1 X144.655 Y141.21 E1.72441
G1 X144.171 Y141.358 E1.73042
G1 X143.671 Y141.428 E1.73642
G1 X143.165 Y141.419 E1.74244
G1 X142.599 Y141.311 E1.74928
G1 X114.31 Y133.229 E2.09891
G1 X113.836 Y133.052 E2.10492
G1 X113.396 Y132.803 E2.11093
G1 X113.191 Y132.651 E2.11396
G1 X110.451 Y130.46 E2.15565
G1 X110.238 Y130.275 E2.15901
G1 X109.587 Y129.653 E2.16971
G1 X109.251 Y129.276 E2.17571
G1 X108.977 Y128.85 E2.18173
G1 X108.813 Y128.492 E2.18641
G1 X108.071 Y126.571 E2.21088
G1 X105.89 Y121.506 E2.27641
G1 X103.445 Y116.608 E2.34147
G1 X100.736 Y111.874 E2.40628
G1 X97.742 Y107.264 E2.4716
G1 X94.512 Y102.86 E2.53651
G1 X91.015 Y98.616 E2.60186
G1 X89.209 Y96.606 E2.63397
G1 X85.372 Y92.681 E2.6992
G1 X81.323 Y88.984 E2.76435
G1 X77.072 Y85.522 E2.8295
G1 X72.63 Y82.304 E2.89469
G1 X70.809 Y81.088 E2.92071
G1 X70.412 Y80.775 E2.92671
G1 X70.122 Y80.469 E2.93172
G1 X68.713 Y78.769 E2.95796
G1 X65.483 Y75.143 E3.01567
G1 X65.177 Y74.74 E3.02168
G1 X64.913 Y74.231 E3.0285
G1 X64.387 Y72.952 E3.04493
G1 X64.232 Y72.471 E3.05094
G1 X64.155 Y71.971 E3.05695
G1 X64.157 Y71.466 E3.06295
G1 X64.24 Y70.967 E3.06896
G1 X64.399 Y70.487 E3.07497
G1 X64.633 Y70.039 E3.08098
G1 X64.934 Y69.632 E3.08699
G1 X65.295 Y69.279 E3.09299
G1 F2400 E2.09299
G0 F1500 X67.282 Y73.351
G0 X67.403 Y73.48
G0 X72.561 Y76.851
;TYPE:SUPPORT
G1 F2400 E3.09299
G1 F1200 X75.989 Y78.547 E3.13844
G1 X75.306 Y79.195 E3.14963
G1 X74.749 Y79.28 E3.15633
G1 X72.729 Y78.286 E3.18308
G1 X72.452 Y77.792 E3.18981
G1 X72.561 Y76.851 E3.20107
G0 F1500 X72.508 Y77.314
G1 F1200 X73.497 Y77.314 E3.21282
G0 F1500 X74.648 Y77.884
G1 F1200 X74.648 Y79.23 E3.22882
G0 F1500 X79.638 Y80.384
G1 F1200 X79.785 Y80.482 E3.23092
G1 X83.655 Y82.487 E3.28271
G1 X84.15 Y82.491 E3.28859
G1 X84.668 Y82.236 E3.29545
G1 X84.997 Y82.405 E3.29985
G1 X85.056 Y82.588 E3.30213
G1 X82.564 Y82.588 E3.33175
G1 X82.333 Y82.804 E3.33551
G1 X81.779 Y82.881 E3.34215
G1 X79.775 Y81.84 E3.36899
G1 X79.515 Y81.332 E3.37577
G1 X79.638 Y80.384 E3.38713
G0 F1500 X79.98 Y80.584
G1 F1200 X79.98 Y81.947 E3.40333
G0 F1500 X81.325 Y82.646
G1 F1200 X82.501 Y82.646 E3.4173
G0 F1500 X82.646 Y82.588
G1 F1200 X82.646 Y81.965 E3.42471
G1 F2400 E2.42471
G0 F1500 X79.286 Y79.448
G0 X79.035 Y78.921
G0 X79.389 Y77.288
G0 X79.975 Y76.9
G0 X80.649 Y77.027
G0 X82.319 Y76.806
G1 F2400 E3.42471
G1 F1200 X81.881 Y76.721 E3.43001
G1 X81.731 Y76.753 E3.43183
G1 X81.802 Y76.699 E3.43289
G1 X81.804 Y76.69 E3.433
G1 X81.896 Y76.676 E3.43411
G1 X82.077 Y76.499 E3.43712
G1 X82.453 Y74.544 E3.46077
G1 X82.351 Y74.314 E3.46376
G1 X82.272 Y74.261 E3.46489
G1 X82.223 Y74.177 E3.46605
G1 X82.356 Y74.268 E3.46796
G1 X82.793 Y74.353 E3.47326
G1 X83.078 Y74.629 E3.47797
G1 X83.109 Y74.729 E3.47921
G1 X82.754 Y76.575 E3.50155
G1 X82.684 Y76.659 E3.50285
G1 X82.319 Y76.806 E3.50753
G0 F1500 X82.646 Y76.675
G1 F1200 X82.646 Y74.324 E3.53547
G0 F1500 X82.433 Y74.648
G1 F1200 X83.094 Y74.648 E3.54332
G1 F2400 E2.54332
G0 F1500 X83.927 Y77.655
G0 X79.975 Y76.9
G0 X79.389 Y77.288
G0 X79.035 Y78.921
G0 X79.286 Y79.448
G0 X83.881 Y81.829
G0 X84.612 Y81.534
G0 X85.564 Y78.846
G0 X87.443 Y79.475
G0 X88.203 Y79.671
G0 X88.787 Y79.339
G0 X89.745 Y77.062
G1 F2400 E3.54332
G1 F1200 X89.865 Y77.171 E3.54525
G1 X90.286 Y77.316 E3.55054
G1 X90.532 Y77.63 E3.55528
G1 X90.548 Y77.725 E3.55642
G1 X89.941 Y79.511 E3.57884
G1 X89.867 Y79.579 E3.58004
G1 X89.485 Y79.677 E3.58472
G1 X89.063 Y79.533 E3.59002
G1 X88.903 Y79.547 E3.59193
G1 X88.984 Y79.501 E3.59304
G1 X88.987 Y79.492 E3.59315
G1 X89.081 Y79.49 E3.59427
G1 X89.284 Y79.342 E3.59725
G1 X89.925 Y77.457 E3.62091
G1 X89.853 Y77.216 E3.6239
G1 X89.781 Y77.158 E3.625
G1 X89.745 Y77.062 E3.62622
G0 F1500 X89.975 Y77.314
G1 F1200 X90.282 Y77.314 E3.62987
G1 F2400 E2.62987
G0 F1500 X89.015 Y80.088
G0 X87.063 Y79.425
G0 X86.436 Y79.719
G0 X85.487 Y82.167
G0 X85.721 Y82.784
G0 X89.46 Y85.215
G0 X90.248 Y85.138
G0 X90.799 Y84.812
G1 F2400 E3.62987
G1 F1200 X91.153 Y85.213 E3.63622
G1 X90.551 Y86.142 E3.64938
G1 X90.601 Y86.879 E3.65816
G1 X91.495 Y87.893 E3.67422
G1 X91.46 Y88.534 E3.68185
G1 X93.486 Y90.838 E3.71831
G1 X93.942 Y91.023 E3.72416
G1 X94.536 Y90.977 E3.73124
G1 X94.831 Y91.309 E3.73651
G1 X94.784 Y92.034 E3.74515
G1 X94.921 Y92.439 E3.75023
G1 X93.805 Y91.056 E3.77135
G1 X93.364 Y90.845 E3.77716
G1 X92.348 Y90.845 E3.78923
G1 X91.758 Y90.706 E3.79643
G1 X90.272 Y89.018 E3.82316
G1 X90.096 Y87.52 E3.84108
G1 X89.013 Y86.285 E3.8606
G1 X88.571 Y86.085 E3.86637
G1 X87.954 Y86.085 E3.8737
G1 X85.942 Y85.038 E3.90065
G1 X85.682 Y84.531 E3.90742
G1 X85.798 Y83.596 E3.91862
G1 X88.594 Y85.051 E3.95608
G1 X88.919 Y84.963 E3.96008
G1 X89.36 Y85.466 E3.96803
G1 X90.481 Y85.356 E3.98141
G1 X90.799 Y84.812 E3.9889
G1 F2400 E2.9889
G0 F1500 X90.833 Y86.783
G0 X95.05 Y92.614
G1 F2400 E3.9889
G1 F1200 X97.946 Y95.909 E4.04103
G1 X97.521 Y95.808 E4.04622
G1 X96.899 Y96.055 E4.05418
G1 X96.346 Y95.916 E4.06095
G1 X94.857 Y94.23 E4.08768
G1 X94.793 Y93.667 E4.09442
G1 X95.095 Y93.112 E4.10193
G1 X95.05 Y92.614 E4.10787
G0 F1500 X98.226 Y96.148
G1 F1200 X98.544 Y96.297 E4.11204
G1 X99.095 Y96.313 E4.11859
G1 X99.463 Y96.699 E4.12493
G1 X99.424 Y97.311 E4.13222
G1 X99.527 Y97.614 E4.13602
G1 X98.226 Y96.148 E4.15931
G0 F1500 X99.669 Y97.868
G1 F1200 X102.74 Y101.357 E4.21455
G1 X103.812 Y101.517 E4.22743
G1 X103.982 Y101.708 E4.23047
G1 X103.922 Y102.649 E4.24167
G1 X102.894 Y101.483 E4.26014
G1 X102.452 Y101.284 E4.2659
G1 X101.524 Y101.284 E4.27693
G1 X100.933 Y101.133 E4.28418
G1 X99.45 Y99.453 E4.31081
G1 X99.388 Y98.885 E4.3176
G1 X99.716 Y98.282 E4.32576
G1 X99.669 Y97.868 E4.33071
G0 F1500 X104.228 Y103.047
G1 F1200 X106.465 Y105.59 E4.37096
G1 X106.924 Y105.774 E4.37683
G1 X107.204 Y105.75 E4.38017
G1 X107.787 Y106.414 E4.39067
G1 X108.565 Y106.54 E4.40004
G1 X109.442 Y106.031 E4.41209
G1 X109.592 Y106.279 E4.41553
G1 X108.683 Y106.71 E4.42749
G1 X108.347 Y107.448 E4.43713
G1 X108.693 Y108.627 E4.45173
G1 X108.512 Y108.935 E4.45597
G1 X108.454 Y109.412 E4.46168
G1 X109.189 Y111.917 E4.49271
G1 X108.248 Y111.858 E4.50391
G1 X107.809 Y111.504 E4.51061
G1 X107.172 Y109.341 E4.53741
G1 X107.687 Y107.848 E4.55618
G1 X107.474 Y107.34 E4.56272
G1 X105.597 Y106.432 E4.5875
G1 X104.032 Y104.658 E4.61561
G1 X103.968 Y104.079 E4.62254
G1 X104.279 Y103.511 E4.63023
G1 X104.228 Y103.047 E4.63578
G0 F1500 X104.026 Y103.974
G1 F1200 X105.044 Y103.974 E4.64788
G0 F1500 X106.64 Y105.661
G1 F1200 X106.64 Y106.935 E4.66301
G0 F1500 X106.028 Y106.64
G1 F1200 X108.713 Y106.64 E4.69492
G0 F1500 X108.466 Y109.306
G1 F1200 X107.184 Y109.306 E4.71016
G0 F1500 X103.974 Y101.833
G1 F1200 X103.974 Y101.699 E4.71175
G0 F1500 X101.308 Y101.228
G1 F1200 X101.308 Y99.731 E4.72954
G0 F1500 X100.351 Y98.642
G1 F1200 X99.521 Y98.642 E4.7394
G0 F1500 X98.642 Y96.615
G1 F1200 X98.642 Y96.394 E4.74203
G0 F1500 X97.098 Y95.976
G1 F1200 X96.584 Y95.976 E4.74814
G0 F1500 X95.976 Y95.498
G1 F1200 X95.976 Y93.668 E4.76988
G0 F1500 X95.662 Y93.31
G1 F1200 X94.988 Y93.31 E4.77789
G0 F1500 X93.269 Y90.644
G1 F1200 X91.703 Y90.644 E4.7965
G0 F1500 X90.644 Y89.439
G1 F1200 X90.644 Y86.929 E4.82633
G0 F1500 X90.644 Y86
G1 F1200 X90.644 Y85.077 E4.8373
G0 F1500 X90.507 Y85.312
G1 F1200 X91.088 Y85.312 E4.8442
G0 F1500 X89.226 Y85.312
G1 F1200 X86.466 Y85.312 E4.877
G0 F1500 X87.978 Y84.731
G1 F1200 X87.978 Y86.085 E4.89309
G0 F1500 X90.149 Y87.978
G1 F1200 X91.49 Y87.978 E4.90903
G1 F2400 E3.90903
G0 F1500 X90.833 Y86.783
G0 X90.793 Y86.204
G0 X93.017 Y82.777
G0 X93.687 Y82.617
G0 X94.528 Y83.102
G0 X95.475 Y83.107
G1 F2400 E4.90903
G1 F1200 X95.569 Y83.072 E4.91022
G1 X95.659 Y83.088 E4.91131
G1 X95.889 Y82.982 E4.91432
G1 X96.89 Y81.262 E4.93797
G1 X96.87 Y81.012 E4.94095
G1 X96.81 Y80.94 E4.94206
G1 X96.795 Y80.839 E4.94327
G1 X96.889 Y80.97 E4.94519
G1 X97.277 Y81.197 E4.95053
G1 X97.455 Y81.55 E4.95523
G1 X97.451 Y81.65 E4.95642
G1 X96.503 Y83.275 E4.97878
G1 X96.412 Y83.331 E4.98004
G1 X96.017 Y83.351 E4.98474
G1 X95.63 Y83.125 E4.99007
G1 X95.475 Y83.107 E4.99192
G0 F1500 X95.976 Y83.326
G1 F1200 X95.976 Y82.832 E4.9978
G0 F1500 X96.085 Y82.646
G1 F1200 X96.868 Y82.646 E5.0071
G1 F2400 E4.0071
G0 F1500 X97.251 Y84.682
G0 X93.687 Y82.617
G0 X93.017 Y82.777
G0 X90.793 Y86.204
G0 X90.833 Y86.783
G0 X93.944 Y90.314
G0 X94.726 Y90.314
G0 X98.94 Y85.486
G0 X100.451 Y86.778
G0 X101.015 Y87.192
G0 X101.769 Y87.386
G1 F2400 E5.0071
G1 F1200 X101.863 Y87.374 E5.00823
G1 X101.868 Y87.368 E5.00832
G1 X101.956 Y87.401 E5.00944
G1 X102.2 Y87.339 E5.01243
G1 X103.499 Y85.831 E5.03608
G1 X103.523 Y85.579 E5.03909
G1 X103.478 Y85.501 E5.04016
G1 X103.484 Y85.494 E5.04027
G1 X103.483 Y85.396 E5.04143
G1 X103.553 Y85.545 E5.04339
G1 X103.888 Y85.834 E5.04865
G1 X104 Y86.216 E5.05338
G1 X103.978 Y86.316 E5.05459
G1 X102.749 Y87.741 E5.07696
G1 X102.651 Y87.778 E5.0782
G1 X102.263 Y87.726 E5.08285
G1 X101.926 Y87.435 E5.08814
G1 X101.769 Y87.386 E5.0901
G0 F1500 X103.974 Y86.322
G1 F1200 X103.974 Y86.126 E5.09243
G1 F2400 E4.09243
G0 F1500 X103.226 Y89.256
G0 X100.195 Y86.657
G0 X99.495 Y86.699
G0 X95.369 Y91.275
G0 X95.364 Y91.93
G0 X98.653 Y95.675
G0 X99.382 Y95.709
G0 X105.232 Y90.255
G0 X106.803 Y91.901
G0 X107.194 Y92.221
G0 X107.846 Y92.203
G0 X109.761 Y90.645
G1 F2400 E5.09243
G1 F1200 X109.814 Y90.796 E5.09433
G1 X110.118 Y91.12 E5.09961
G1 X110.188 Y91.512 E5.10434
G1 X110.157 Y91.606 E5.10552
G1 X108.782 Y92.897 E5.12793
G1 X108.685 Y92.923 E5.12912
G1 X108.3 Y92.829 E5.13383
G1 X107.993 Y92.503 E5.13916
G1 X107.853 Y92.442 E5.14097
G1 X107.942 Y92.44 E5.14203
G1 X107.948 Y92.434 E5.14213
G1 X108.031 Y92.476 E5.14323
G1 X108.281 Y92.44 E5.14624
G1 X109.732 Y91.077 E5.16989
G1 X109.784 Y90.831 E5.17288
G1 X109.747 Y90.744 E5.174
G1 X109.752 Y90.74 E5.17408
G1 X109.761 Y90.645 E5.17522
G0 F1500 X109.306 Y91.477
G1 F1200 X109.306 Y92.406 E5.18625
G1 F2400 E4.18625
G0 F1500 X109.102 Y94.456
G0 X106.355 Y91.551
G0 X105.655 Y91.522
G0 X100.072 Y96.526
G0 X100.029 Y97.232
G0 X103.227 Y100.871
G0 X103.894 Y100.939
G0 X110.711 Y95.957
G0 X112.084 Y97.783
G0 X112.363 Y98.074
G0 X113.051 Y98.437
G1 F2400 E5.18625
G1 F1200 X113.152 Y98.443 E5.18746
G1 X113.231 Y98.495 E5.18858
G1 X113.483 Y98.487 E5.19158
G1 X115.082 Y97.307 E5.21519
G1 X115.164 Y97.068 E5.2182
G1 X115.14 Y96.973 E5.21936
G1 X115.162 Y96.872 E5.22059
G1 X115.197 Y97.031 E5.22252
G1 X115.464 Y97.394 E5.22788
G1 X115.492 Y97.954 E5.23454
G1 X115.229 Y98.039 E5.23783
G1 X113.924 Y99.003 E5.25711
G1 X113.824 Y99.016 E5.2583
G1 X113.454 Y98.877 E5.263
G1 X113.185 Y98.512 E5.26839
G1 X113.051 Y98.437 E5.27021
G0 F1500 X113.281 Y98.642
G1 F1200 X114.412 Y98.642 E5.28365
G0 F1500 X114.638 Y98.476
G1 F1200 X114.638 Y97.635 E5.29365
G1 F2400 E4.29365
G0 F1500 X116.919 Y98.48
G0 X114.705 Y95.453
G0 X114.825 Y94.732
G0 X126.305 Y86.92
G0 X126.679 Y86.856
G0 X128.363 Y87.325
G0 X128.717 Y87.865
G0 X127.771 Y94.917
G0 X127.593 Y95.187
G0 X118.475 Y100.8
G1 F2400 E5.29365
G1 F1200 X119.345 Y100.295 E5.3056
G1 X120.299 Y100.891 E5.31897
G1 X120.277 Y101.223 E5.32292
G1 X119.33 Y101.672 E5.33538
G1 X119.207 Y102.071 E5.34034
G1 X118.475 Y100.8 E5.35777
G0 F1500 X118.767 Y101.308
G1 F1200 X120.094 Y101.308 E5.37354
G0 F1500 X119.97 Y101.369
G1 F1200 X119.97 Y100.687 E5.38165
G1 F2400 E4.38165
G0 F1500 X119.304 Y102.565
G0 X119.479 Y102.854
G0 X119.484 Y103.96
G1 F2400 E5.38165
G1 F1200 X119.755 Y104.424 E5.38803
G1 X119.734 Y104.814 E5.39267
G1 X119.678 Y104.905 E5.39394
G1 X118.052 Y105.847 E5.41627
G1 X117.951 Y105.85 E5.41747
G1 X117.598 Y105.673 E5.42217
G1 X117.374 Y105.287 E5.42747
G1 X117.245 Y105.192 E5.42937
G1 X117.338 Y105.211 E5.4305
G1 X117.344 Y105.207 E5.43059
G1 X117.416 Y105.267 E5.4317
G1 X117.667 Y105.289 E5.4347
G1 X119.388 Y104.287 E5.45836
G1 X119.494 Y104.059 E5.46135
G1 X119.484 Y103.96 E5.46253
G1 F2400 E4.46253
G0 F1500 X117.979 Y107.401
G0 X116.008 Y104.01
G0 X115.367 Y103.812
G0 X108.864 Y106.887
G0 X108.601 Y107.467
G0 X109.998 Y112.23
G0 X110.663 Y112.569
G0 X118.599 Y109.719
G0 X119.351 Y111.73
G0 X119.584 Y112.177
G0 X120.192 Y112.414
G0 X122.563 Y111.73
G1 F2400 E5.46253
G1 F1200 X122.553 Y111.895 E5.4645
G1 X122.705 Y112.313 E5.46978
G1 X122.615 Y112.701 E5.47451
G1 X122.549 Y112.775 E5.47569
G1 X120.776 Y113.423 E5.49813
G1 X120.677 Y113.408 E5.49932
G1 X120.363 Y113.173 E5.50398
G1 X120.207 Y112.75 E5.50933
G1 X120.092 Y112.631 E5.5113
G1 X120.192 Y112.667 E5.51256
G1 X120.254 Y112.74 E5.5137
G1 X120.497 Y112.804 E5.51669
G1 X122.366 Y112.123 E5.54033
G1 X122.51 Y111.917 E5.54331
G1 X122.512 Y111.822 E5.54444
G1 X122.563 Y111.73 E5.54569
G0 F1500 X122.636 Y112.122
G1 F1200 X122.636 Y112.61 E5.55149
G1 F2400 E4.55149
G0 F1500 X119.504 Y112.38
G0 X118.956 Y110.889
G0 X118.308 Y110.589
G0 X110.79 Y113.325
G0 X110.509 Y113.851
G0 X110.46 Y116.693
G1 F2400 E5.55149
G1 F1200 X113.237 Y127.897 E5.68866
G1 X112.225 Y127.531 E5.70145
G1 X111.972 Y127.249 E5.70595
G1 X111.185 Y124.071 E5.74486
G1 X111.555 Y122.637 E5.76246
G1 X111.437 Y122.153 E5.76838
G1 X110.427 Y121.028 E5.78635
G1 X109.641 Y117.859 E5.82515
G1 X109.73 Y117.489 E5.82967
G1 X110.46 Y116.693 E5.8425
G0 F1500 X110.612 Y117.304
G1 F1200 X109.9 Y117.304 E5.85097
G0 F1500 X110.163 Y119.97
G1 F1200 X111.272 Y119.97 E5.86414
G0 F1500 X111.554 Y122.636
G1 F1200 X111.933 Y122.636 E5.86865
G0 F1500 X111.972 Y122.792
G1 F1200 X111.972 Y127.247 E5.92159
G0 F1500 X111.488 Y125.302
G1 F1200 X112.594 Y125.302 E5.93473
G1 F2400 E4.93473
G0 F1500 X110.477 Y113.91
G0 X110.79 Y113.325
G0 X118.308 Y110.589
G0 X118.956 Y110.889
G0 X119.764 Y113.108
G0 X122.348 Y111.628
G0 X122.662 Y111.058
G0 X122.457 Y110.271
G0 X121.848 Y108.51
G0 X129.605 Y105.671
G0 X136.683 Y99.608
G0 X137.007 Y99.272
G0 X137.343 Y97.874
G0 X137.266 Y97.497
G0 X133.747 Y92.779
G0 X133.289 Y92.598
G0 X132.425 Y92.754
G0 X131.45 Y93.235
G1 F2400 E5.93473
G1 F1200 X131.182 Y92.75 E5.94132
G1 X131.983 Y91.911 E5.9551
G1 X133.226 Y92.198 E5.97026
G1 X133.224 Y92.369 E5.97229
