;FLAVOR:Marlin
;TIME:2949
;Filament used: 0.775091m
;Layer height: 0.3
;Generated with Cura_SteamEngine master
M190 S70
M104 S185
M109 S185
M82 ;absolute extrusion mode
G21 ;metric values
G90 ;absolute positioning
M82 ;set extruder to absolute mode
M107 ;start with the fan off
G28 X0 Y0 ;move X/Y to min endstops
G28 Z0 ;move Z to min endstops
G1 Z15.0 F9000 ;move the platform down 15mm
G92 E0 ;zero the extruded length
G1 F200 E3 ;extrude 3mm of feed stock
G92 E0 ;zero the extruded length again
G1 F9000
;Put printing message on LCD screen
M117 Printing...
G92 E0
G1 F1500 E-6.5
;LAYER_COUNT:132
;LAYER:0
M107
G0 F1000 X76.835 Y76.248 Z0.3
;TYPE:SKIRT
G1 F1500 E0
G1 F1200 X77.242 Y75.899 E0.00956
G1 X77.696 Y75.613 E0.01912
G1 X78.187 Y75.398 E0.02868
G1 X78.705 Y75.259 E0.03824
G1 X79.238 Y75.198 E0.0478
G1 X79.656 Y75.206 E0.05525
G1 X85.051 Y75.621 E0.1517
G1 X89.741 Y75.748 E0.23534
G1 X95.975 Y75.669 E0.34647
G1 X102.603 Y75.205 E0.4649
G1 X103.14 Y75.207 E0.47448
G1 X103.67 Y75.289 E0.48403
G1 X104.182 Y75.449 E0.4936
G1 X104.664 Y75.684 E0.50316
G1 X105.106 Y75.987 E0.51271
G1 X105.379 Y76.229 E0.51921
G1 X106.594 Y77.424 E0.54959
G1 X106.948 Y77.828 E0.55916
G1 X107.237 Y78.279 E0.56871
G1 X107.456 Y78.769 E0.57828
G1 X107.6 Y79.285 E0.58783
G1 X107.666 Y79.818 E0.5974
G1 X107.664 Y80.207 E0.60434
G1 X107.22 Y87.613 E0.73659
G1 X107.141 Y93.086 E0.83416
G1 X107.374 Y98.606 E0.93264
G1 X107.664 Y103.263 E1.01581
G1 X107.657 Y103.799 E1.02537
G1 X107.571 Y104.329 E1.03494
G1 X107.407 Y104.839 E1.04449
G1 X107.169 Y105.32 E1.05405
G1 X106.863 Y105.76 E1.06361
G1 X106.617 Y106.033 E1.07016
G1 X105.424 Y107.226 E1.10023
G1 X104.99 Y107.595 E1.11039
G1 X99.857 Y111.314 E1.22338
G1 X96.205 Y114.276 E1.30719
G1 X95.764 Y114.582 E1.31676
G1 X95.283 Y114.819 E1.32632
G1 X94.772 Y114.982 E1.33588
G1 X94.243 Y115.067 E1.34543
G1 X93.937 Y115.08 E1.35089
G1 X83.043 Y115.079 E1.54508
G1 X82.508 Y115.039 E1.55464
G1 X81.985 Y114.92 E1.5642
G1 X81.486 Y114.725 E1.57375
G1 X81.021 Y114.457 E1.58332
G1 X80.601 Y114.124 E1.59288
G1 X80.235 Y113.732 E1.60244
G1 X79.919 Y113.269 E1.61243
G1 X78.028 Y109.969 E1.68022
G1 X75.137 Y105.403 E1.77656
G1 X74.885 Y104.93 E1.78611
G1 X74.706 Y104.424 E1.79568
G1 X74.604 Y103.898 E1.80523
G1 X74.582 Y103.34 E1.81518
G1 X74.663 Y101.21 E1.85318
G1 X74.672 Y101.048 E1.85607
G1 X74.876 Y98.598 E1.89989
G1 X75.111 Y93.126 E1.99752
G1 X75.034 Y87.656 E2.09504
G1 X74.588 Y80.207 E2.22806
G1 X74.596 Y79.671 E2.23761
G1 X74.684 Y79.142 E2.24717
G1 X74.849 Y78.632 E2.25673
G1 X75.088 Y78.152 E2.26629
G1 X75.396 Y77.712 E2.27586
G1 X75.637 Y77.445 E2.28227
G1 X76.835 Y76.248 E2.31246
G0 F1000 X77.118 Y76.531
G1 F1200 X77.503 Y76.203 E2.32147
G1 X77.935 Y75.94 E2.33049
G1 X78.402 Y75.748 E2.33949
G1 X78.894 Y75.632 E2.3485
G1 X79.625 Y75.604 E2.36154
G1 X85.049 Y76.021 E2.45851
G1 X89.735 Y76.148 E2.54207
G1 X95.991 Y76.069 E2.6536
G1 X102.631 Y75.604 E2.77225
G1 X103.137 Y75.608 E2.78127
G1 X103.635 Y75.693 E2.79027
G1 X104.115 Y75.854 E2.7993
G1 X104.562 Y76.089 E2.8083
G1 X105.099 Y76.515 E2.82052
G1 X106.314 Y77.71 E2.85089
G1 X106.645 Y78.091 E2.85989
G1 X106.912 Y78.521 E2.86891
G1 X107.108 Y78.987 E2.87792
G1 X107.229 Y79.478 E2.88694
G1 X107.264 Y80.183 E2.89952
G1 X106.82 Y87.583 E3.03166
G1 X106.741 Y93.097 E3.12996
G1 X106.972 Y98.583 E3.22784
G1 X107.265 Y103.288 E3.31187
G1 X107.256 Y103.794 E3.32089
G1 X107.168 Y104.291 E3.32989
G1 X107.003 Y104.769 E3.3389
G1 X106.764 Y105.215 E3.34792
G1 X106.334 Y105.75 E3.36016
G1 X105.141 Y106.943 E3.39023
G1 X104.755 Y107.271 E3.39926
G1 X99.613 Y110.997 E3.51245
G1 X95.953 Y113.965 E3.59645
G1 X95.536 Y114.252 E3.60547
G1 X95.08 Y114.469 E3.61447
G1 X94.595 Y114.612 E3.62349
G1 X93.937 Y114.68 E3.63528
G1 X83.043 Y114.679 E3.82947
G1 X82.539 Y114.639 E3.83848
G1 X82.047 Y114.52 E3.8475
G1 X81.581 Y114.325 E3.85651
G1 X81.151 Y114.06 E3.86551
G1 X80.768 Y113.729 E3.87454
G1 X80.442 Y113.343 E3.88354
G1 X80.267 Y113.07 E3.88932
G1 X78.381 Y109.779 E3.95694
G1 X75.475 Y105.189 E4.05377
G1 X75.239 Y104.742 E4.06278
G1 X75.077 Y104.263 E4.0718
G1 X74.992 Y103.765 E4.0808
G1 X74.981 Y103.355 E4.08811
G1 X75.062 Y101.225 E4.12611
G1 X75.071 Y101.081 E4.12868
G1 X75.276 Y98.623 E4.17265
G1 X75.511 Y93.133 E4.2706
G1 X75.434 Y87.626 E4.36877
G1 X74.988 Y80.183 E4.50168
G1 X74.997 Y79.678 E4.51069
G1 X75.087 Y79.18 E4.51971
G1 X75.253 Y78.703 E4.52871
G1 X75.493 Y78.258 E4.53772
G1 X75.92 Y77.728 E4.54986
G1 X77.118 Y76.531 E4.58004
G0 F1000 X78.941 Y79.503
;TYPE:SUPPORT
G1 F1200 X78.941 Y82.235 E4.62874
G1 X78.451 Y82.021 E4.63827
G1 X78.451 Y80.151 E4.67161
G1 X78.405 Y80.039 E4.67377
G1 X78.941 Y79.503 E4.68728
G0 F1000 X78.941 Y79.98
G1 F1200 X78.463 Y79.98 E4.6958
G1 F1500 E-1.8042
G0 F1000 X79.18 Y89.641
G0 X79.843 Y90.384
G1 F1500 E4.6958
G1 F1200 X89.37 Y90.384 E4.86562
G1 X89.769 Y89.985 E4.87568
G1 X89.769 Y80.456 E5.04554
G1 X92.483 Y80.457 E5.09391
G1 X92.483 Y89.985 E5.26375
G1 X92.882 Y90.384 E5.27381
G1 X102.411 Y90.384 E5.44367
G1 X102.411 Y91.969 E5.47192
G1 X92.882 Y91.969 E5.64178
G1 X92.483 Y92.368 E5.65184
G1 X92.483 Y97.612 E5.74532
G1 X89.769 Y97.612 E5.79369
G1 X89.769 Y92.368 E5.88717
G1 X89.37 Y91.969 E5.89723
G1 X79.841 Y91.969 E6.06709
G1 X79.843 Y90.384 E6.09534
G0 F1000 X79.98 Y90.384
G1 F1200 X79.98 Y91.969 E6.12359
G0 F1000 X79.843 Y90.644
G1 F1200 X102.411 Y90.644 E6.52587
G0 F1000 X101.308 Y90.384
G1 F1200 X101.308 Y91.969 E6.55413
G0 F1000 X98.642 Y91.969
G1 F1200 X98.642 Y90.384 E6.58238
G0 F1000 X95.976 Y90.384
G1 F1200 X95.976 Y91.969 E6.61063
G0 F1000 X93.31 Y91.969
G1 F1200 X93.31 Y90.384 E6.63889
G1 F1500 E0.13889
G0 F1000 X92.722 Y89.641
G0 X92.483 Y87.978
G1 F1500 E6.63889
G1 F1200 X89.769 Y87.978 E6.68727
G0 F1000 X89.769 Y85.312
G1 F1200 X92.483 Y85.312 E6.73564
G0 F1000 X92.483 Y82.646
G1 F1200 X89.769 Y82.646 E6.78402
G0 F1000 X90.644 Y80.457
G1 F1200 X90.644 Y97.612 E7.08982
G0 F1000 X89.769 Y95.976
G1 F1200 X92.483 Y95.976 E7.13819
G0 F1000 X92.483 Y93.31
G1 F1200 X89.769 Y93.31 E7.18657
G1 F1500 E0.68657
G0 F1000 X89.53 Y92.712
G0 X89.077 Y92.259
G0 X87.978 Y91.969
G1 F1500 E7.18657
G1 F1200 X87.978 Y90.384 E7.21482
G0 F1000 X85.312 Y90.384
G1 F1200 X85.312 Y91.969 E7.24308
G0 F1000 X82.646 Y91.969
G1 F1200 X82.646 Y90.384 E7.27133
G1 F1500 E0.77133
G0 F1000 X102.568 Y90.145
G0 X103.072 Y89.641
G0 X103.311 Y82.231
G1 F1500 E7.27133
G1 F1200 X103.311 Y79.502 E7.31998
G1 X103.846 Y80.037 E7.33346
G1 X103.801 Y80.146 E7.33557
G1 X103.801 Y82.019 E7.36895
G1 X103.311 Y82.231 E7.37847
G0 F1000 X103.311 Y79.98
G1 F1200 X103.79 Y79.98 E7.38701
G0 F1000 X103.311 Y101.246
G1 F1200 X103.801 Y101.46 E7.39654
G1 X103.801 Y103.33 E7.42987
G1 X103.847 Y103.443 E7.43205
G1 X102.829 Y104.461 E7.45771
G1 X102.716 Y104.415 E7.45988
G1 X100.846 Y104.415 E7.49322
G1 X100.631 Y103.925 E7.50276
G1 X102.912 Y103.925 E7.54342
G1 X103.311 Y103.526 E7.55347
G1 X103.311 Y101.246 E7.59412
G0 F1000 X103.311 Y101.308
G1 F1200 X103.458 Y101.308 E7.59674
G0 F1000 X103.038 Y103.974
G1 F1200 X100.653 Y103.974 E7.63925
G0 F1000 X101.308 Y103.925
G1 F1200 X101.308 Y104.415 E7.64798
G1 F1500 E1.14798
G0 F1000 X94.105 Y112.15
G0 X82.88 Y112.15
G0 X82.376 Y111.646
G0 X81.62 Y103.925
G1 F1500 E7.64798
G1 F1200 X81.406 Y104.415 E7.65751
G1 X79.536 Y104.415 E7.69085
G1 X79.423 Y104.461 E7.69302
G1 X78.405 Y103.443 E7.71869
G1 X78.451 Y103.33 E7.72086
G1 X78.451 Y101.46 E7.75419
G1 X78.941 Y101.245 E7.76373
G1 X78.941 Y103.526 E7.80439
G1 X79.34 Y103.925 E7.81445
G1 X81.62 Y103.925 E7.85509
G0 F1000 X81.601 Y103.974
G1 F1200 X79.215 Y103.974 E7.89762
G0 F1000 X79.98 Y103.925
G1 F1200 X79.98 Y104.415 E7.90636
G1 F1500 E1.40636
G0 F1000 X79.18 Y103.182
G0 X78.941 Y101.308
G1 F1500 E7.90636
G1 F1200 X78.799 Y101.308 E7.90889
G1 F1500 E1.40889
G0 F1000 X79.18 Y92.712
G0 X80.455 Y90.149
G0 X80.455 Y88.87
G0 X88.199 Y88.814
G0 X88.269 Y88.884
;TYPE:WALL-INNER
G1 F1500 E7.90889
G1 F1200 X80.441 Y88.884 E8.04843
G1 X80.441 Y79.927 E8.20809
G1 X88.269 Y79.927 E8.34762
G1 X88.269 Y88.884 E8.50729
G0 F1000 X88.669 Y89.284
;TYPE:WALL-OUTER
G1 F1200 X80.041 Y89.284 E8.66108
G1 X80.041 Y79.527 E8.835
G1 X88.669 Y79.527 E8.9888
G1 X88.669 Y89.284 E9.16272
G0 F1000 X88.469 Y89.284
G0 X88.199 Y88.814
G0 X87.879 Y88.494
;TYPE:SKIN
G1 F1200 X80.831 Y88.494 E9.28836
G1 X80.831 Y80.317 E9.43411
G1 X87.879 Y80.317 E9.55975
G1 X87.879 Y88.494 E9.70551
G0 F1000 X81.524 Y88.312
G1 F1200 X81.01 Y87.798 E9.71846
G0 F1000 X81.01 Y87.232
G1 F1200 X82.09 Y88.312 E9.74569
G1 X82.16 Y88.382
G0 F1000 X82.655 Y88.312
G1 F1200 X81.01 Y86.667 E9.78716
G1 X80.94 Y86.597
G0 F1000 X81.01 Y86.101
G1 F1200 X83.221 Y88.312 E9.84289
G1 X83.291 Y88.382
G0 F1000 X83.787 Y88.312
G1 F1200 X81.01 Y85.535 E9.9129
G1 X80.94 Y85.465
G0 F1000 X81.01 Y84.97
G1 F1200 X84.352 Y88.312 E9.99715
G1 X84.422 Y88.382
G0 F1000 X84.918 Y88.312
G1 F1200 X81.01 Y84.404 E10.09566
G1 X80.94 Y84.334
G0 F1000 X81.01 Y83.838
G1 F1200 X85.484 Y88.312 E10.20845
G1 X85.554 Y88.382
G0 F1000 X86.049 Y88.312
G1 F1200 X81.01 Y83.273 E10.33548
G1 X80.94 Y83.203
G0 F1000 X81.01 Y82.707
G1 F1200 X86.615 Y88.312 E10.47677
G1 X86.685 Y88.382
G0 F1000 X87.181 Y88.312
G1 F1200 X81.01 Y82.141 E10.63233
G1 X80.94 Y82.071
G0 F1000 X81.01 Y81.576
G1 F1200 X87.698 Y88.264 E10.80093
G1 X87.768 Y88.334
G0 F1000 X87.698 Y87.698
G1 F1200 X81.01 Y81.01 E10.96953
G1 X80.94 Y80.94
G0 F1000 X81.062 Y80.497
G1 F1200 X87.698 Y87.133 E11.13681
G1 X87.768 Y87.203
G0 F1000 X87.698 Y86.567
G1 F1200 X81.628 Y80.497 E11.28983
G1 X81.558 Y80.427
G0 F1000 X82.194 Y80.497
G1 F1200 X87.698 Y86.001 E11.42858
G1 X87.768 Y86.071
G0 F1000 X87.698 Y85.436
G1 F1200 X82.759 Y80.497 E11.55309
G1 X82.689 Y80.427
G0 F1000 X83.325 Y80.497
G1 F1200 X87.698 Y84.87 E11.66333
G1 X87.768 Y84.94
G0 F1000 X87.698 Y84.304
G1 F1200 X83.891 Y80.497 E11.7593
G1 X83.821 Y80.427
G0 F1000 X84.456 Y80.497
G1 F1200 X87.698 Y83.739 E11.84102
G1 X87.768 Y83.809
G0 F1000 X87.698 Y83.173
G1 F1200 X85.022 Y80.497 E11.90848
G1 X84.952 Y80.427
G0 F1000 X85.588 Y80.497
G1 F1200 X87.698 Y82.607 E11.96167
G1 X87.768 Y82.677
G0 F1000 X87.698 Y82.042
G1 F1200 X86.153 Y80.497 E12.00062
G1 X86.083 Y80.427
G0 F1000 X86.719 Y80.497
G1 F1200 X87.698 Y81.476 E12.0253
G1 X87.768 Y81.546
G0 F1000 X87.698 Y80.91
G1 F1200 X87.285 Y80.497 E12.03571
G1 F1500 E5.53571
G0 F1000 X88.249 Y88.814
G0 X89.534 Y88.814
G0 X92.718 Y88.814
G0 X94.003 Y88.814
G0 X101.741 Y88.814
G0 X101.811 Y88.884
;TYPE:WALL-INNER
G1 F1500 E12.03571
G1 F1200 X93.983 Y88.884 E12.17525
G1 X93.983 Y79.927 E12.33491
G1 X101.811 Y79.927 E12.47445
G1 X101.811 Y88.884 E12.63411
G0 F1000 X102.211 Y89.284
;TYPE:WALL-OUTER
G1 F1200 X93.583 Y89.284 E12.78791
G1 X93.583 Y79.527 E12.96183
G1 X102.211 Y79.527 E13.11563
G1 X102.211 Y89.284 E13.28955
G0 F1000 X102.011 Y89.284
G0 X101.741 Y88.814
G0 X101.421 Y88.494
;TYPE:SKIN
G1 F1200 X94.373 Y88.494 E13.41518
G1 X94.373 Y80.317 E13.56094
G1 X101.421 Y80.317 E13.68657
G1 X101.421 Y88.494 E13.83233
G0 F1000 X95.102 Y88.314
G1 F1200 X94.552 Y87.763 E13.84621
G0 F1000 X94.552 Y87.198
G1 F1200 X95.668 Y88.314 E13.87434
G1 X95.738 Y88.384
G0 F1000 X96.233 Y88.314
G1 F1200 X94.552 Y86.632 E13.91673
G1 X94.482 Y86.562
G0 F1000 X94.552 Y86.066
G1 F1200 X96.799 Y88.314 E13.97339
G1 X96.869 Y88.384
G0 F1000 X97.365 Y88.314
G1 F1200 X94.552 Y85.501 E14.0443
G1 X94.482 Y85.431
G0 F1000 X94.552 Y84.935
G1 F1200 X97.93 Y88.314 E14.12947
G1 X98 Y88.384
G0 F1000 X98.496 Y88.314
G1 F1200 X94.552 Y84.369 E14.2289
G1 X94.482 Y84.299
G0 F1000 X94.552 Y83.804
G1 F1200 X99.062 Y88.314 E14.34259
G1 X99.132 Y88.384
G0 F1000 X99.627 Y88.314
G1 F1200 X94.552 Y83.238 E14.47054
G1 X94.482 Y83.168
G0 F1000 X94.552 Y82.672
G1 F1200 X100.193 Y88.314 E14.61276
G1 X100.263 Y88.384
G0 F1000 X100.759 Y88.314
G1 F1200 X94.552 Y82.107 E14.76923
G1 X94.482 Y82.037
G0 F1000 X94.552 Y81.541
G1 F1200 X101.24 Y88.229 E14.93783
G1 X101.31 Y88.299
G0 F1000 X101.24 Y87.664
G1 F1200 X94.552 Y80.975 E15.10644
G1 X94.482 Y80.905
G0 F1000 X94.639 Y80.497
G1 F1200 X101.24 Y87.098 E15.27284
G1 X101.31 Y87.168
G0 F1000 X101.24 Y86.532
G1 F1200 X95.204 Y80.497 E15.42499
G1 X95.134 Y80.427
G0 F1000 X95.77 Y80.497
G1 F1200 X101.24 Y85.967 E15.56288
G1 X101.31 Y86.037
G0 F1000 X101.24 Y85.401
G1 F1200 X96.336 Y80.497 E15.6865
G1 X96.266 Y80.427
G0 F1000 X96.901 Y80.497
G1 F1200 X101.24 Y84.835 E15.79587
G1 X101.31 Y84.905
G0 F1000 X101.24 Y84.27
G1 F1200 X97.467 Y80.497 E15.89099
G1 X97.397 Y80.427
G0 F1000 X98.033 Y80.497
G1 F1200 X101.24 Y83.704 E15.97183
G1 X101.31 Y83.774
G0 F1000 X101.24 Y83.138
G1 F1200 X98.598 Y80.497 E16.03842
G1 X98.528 Y80.427
G0 F1000 X99.164 Y80.497
G1 F1200 X101.24 Y82.573 E16.09075
G1 X101.31 Y82.643
G0 F1000 X101.24 Y82.007
G1 F1200 X99.73 Y80.497 E16.12882
G1 X99.66 Y80.427
G0 F1000 X100.296 Y80.497
G1 F1200 X101.24 Y81.441 E16.15262
G1 X101.31 Y81.511
G0 F1000 X101.24 Y80.876
G1 F1200 X100.861 Y80.497 E16.16217
G1 F1500 E9.66217
G0 F1000 X93.997 Y88.87
G0 X93.997 Y90.149
G0 X93.997 Y92.204
G0 X93.997 Y93.483
G0 X94.011 Y99.14
G0 X93.278 Y102.355
G0 X93.348 Y102.425
;TYPE:WALL-INNER
G1 F1500 E16.16217
G1 F1200 X93.348 Y110.889 E16.31304
G1 X83.637 Y110.889 E16.48615
G1 X83.636 Y106.647 E16.56176
G1 X83.636 Y106.447 E16.56533
G1 X83.836 Y106.447 E16.56763
G1 X88.905 Y106.447 E16.65799
G1 X88.905 Y102.425 E16.72968
G1 X80.441 Y102.425 E16.88056
G1 X80.441 Y93.469 E17.0402
G1 X88.269 Y93.469 E17.17974
G1 X88.269 Y99.112 E17.28033
G1 X93.983 Y99.112 E17.38218
G1 X93.983 Y93.469 E17.48277
G1 X101.811 Y93.469 E17.62231
G1 X101.811 Y102.425 E17.78195
G1 X93.348 Y102.425 E17.93281
G0 F1000 X93.748 Y102.825
;TYPE:WALL-OUTER
G1 F1200 X93.748 Y111.289 E18.08368
G1 X83.237 Y111.289 E18.27104
G1 X83.236 Y106.247 E18.36092
G1 X83.236 Y106.047 E18.36448
G1 X83.436 Y106.047 E18.36679
G1 X88.505 Y106.047 E18.45715
G1 X88.505 Y102.825 E18.51458
G1 X80.041 Y102.825 E18.66546
G1 X80.041 Y93.069 E18.83936
G1 X88.669 Y93.069 E18.99316
G1 X88.669 Y98.712 E19.09375
G1 X93.583 Y98.712 E19.18134
G1 X93.583 Y93.069 E19.28193
G1 X102.211 Y93.069 E19.43572
G1 X102.211 Y102.825 E19.60963
G1 X93.748 Y102.825 E19.76048
G0 F1000 X93.748 Y103.025
G0 X93.248 Y103.025
G0 X92.958 Y102.035
;TYPE:SKIN
G1 F1200 X92.958 Y110.499 E19.91136
G1 X84.027 Y110.499 E20.07056
G1 X84.026 Y106.837 E20.13583
G1 X89.295 Y106.837 E20.22975
G1 X89.295 Y102.035 E20.31535
G1 X80.831 Y102.035 E20.46623
G1 X80.831 Y93.859 E20.61197
G1 X87.879 Y93.859 E20.7376
G1 X87.879 Y99.502 E20.83819
G1 X94.373 Y99.502 E20.95395
G1 X94.373 Y93.859 E21.05453
G1 X101.421 Y93.859 E21.18017
G1 X101.421 Y102.035 E21.32591
G1 X92.958 Y102.035 E21.47676
G0 F1000 X101.24 Y94.452
G1 F1200 X100.827 Y94.038 E21.48719
G0 F1000 X100.261 Y94.038
G1 F1200 X101.24 Y95.018 E21.51188
G1 X101.31 Y95.088
G0 F1000 X101.24 Y95.583
G1 F1200 X99.695 Y94.038 E21.55083
G1 X99.625 Y93.968
G0 F1000 X99.13 Y94.038
G1 F1200 X101.24 Y96.149 E21.60403
G1 X101.31 Y96.219
G0 F1000 X101.24 Y96.715
G1 F1200 X98.564 Y94.038 E21.6715
G1 X98.494 Y93.968
G0 F1000 X97.998 Y94.038
G1 F1200 X101.24 Y97.28 E21.75323
G1 X101.31 Y97.35
G0 F1000 X101.24 Y97.846
G1 F1200 X97.432 Y94.038 E21.84922
G1 X97.362 Y93.968
G0 F1000 X96.867 Y94.038
G1 F1200 X101.24 Y98.412 E21.95947
G1 X101.31 Y98.482
G0 F1000 X101.24 Y98.977
G1 F1200 X96.301 Y94.038 E22.08398
G1 X96.231 Y93.968
G0 F1000 X95.735 Y94.038
G1 F1200 X101.24 Y99.543 E22.22276
G1 X101.31 Y99.613
G0 F1000 X101.24 Y100.109
G1 F1200 X95.17 Y94.038 E22.37579
G1 X95.1 Y93.968
G0 F1000 X94.604 Y94.038
G1 F1200 X101.24 Y100.675 E22.54309
G1 X101.31 Y100.745
G0 F1000 X101.24 Y101.24
G1 F1200 X94.552 Y94.552 E22.71168
G1 X94.482 Y94.482
G0 F1000 X94.552 Y95.117
G1 F1200 X101.24 Y101.806 E22.88029
G1 X101.31 Y101.876
G0 F1000 X100.723 Y101.854
G1 F1200 X94.552 Y95.683 E23.03586
G1 X94.482 Y95.613
G0 F1000 X94.552 Y96.249
G1 F1200 X100.157 Y101.854 E23.17715
G1 X100.227 Y101.924
G0 F1000 X99.591 Y101.854
G1 F1200 X94.552 Y96.814 E23.30419
G1 X94.482 Y96.744
G0 F1000 X94.552 Y97.38
G1 F1200 X99.026 Y101.854 E23.41698
G1 X99.096 Y101.924
G0 F1000 X98.46 Y101.854
