; generated by Slic3r 1.37.2 on 2018-05-14 at 20:30:40

; 

; external perimeters extrusion width = 0.34mm
; perimeters extrusion width = 0.34mm
; infill extrusion width = 0.34mm
; solid infill extrusion width = 0.34mm
; top infill extrusion width = 0.30mm
; support material extrusion width = 0.30mm
; first layer extrusion width = 0.40mm

M107
M190 S60 ; set bed temperature and wait for it to be reached
M104 S195 ; set temperature
G28 ; home all axes
G1 Z5 F5000 ; lift nozzle

; Filament gcode

M109 S195 ; set temperature and wait for it to be reached
G21 ; set units to millimeters
G90 ; use absolute coordinates
M82 ; use absolute distances for extrusion
G92 E0
G1 Z0.260 F7800.000
G1 E-2.00000 F2400.00000
G92 E0
G1 X66.506 Y51.510 F7800.000
G1 E2.00000 F2400.00000
G1 F1800
G1 X67.416 Y50.340 E2.02532
G1 X68.158 Y49.575 E2.04351
G1 X69.267 Y48.674 E2.06790
G1 X70.122 Y48.137 E2.08515
G1 X71.529 Y47.450 E2.11188
G1 X72.983 Y46.994 E2.13790
G1 X74.114 Y46.792 E2.15751
G1 X75.487 Y46.693 E2.18101
G1 X124.504 Y46.693 E3.01797
G1 X126.578 Y46.895 E3.05354
G1 X128.544 Y47.479 E3.08856
G1 X130.392 Y48.441 E3.12413
G1 X131.950 Y49.674 E3.15806
G1 X133.354 Y51.306 E3.19482
G1 X134.337 Y53.033 E3.22874
G1 X135.013 Y55.010 E3.26442
G1 X135.270 Y56.747 E3.29440
G1 X135.306 Y142.588 E4.76010
G1 X135.198 Y143.976 E4.78387
G1 X135.042 Y144.869 E4.79935
G1 X134.638 Y146.233 E4.82364
G1 X134.227 Y147.194 E4.84149
G1 X133.475 Y148.519 E4.86750
G1 X132.521 Y149.734 E4.89389
G1 X131.738 Y150.517 E4.91279
G1 X130.506 Y151.484 E4.93953
G1 X129.142 Y152.253 E4.96626
G1 X128.119 Y152.677 E4.98517
G1 X126.632 Y153.094 E5.01154
G1 X125.115 Y153.283 E5.03764
G1 X75.350 Y153.305 E5.88736
G1 X73.990 Y153.194 E5.91066
G1 X73.111 Y153.038 E5.92591
G1 X71.760 Y152.635 E5.94997
G1 X70.806 Y152.227 E5.96769
G1 X69.475 Y151.471 E5.99382
G1 X68.245 Y150.502 E6.02056
G1 X67.455 Y149.707 E6.03970
G1 X66.470 Y148.436 E6.06715
G1 X65.713 Y147.074 E6.09376
G1 X65.289 Y146.014 E6.11325
G1 X64.885 Y144.523 E6.13963
G1 X64.703 Y142.894 E6.16762
G1 X64.694 Y57.406 E7.62730
G1 X64.803 Y56.017 E7.65107
G1 X64.958 Y55.131 E7.66644
G1 X65.362 Y53.767 E7.69073
G1 X65.773 Y52.806 E7.70857
G1 X66.483 Y51.549 E7.73323
G1 X66.887 Y51.777 F7800.000
G1 F1800
G1 X67.768 Y50.642 E7.75777
G1 X68.469 Y49.919 E7.77496
G1 X69.539 Y49.050 E7.79848
G1 X70.346 Y48.544 E7.81476
G1 X71.704 Y47.880 E7.84056
G1 X73.108 Y47.441 E7.86568
G1 X74.185 Y47.251 E7.88435
G1 X75.489 Y47.157 E7.90668
G1 X124.504 Y47.157 E8.74359
G1 X126.490 Y47.351 E8.77766
G1 X128.378 Y47.912 E8.81128
G1 X130.150 Y48.838 E8.84543
G1 X131.639 Y50.018 E8.87787
G1 X132.985 Y51.588 E8.91318
G1 X133.925 Y53.247 E8.94573
G1 X134.569 Y55.147 E8.97998
G1 X134.811 Y56.819 E9.00882
G1 X134.842 Y142.578 E10.47313
G1 X134.591 Y144.760 E10.51063
G1 X134.201 Y146.076 E10.53406
G1 X133.807 Y146.995 E10.55114
G1 X133.088 Y148.263 E10.57602
G1 X132.166 Y149.435 E10.60149
G1 X131.425 Y150.174 E10.61936
G1 X130.241 Y151.103 E10.64506
G1 X128.929 Y151.840 E10.67076
G1 X127.955 Y152.242 E10.68875
G1 X126.526 Y152.642 E10.71409
G1 X125.061 Y152.821 E10.73929
G1 X75.361 Y152.841 E11.58788
G1 X73.214 Y152.585 E11.62480
G1 X71.918 Y152.199 E11.64790
G1 X71.005 Y151.807 E11.66487
G1 X69.732 Y151.084 E11.68986
G1 X68.550 Y150.153 E11.71555
G1 X67.804 Y149.399 E11.73366
G1 X66.856 Y148.179 E11.76004
G1 X66.130 Y146.869 E11.78562
G1 X65.729 Y145.865 E11.80407
G1 X65.341 Y144.440 E11.82930
G1 X65.166 Y142.860 E11.85643
G1 X65.158 Y57.422 E13.31525
G1 X65.409 Y55.240 E13.35275
G1 X65.799 Y53.924 E13.37618
G1 X66.193 Y53.005 E13.39326
G1 X66.865 Y51.816 E13.41658
G1 X67.269 Y52.046 F7800.000
G1 F1800
G1 X68.176 Y50.880 E13.44179
G1 X68.864 Y50.189 E13.45843
G1 X69.987 Y49.303 E13.48286
G1 X71.243 Y48.593 E13.50751
G1 X72.142 Y48.215 E13.52415
G1 X73.511 Y47.824 E13.54845
G1 X74.837 Y47.654 E13.57129
G1 X124.504 Y47.622 E14.41933
G1 X126.404 Y47.807 E14.45191
G1 X128.211 Y48.346 E14.48412
G1 X129.903 Y49.231 E14.51673
G1 X131.333 Y50.367 E14.54791
G1 X132.616 Y51.870 E14.58164
G1 X133.512 Y53.460 E14.61281
G1 X134.123 Y55.276 E14.64553
G1 X134.351 Y56.882 E14.67322
G1 X134.378 Y142.569 E16.13629
G1 X134.138 Y144.658 E16.17219
G1 X133.762 Y145.925 E16.19476
G1 X133.387 Y146.797 E16.21096
G1 X132.701 Y148.007 E16.23471
G1 X131.811 Y149.135 E16.25925
G1 X131.116 Y149.828 E16.27600
G1 X129.970 Y150.726 E16.30087
G1 X128.710 Y151.431 E16.32551
G1 X127.796 Y151.806 E16.34238
G1 X126.426 Y152.189 E16.36668
G1 X125.007 Y152.360 E16.39107
G1 X75.379 Y152.377 E17.23846
G1 X73.323 Y152.134 E17.27380
G1 X72.068 Y151.760 E17.29616
G1 X71.203 Y151.387 E17.31225
G1 X69.983 Y150.694 E17.33621
G1 X68.850 Y149.798 E17.36086
G1 X68.151 Y149.092 E17.37784
G1 X67.242 Y147.920 E17.40315
G1 X66.546 Y146.663 E17.42768
G1 X66.168 Y145.716 E17.44510
G1 X65.795 Y144.342 E17.46940
G1 X65.629 Y142.819 E17.49556
G1 X65.622 Y57.424 E18.95364
G1 X65.862 Y55.342 E18.98943
G1 X66.238 Y54.075 E19.01200
G1 X66.613 Y53.203 E19.02820
G1 X67.247 Y52.085 E19.05016
G1 X67.650 Y52.313 F7800.000
G1 F1800
G1 X68.527 Y51.184 E19.07456
G1 X69.174 Y50.535 E19.09021
G1 X70.254 Y49.683 E19.11370
G1 X71.463 Y49.002 E19.13740
G1 X72.303 Y48.650 E19.15294
G1 X73.619 Y48.276 E19.17631
G1 X74.907 Y48.113 E19.19847
G1 X124.504 Y48.086 E20.04532
G1 X126.317 Y48.263 E20.07643
G1 X128.045 Y48.779 E20.10722
G1 X129.662 Y49.628 E20.13839
G1 X131.026 Y50.716 E20.16819
G1 X132.246 Y52.151 E20.20034
G1 X133.099 Y53.673 E20.23014
G1 X133.676 Y55.405 E20.26131
G1 X133.891 Y56.951 E20.28796
G1 X133.914 Y142.567 E21.74981
G1 X133.687 Y144.551 E21.78391
G1 X133.325 Y145.769 E21.80561
G1 X132.970 Y146.593 E21.82093
G1 X132.313 Y147.751 E21.84366
G1 X131.465 Y148.826 E21.86704
G1 X130.812 Y149.477 E21.88279
G1 X129.709 Y150.341 E21.90671
G1 X128.503 Y151.015 E21.93030
G1 X127.644 Y151.367 E21.94616
G1 X126.325 Y151.735 E21.96953
G1 X124.955 Y151.898 E21.99309
G1 X75.389 Y151.913 E22.83940
G1 X73.437 Y151.684 E22.87297
G1 X72.225 Y151.323 E22.89456
G1 X71.407 Y150.970 E22.90978
G1 X70.244 Y150.310 E22.93261
G1 X69.155 Y149.448 E22.95631
G1 X68.502 Y148.788 E22.97217
G1 X67.628 Y147.662 E22.99651
G1 X66.963 Y146.458 E23.02000
G1 X66.610 Y145.572 E23.03628
G1 X66.252 Y144.257 E23.05955
G1 X66.092 Y142.786 E23.08481
G1 X66.086 Y57.433 E24.54217
G1 X66.313 Y55.449 E24.57627
G1 X66.675 Y54.231 E24.59797
G1 X67.030 Y53.407 E24.61329
G1 X67.628 Y52.352 E24.63399
G1 E22.63399 F2400.00000
G92 E0
G1 X126.197 Y143.051 F7800.000
G1 E2.00000 F2400.00000
G1 F1800
G1 X125.943 Y143.549 E2.00953
G1 X125.549 Y143.943 E2.01906
G1 X125.051 Y144.197 E2.02859
G1 X124.561 Y144.274 E2.03707
G1 X75.439 Y144.274 E2.87580
G1 X74.949 Y144.197 E2.88428
G1 X74.451 Y143.943 E2.89381
G1 X74.057 Y143.549 E2.90333
G1 X73.803 Y143.051 E2.91287
G1 X73.726 Y142.561 E2.92134
G1 X73.726 Y57.439 E4.37476
G1 X73.803 Y56.949 E4.38323
G1 X74.057 Y56.451 E4.39277
G1 X74.451 Y56.057 E4.40229
G1 X74.949 Y55.803 E4.41182
G1 X75.439 Y55.726 E4.42030
G1 X124.561 Y55.726 E5.25903
G1 X125.051 Y55.803 E5.26751
G1 X125.549 Y56.057 E5.27704
G1 X125.943 Y56.451 E5.28657
G1 X126.197 Y56.949 E5.29610
G1 X126.274 Y57.439 E5.30458
G1 X126.274 Y142.561 E6.75799
G1 X126.204 Y143.007 E6.76570
G1 X125.750 Y142.906 F7800.000
G1 F1800
G1 X125.563 Y143.272 E6.77272
G1 X125.272 Y143.563 E6.77974
G1 X124.906 Y143.750 E6.78676
G1 X124.524 Y143.810 E6.79335
G1 X75.476 Y143.810 E7.63084
G1 X75.094 Y143.750 E7.63744
G1 X74.728 Y143.563 E7.64446
G1 X74.437 Y143.272 E7.65147
G1 X74.250 Y142.906 E7.65850
G1 X74.190 Y142.524 E7.66509
G1 X74.190 Y57.476 E9.11726
G1 X74.250 Y57.094 E9.12386
G1 X74.437 Y56.728 E9.13088
G1 X74.728 Y56.437 E9.13790
G1 X75.094 Y56.250 E9.14492
G1 X75.476 Y56.190 E9.15151
G1 X124.524 Y56.190 E9.98900
G1 X124.906 Y56.250 E9.99560
G1 X125.272 Y56.437 E10.00262
G1 X125.563 Y56.728 E10.00963
G1 X125.750 Y57.094 E10.01665
G1 X125.810 Y57.476 E10.02325
G1 X125.810 Y142.524 E11.47542
G1 X125.757 Y142.862 E11.48125
G1 X125.950 Y143.129 F7800.000
G1 E9.48125 F2400.00000
G92 E0
G1 X97.069 Y73.336 F7800.000
G1 E2.00000 F2400.00000
G1 F1800
G1 X94.449 Y73.336 E2.04474
G1 X94.449 Y71.516 E2.07581
G1 X97.069 Y71.516 E2.12055
G1 X97.069 Y73.291 E2.15085
G1 X97.164 Y73.620 F7800.000
G1 E0.15085 F2400.00000
G92 E0
G1 X101.581 Y73.336 F7800.000
G1 E2.00000 F2400.00000
G1 F1800
G1 X101.581 Y71.516 E2.03108
G1 X104.201 Y71.516 E2.07581
G1 X104.201 Y73.336 E2.10689
G1 X101.626 Y73.336 E2.15085
G1 X101.287 Y73.396 F7800.000
G1 E0.15085 F2400.00000
G92 E0
G1 X104.724 Y104.687 F7800.000
G1 E2.00000 F2400.00000
G1 F1800
G1 X104.554 Y103.922 E2.01339
G1 X101.621 Y104.574 E2.06469
G1 X101.787 Y105.322 E2.07778
G1 X100.214 Y105.306 E2.10464
G1 X99.022 Y105.165 E2.12512
G1 X97.853 Y104.896 E2.14561
G1 X96.720 Y104.503 E2.16609
G1 X95.635 Y103.990 E2.18658
G1 X94.612 Y103.363 E2.20706
G1 X93.663 Y102.630 E2.22754
G1 X92.533 Y101.542 E2.25433
G1 X93.101 Y101.163 E2.26599
G1 X91.504 Y98.767 E2.31516
G1 X90.934 Y99.147 E2.32685
G1 X90.342 Y97.609 E2.35498
G1 X90.023 Y96.372 E2.37680
G1 X89.847 Y95.106 E2.39862
G1 X89.819 Y93.828 E2.42044
G1 X89.937 Y92.556 E2.44227
G1 X90.201 Y91.305 E2.46409
G1 X90.607 Y90.092 E2.48592
G1 X91.148 Y88.935 E2.50773
G1 X91.820 Y87.848 E2.52956
G1 X92.611 Y86.845 E2.55138
G1 X93.513 Y85.939 E2.57320
G1 X94.514 Y85.142 E2.59505
G1 X95.598 Y84.467 E2.61684
G1 X96.753 Y83.920 E2.63867
G1 X97.963 Y83.509 E2.66049
G1 X99.212 Y83.240 E2.68231
G1 X100.486 Y83.117 E2.70416
G1 X102.139 Y83.145 E2.73239
G1 X103.719 Y83.467 E2.75991
G1 X105.076 Y83.917 E2.78433
G1 X106.074 Y84.376 E2.80308
G1 X107.159 Y85.025 E2.82466
G1 X108.164 Y85.794 E2.84628
G1 X109.185 Y86.796 E2.87070
G1 X109.879 Y87.646 E2.88945
G1 X110.568 Y88.706 E2.91103
G1 X111.132 Y89.838 E2.93263
G1 X111.564 Y91.027 E2.95422
G1 X111.857 Y92.254 E2.97577
G1 X112.010 Y93.513 E2.99742
G1 X112.018 Y94.778 E3.01901
G1 X111.883 Y96.035 E3.04061
G1 X111.606 Y97.267 E3.06217
G1 X111.190 Y98.464 E3.08380
G1 X110.641 Y99.603 E3.10539
G1 X109.966 Y100.672 E3.12697
G1 X109.174 Y101.659 E3.14859
G1 X108.275 Y102.548 E3.17018
G1 X107.280 Y103.330 E3.19178
G1 X106.203 Y103.994 E3.21338
G1 X104.765 Y104.668 E3.24051
G1 X104.438 Y104.778 F7800.000
G1 E1.24051 F2400.00000
G92 E0
G1 X101.367 Y89.277 F7800.000
G1 E2.00000 F2400.00000
G1 F1800
G1 X100.174 Y88.843 E2.02168
G1 X101.344 Y85.629 E2.08008
G1 X102.537 Y86.064 E2.10176
G1 X101.383 Y89.235 E2.15939
G1 X101.299 Y89.569 F7800.000
G1 E0.15939 F2400.00000
G92 E0
G1 X104.074 Y90.262 F7800.000
G1 E2.00000 F2400.00000
G1 F1800
G1 X105.243 Y87.048 E2.05840
G1 X106.437 Y87.483 E2.08008
G1 X105.267 Y90.697 E2.13848
G1 X104.116 Y90.278 E2.15939
G1 X103.774 Y90.279 F7800.000
G1 X103.914 Y90.821 F7800.000
G1 F1800
G1 X105.069 Y91.242 E2.18037
G1 X102.828 Y97.399 E2.29224
G1 X97.735 Y95.545 E2.38479
G1 X99.976 Y89.388 E2.49666
G1 X101.130 Y89.808 E2.51764
G1 X100.982 Y90.515 E2.52997
G1 X101.014 Y90.923 E2.53695
G1 X101.160 Y91.305 E2.54393
G1 X101.408 Y91.630 E2.55092
G1 X101.738 Y91.873 E2.55790
G1 X102.122 Y92.012 E2.56488
G1 X102.530 Y92.038 E2.57187
G1 X102.929 Y91.948 E2.57885
G1 X103.286 Y91.749 E2.58583
G1 X103.573 Y91.458 E2.59281
G1 X103.893 Y90.861 E2.60438
G1 X104.039 Y90.549 F7800.000
G1 E0.60438 F2400.00000
G92 E0
G1 X97.536 Y96.090 F7800.000
G1 E2.00000 F2400.00000
G1 F1800
G1 X102.629 Y97.944 E2.09254
G1 X101.810 Y100.196 E2.13347
G1 X101.522 Y100.762 E2.14431
G1 X101.095 Y101.257 E2.15547
G1 X100.562 Y101.636 E2.16664
G1 X99.954 Y101.876 E2.17780
G1 X99.306 Y101.963 E2.18896
G1 X98.656 Y101.893 E2.20013
G1 X98.041 Y101.670 E2.21129
G1 X97.498 Y101.305 E2.22246
G1 X97.058 Y100.822 E2.23362
G1 X96.747 Y100.247 E2.24479
G1 X96.582 Y99.614 E2.25595
G1 X96.573 Y98.961 E2.26711
G1 X96.716 Y98.342 E2.27796
G1 X97.521 Y96.132 E2.31811
G1 X97.636 Y95.807 F7800.000
G1 E0.31811 F2400.00000
G92 E0
G1 X85.820 Y108.284 F7800.000
G1 E2.00000 F2400.00000
G1 F1800
G1 X101.570 Y112.579 E2.27875
G1 X85.184 Y127.327 E2.65518
G1 X84.218 Y126.844 E2.67361
G1 X84.673 Y115.929 E2.86014
G1 X85.813 Y108.328 E2.99138
G1 X85.881 Y107.990 F7800.000
G1 E0.99138 F2400.00000
G92 E0
G1 X89.988 Y115.290 F7800.000
G1 E2.00000 F2400.00000
G1 F1800
G1 X91.478 Y116.150 E2.02937
G1 X89.518 Y119.545 E2.09630
G1 X88.028 Y118.685 E2.12567
G1 X89.966 Y115.329 E2.19184
G1 X90.101 Y115.012 F7800.000
G1 E0.19184 F2400.00000
G92 E0
G1 X101.633 Y122.968 F7800.000
G1 E2.00000 F2400.00000
G1 F1800
G1 X102.605 Y121.717 E2.02704
G1 X103.450 Y120.845 E2.04778
G1 X104.385 Y120.071 E2.06851
G1 X105.257 Y119.492 E2.08638
G1 X106.481 Y118.851 E2.10997
G1 X107.616 Y118.419 E2.13071
G1 X108.627 Y118.149 E2.14857
G1 X109.824 Y117.955 E2.16928
G1 X111.583 Y117.883 E2.19933
G1 X113.137 Y118.100 E2.22612
G1 X114.324 Y118.403 E2.24704
G1 X115.305 Y118.769 E2.26492
G1 X115.474 Y118.836 E2.26802
G1 X116.564 Y119.390 E2.28891
G1 X117.589 Y120.062 E2.30984
G1 X118.533 Y120.844 E2.33076
G1 X119.385 Y121.723 E2.35167
G1 X120.039 Y122.554 E2.36972
G1 X120.694 Y123.588 E2.39063
G1 X121.232 Y124.690 E2.41155
G1 X121.645 Y125.844 E2.43248
G1 X121.928 Y127.036 E2.45341
G1 X122.133 Y128.695 E2.48195
G1 X122.017 Y130.385 E2.51087
G1 X121.791 Y131.616 E2.53224
G1 X121.429 Y132.812 E2.55357
G1 X120.936 Y133.958 E2.57488
G1 X120.404 Y134.902 E2.59338
G1 X119.577 Y136.053 E2.61758
G1 X118.730 Y136.973 E2.63894
G1 X117.786 Y137.791 E2.66027
G1 X116.900 Y138.411 E2.67873
G1 X115.806 Y139.015 E2.70006
G1 X114.651 Y139.492 E2.72141
G1 X113.009 Y139.962 E2.75056
G1 X111.319 Y140.108 E2.77952
G1 X110.068 Y140.074 E2.80090
G1 X108.828 Y139.899 E2.82228
G1 X107.616 Y139.586 E2.84365
G1 X106.447 Y139.139 E2.86503
G1 X105.335 Y138.563 E2.88641
G1 X104.295 Y137.865 E2.90778
G1 X103.341 Y137.055 E2.92916
G1 X102.484 Y136.143 E2.95053
G1 X101.735 Y135.141 E2.97189
G1 X101.181 Y134.210 E2.99039
G1 X100.658 Y133.074 E3.01174
G1 X100.265 Y131.885 E3.03312
G1 X100.009 Y130.660 E3.05449
G1 X99.892 Y129.413 E3.07587
G1 X99.924 Y127.762 E3.10407
G1 X100.175 Y126.487 E3.12626
G1 X100.408 Y125.574 E3.14234
G1 X101.242 Y125.970 E3.15810
G1 X102.426 Y125.422 E3.18038
G1 X102.801 Y124.631 E3.19533
G1 X102.476 Y123.368 E3.21760
G1 X101.674 Y122.987 E3.23276
G1 X101.416 Y122.761 F7800.000
G1 E1.23276 F2400.00000
G92 E0
G1 X111.449 Y63.449 F7800.000
G1 E2.00000 F2400.00000
G1 F1800
G1 X111.449 Y61.629 E2.03108
G1 X114.069 Y61.629 E2.07581
G1 X114.069 Y63.449 E2.10689
G1 X111.494 Y63.449 E2.15085
G1 X111.155 Y63.510 F7800.000
G1 E0.15085 F2400.00000
G92 E0
G1 X118.581 Y63.449 F7800.000
G1 E2.00000 F2400.00000
G1 F1800
G1 X118.581 Y61.629 E2.03108
G1 X121.201 Y61.629 E2.07581
G1 X121.201 Y63.449 E2.10689
G1 X118.626 Y63.449 E2.15085
G1 X118.287 Y63.510 F7800.000
G1 E0.15085 F2400.00000
G92 E0
G1 X77.926 Y64.578 F7800.000
G1 E2.00000 F2400.00000
G1 F1800
G1 X77.665 Y64.595 E2.00446
G1 X77.121 Y60.305 E2.07829
G1 X77.926 Y60.305 E2.09204
G1 X77.926 Y64.533 E2.16423
G1 E0.16423 F2400.00000
G92 E0
G1 X81.503 Y64.578 F7800.000
G1 E2.00000 F2400.00000
G1 F1800
G1 X81.503 Y60.305 E2.07296
G1 X82.308 Y60.305 E2.08671
G1 X81.764 Y64.595 E2.16053
G1 X81.548 Y64.581 E2.16423
G1 E0.16423 F2400.00000
G92 E0
G1 X81.020 Y70.455 F7800.000
G1 E2.00000 F2400.00000
G1 F1800
G1 X80.697 Y73.001 E2.04382
G1 X80.626 Y73.001 E2.04503
G1 X80.626 Y73.351 E2.05101
G1 X78.803 Y73.351 E2.08214
G1 X78.803 Y73.001 E2.08812
G1 X78.732 Y73.001 E2.08933
G1 X78.409 Y70.455 E2.13315
G1 X80.975 Y70.455 E2.17697
G1 E0.17697 F2400.00000
G92 E0
G1 X86.541 Y71.268 F7800.000
G1 E2.00000 F2400.00000
G1 F1800
G1 X88.114 Y71.268 E2.02686
G1 X88.114 Y75.807 E2.10435
G1 X86.541 Y75.807 E2.13121
G1 X86.541 Y71.313 E2.20793
G1 E0.20793 F2400.00000
G92 E0
G1 X93.985 Y71.051 F7800.000
G1 E2.00000 F2400.00000
G1 F1800
G1 X97.533 Y71.051 E2.06059
G1 X97.533 Y73.800 E2.10752
G1 X93.985 Y73.800 E2.16810
G1 X93.985 Y71.096 E2.21426
G1 E0.21426 F2400.00000
G92 E0
G1 X101.117 Y71.051 F7800.000
G1 E2.00000 F2400.00000
G1 F1800
G1 X104.665 Y71.051 E2.06059
G1 X104.665 Y73.800 E2.10752
G1 X101.117 Y73.800 E2.16810
G1 X101.117 Y71.096 E2.21426
G1 E0.21426 F2400.00000
G92 E0
G1 X109.407 Y79.215 F7800.000
