;FLAVOR:Marlin
;TIME:449
;Filament used: 0.104073m
;Layer height: 0.3
;Generated with Cura_SteamEngine master
M104 S185
M109 S185
M82 ;absolute extrusion mode
; -- START GCODE --
G21                     ;set units to millimetres
G90                     ;set to absolute positioning
M106 S0                 ;set fan speed to zero (turned off)
G28 X0 Y0               ;move to the X/Y origin (Home)
G28 Z0                  ;move to the Z origin (Home)
G1 Z15.0 F1200          ;move Z to position 15.0 mm
G92 E0                  ;zero the extruded length
G1 E20 F200             ;extrude 20mm of feed stock
G92 E0                  ;zero the extruded length again
G1 F7200                ;set feedrate to 120 mm/s
; -- end of START GCODE --
G92 E0
G1 F2400 E-1
;LAYER_COUNT:68
;LAYER:0
M107
G0 F2025 X94.92 Y92.861 Z0.2
;TYPE:SKIRT
G1 F2400 E0
G1 F1800 X95.316 Y92.458 E0.00671
G1 X95.766 Y92.115 E0.01344
G1 X96.26 Y91.839 E0.02016
G1 X96.787 Y91.636 E0.02687
G1 X97.338 Y91.509 E0.03359
G1 X97.96 Y91.46 E0.04101
G1 X117.49 Y91.459 E0.27309
G1 X118.054 Y91.499 E0.27981
G1 X118.606 Y91.618 E0.28652
G1 X119.137 Y91.814 E0.29325
G1 X119.634 Y92.082 E0.29996
G1 X120.089 Y92.418 E0.30668
G1 X120.492 Y92.815 E0.3134
G1 X120.834 Y93.265 E0.32012
G1 X121.11 Y93.758 E0.32684
G1 X121.314 Y94.285 E0.33355
G1 X121.441 Y94.836 E0.34027
G1 X121.49 Y95.459 E0.3477
G1 X121.491 Y114.991 E0.57981
G1 X121.451 Y115.555 E0.58653
G1 X121.332 Y116.107 E0.59324
G1 X121.136 Y116.638 E0.59996
G1 X120.868 Y117.135 E0.60667
G1 X120.532 Y117.59 E0.61339
G1 X120.135 Y117.993 E0.62012
G1 X119.685 Y118.335 E0.62683
G1 X119.192 Y118.611 E0.63355
G1 X118.665 Y118.815 E0.64026
G1 X118.114 Y118.942 E0.64698
G1 X117.491 Y118.991 E0.65441
G1 X97.958 Y118.991 E0.88653
G1 X97.394 Y118.951 E0.89325
G1 X96.841 Y118.832 E0.89997
G1 X96.311 Y118.636 E0.90669
G1 X95.814 Y118.368 E0.9134
G1 X95.359 Y118.032 E0.92012
G1 X94.956 Y117.635 E0.92684
G1 X94.614 Y117.185 E0.93356
G1 X94.338 Y116.692 E0.94027
G1 X94.134 Y116.164 E0.947
G1 X94.007 Y115.614 E0.95371
G1 X93.958 Y114.991 E0.96113
G1 X93.96 Y95.46 E1.19323
G1 X94 Y94.896 E1.19995
G1 X94.119 Y94.343 E1.20667
G1 X94.315 Y93.813 E1.21339
G1 X94.584 Y93.315 E1.22011
G1 X94.92 Y92.861 E1.22683
G0 F2025 X95.315 Y93.018
G1 F1800 X95.707 Y92.652 E1.2332
G1 X96.15 Y92.348 E1.23958
G1 X96.632 Y92.114 E1.24595
G1 X97.144 Y91.954 E1.25232
G1 X97.674 Y91.871 E1.2587
G1 X97.96 Y91.86 E1.2621
G1 X117.49 Y91.859 E1.49419
G1 X118.025 Y91.899 E1.50056
G1 X118.548 Y92.018 E1.50694
G1 X119.047 Y92.213 E1.5133
G1 X119.512 Y92.48 E1.51968
G1 X119.932 Y92.814 E1.52605
G1 X120.298 Y93.206 E1.53243
G1 X120.601 Y93.648 E1.53879
G1 X120.836 Y94.13 E1.54517
G1 X120.996 Y94.642 E1.55154
G1 X121.079 Y95.172 E1.55792
G1 X121.09 Y95.459 E1.56133
G1 X121.091 Y114.991 E1.79344
G1 X121.051 Y115.526 E1.79981
G1 X120.932 Y116.049 E1.80619
G1 X120.737 Y116.548 E1.81255
G1 X120.47 Y117.013 E1.81893
G1 X120.136 Y117.433 E1.8253
G1 X119.744 Y117.799 E1.83168
G1 X119.302 Y118.102 E1.83805
G1 X118.82 Y118.337 E1.84442
G1 X118.308 Y118.497 E1.85079
G1 X117.778 Y118.58 E1.85717
G1 X117.491 Y118.591 E1.86058
G1 X97.958 Y118.591 E2.0927
G1 X97.423 Y118.551 E2.09908
G1 X96.9 Y118.432 E2.10545
G1 X96.401 Y118.237 E2.11182
G1 X95.936 Y117.969 E2.1182
G1 X95.516 Y117.636 E2.12457
G1 X95.15 Y117.244 E2.13094
G1 X94.847 Y116.802 E2.13731
G1 X94.612 Y116.319 E2.14369
G1 X94.452 Y115.808 E2.15005
G1 X94.369 Y115.278 E2.15643
G1 X94.358 Y114.991 E2.15984
G1 X94.36 Y95.46 E2.39194
G1 X94.4 Y94.925 E2.39831
G1 X94.519 Y94.402 E2.40469
G1 X94.714 Y93.902 E2.41107
G1 X94.982 Y93.438 E2.41743
G1 X95.315 Y93.018 E2.4238
G0 F2025 X95.379 Y93.568
G1 F1800 X95.71 Y93.185 E2.42982
G1 X96.096 Y92.859 E2.43582
G1 X96.529 Y92.598 E2.44183
G1 X96.998 Y92.408 E2.44784
G1 X97.49 Y92.295 E2.45384
G1 X97.96 Y92.26 E2.45944
G1 X117.49 Y92.259 E2.69153
G1 X117.994 Y92.299 E2.69754
G1 X118.485 Y92.418 E2.70354
G1 X118.952 Y92.612 E2.70955
G1 X119.382 Y92.878 E2.71556
G1 X119.765 Y93.208 E2.72157
G1 X120.091 Y93.595 E2.72758
G1 X120.352 Y94.028 E2.73359
G1 X120.542 Y94.496 E2.73959
G1 X120.655 Y94.989 E2.7456
G1 X120.69 Y95.459 E2.7512
G1 X120.691 Y114.991 E2.98331
G1 X120.651 Y115.495 E2.98932
G1 X120.532 Y115.986 E2.99532
G1 X120.338 Y116.453 E3.00133
G1 X120.072 Y116.883 E3.00734
G1 X119.742 Y117.266 E3.01335
G1 X119.355 Y117.592 E3.01936
G1 X118.922 Y117.853 E3.02537
G1 X118.454 Y118.043 E3.03137
G1 X117.961 Y118.156 E3.03738
G1 X117.491 Y118.191 E3.04299
G1 X97.958 Y118.191 E3.27511
G1 X97.454 Y118.151 E3.28112
G1 X96.963 Y118.032 E3.28712
G1 X96.496 Y117.838 E3.29313
G1 X96.066 Y117.572 E3.29914
G1 X95.683 Y117.242 E3.30515
G1 X95.357 Y116.855 E3.31116
G1 X95.096 Y116.422 E3.31717
G1 X94.906 Y115.954 E3.32317
G1 X94.793 Y115.461 E3.32918
G1 X94.758 Y114.991 E3.33478
G1 X94.76 Y95.46 E3.56688
G1 X94.8 Y94.956 E3.57289
G1 X94.919 Y94.464 E3.5789
G1 X95.114 Y93.998 E3.5849
G1 X95.379 Y93.568 E3.59091
G1 F2400 E2.59091
G0 F2025 X97.284 Y96.064
G0 X98.564 Y96.064
G0 X116.8 Y96.249
G0 X116.9 Y96.249
;TYPE:WALL-INNER
G1 F2400 E3.59091
G1 F1800 X116.9 Y114.4 E3.80661
G1 X98.749 Y114.4 E4.0223
G1 X98.549 Y114.4 E4.02468
G1 X98.549 Y114.2 E4.02622
G1 X98.55 Y96.05 E4.24191
G1 X116.7 Y96.049 E4.45759
G1 X116.9 Y96.049 E4.45997
G1 X116.9 Y96.249 E4.46151
G0 F2025 X117.3 Y95.849
;TYPE:WALL-OUTER
G1 F1800 X117.3 Y114.8 E4.68671
G1 X98.349 Y114.8 E4.91192
G1 X98.149 Y114.8 E4.9143
G1 X98.149 Y114.6 E4.91584
G1 X98.15 Y95.65 E5.14103
G1 X117.1 Y95.649 E5.36622
G1 X117.3 Y95.649 E5.3686
G1 X117.3 Y95.849 E5.37014
G0 F2025 X117.3 Y96.049
G0 X116.83 Y96.119
G0 X116.51 Y96.439
;TYPE:SKIN
G1 F1800 X116.51 Y114.01 E5.57894
G1 X98.939 Y114.01 E5.78775
G1 X98.94 Y96.44 E5.99655
G1 X116.51 Y96.439 E6.20534
G0 F2025 X116.328 Y97.095
G1 F1800 X115.853 Y96.619 E6.21333
G0 F2025 X115.287 Y96.619
G1 F1800 X116.328 Y97.661 E6.23083
G1 X116.398 Y97.731
G0 F2025 X116.328 Y98.227
G1 F1800 X114.721 Y96.619 E6.25785
G1 X114.651 Y96.549
G0 F2025 X114.156 Y96.619
G1 F1800 X116.328 Y98.792 E6.29436
G1 X116.398 Y98.862
G0 F2025 X116.328 Y99.358
G1 F1800 X113.59 Y96.619 E6.34038
G1 X113.52 Y96.549
G0 F2025 X113.024 Y96.619
G1 F1800 X116.328 Y99.924 E6.39592
G1 X116.398 Y99.994
G0 F2025 X116.328 Y100.489
G1 F1800 X112.458 Y96.619 E6.46096
G1 X112.388 Y96.549
G0 F2025 X111.893 Y96.619
G1 F1800 X116.328 Y101.055 E6.5355
G1 X116.398 Y101.125
G0 F2025 X116.328 Y101.621
G1 F1800 X111.327 Y96.619 E6.61955
G1 X111.257 Y96.549
G0 F2025 X110.761 Y96.619
G1 F1800 X116.328 Y102.186 E6.71311
G1 X116.398 Y102.256
G0 F2025 X116.328 Y102.752
G1 F1800 X110.196 Y96.619 E6.81618
G1 X110.126 Y96.549
G0 F2025 X109.63 Y96.619
G1 F1800 X116.328 Y103.318 E6.92875
G1 X116.398 Y103.388
G0 F2025 X116.328 Y103.883
G1 F1800 X109.064 Y96.619 E7.05083
G1 X108.994 Y96.549
G0 F2025 X108.499 Y96.619
G1 F1800 X116.328 Y104.449 E7.18241
G1 X116.398 Y104.519
G0 F2025 X116.328 Y105.015
G1 F1800 X107.933 Y96.619 E7.3235
G1 X107.863 Y96.549
G0 F2025 X107.368 Y96.62
G1 F1800 X116.328 Y105.58 E7.47408
G1 X116.398 Y105.65
G0 F2025 X116.328 Y106.146
G1 F1800 X106.802 Y96.62 E7.63418
G1 X106.732 Y96.55
G0 F2025 X106.237 Y96.62
G1 F1800 X116.328 Y106.712 E7.80377
G1 X116.398 Y106.782
G0 F2025 X116.328 Y107.277
G1 F1800 X105.671 Y96.62 E7.98288
G1 X105.601 Y96.55
G0 F2025 X105.105 Y96.62
G1 F1800 X116.328 Y107.843 E8.17149
G1 X116.398 Y107.913
G0 F2025 X116.328 Y108.409
G1 F1800 X104.54 Y96.62 E8.3696
G1 X104.47 Y96.55
G0 F2025 X103.974 Y96.62
G1 F1800 X116.328 Y108.975 E8.57723
G1 X116.398 Y109.045
G0 F2025 X116.328 Y109.54
G1 F1800 X103.408 Y96.62 E8.79436
G1 X103.338 Y96.55
G0 F2025 X102.843 Y96.62
G1 F1800 X116.328 Y110.106 E9.021
G1 X116.398 Y110.176
G0 F2025 X116.328 Y110.672
G1 F1800 X102.277 Y96.62 E9.25715
G1 X102.207 Y96.55
G0 F2025 X101.711 Y96.62
G1 F1800 X116.328 Y111.237 E9.5028
G1 X116.398 Y111.307
G0 F2025 X116.328 Y111.803
G1 F1800 X101.145 Y96.62 E9.75797
G1 X101.075 Y96.55
G0 F2025 X100.58 Y96.62
G1 F1800 X116.328 Y112.369 E10.02263
G1 X116.398 Y112.439
G0 F2025 X116.328 Y112.934
G1 F1800 X100.014 Y96.62 E10.2968
G1 X99.944 Y96.55
G0 F2025 X99.448 Y96.62
G1 F1800 X116.328 Y113.5 E10.58049
G1 X116.398 Y113.57
G0 F2025 X116.092 Y113.829
G1 F1800 X99.118 Y96.855 E10.86575
G1 X99.048 Y96.785
G0 F2025 X99.118 Y97.421
G1 F1800 X115.526 Y113.829 E11.1415
G1 X115.596 Y113.899
G0 F2025 X114.96 Y113.829
G1 F1800 X99.118 Y97.987 E11.40774
G1 X99.048 Y97.917
G0 F2025 X99.118 Y98.553
G1 F1800 X114.395 Y113.829 E11.66448
G1 X114.465 Y113.899
G0 F2025 X113.829 Y113.829
G1 F1800 X99.118 Y99.118 E11.91171
G1 X99.048 Y99.048
G0 F2025 X99.118 Y99.684
G1 F1800 X113.263 Y113.829 E12.14943
G1 X113.333 Y113.899
G0 F2025 X112.697 Y113.829
G1 F1800 X99.118 Y100.25 E12.37764
G1 X99.048 Y100.18
G0 F2025 X99.118 Y100.815
G1 F1800 X112.132 Y113.829 E12.59635
G1 X112.202 Y113.899
G0 F2025 X111.566 Y113.829
G1 F1800 X99.118 Y101.381 E12.80555
G1 X99.048 Y101.311
G0 F2025 X99.118 Y101.947
G1 F1800 X111 Y113.829 E13.00524
G1 X111.07 Y113.899
G0 F2025 X110.435 Y113.829
G1 F1800 X99.118 Y102.512 E13.19543
G1 X99.048 Y102.442
G0 F2025 X99.118 Y103.078
G1 F1800 X109.869 Y113.829 E13.37611
G1 X109.939 Y113.899
G0 F2025 X109.303 Y113.829
G1 F1800 X99.118 Y103.644 E13.54728
G1 X99.048 Y103.574
G0 F2025 X99.118 Y104.209
G1 F1800 X108.738 Y113.829 E13.70895
G1 X108.808 Y113.899
G0 F2025 X108.172 Y113.829
G1 F1800 X99.118 Y104.775 E13.86111
G1 X99.048 Y104.705
G0 F2025 X99.118 Y105.341
G1 F1800 X107.606 Y113.829 E14.00376
G1 X107.676 Y113.899
G0 F2025 X107.041 Y113.829
G1 F1800 X99.118 Y105.906 E14.13691
G1 X99.048 Y105.836
G0 F2025 X99.118 Y106.472
G1 F1800 X106.475 Y113.829 E14.26055
G1 X106.545 Y113.899
G0 F2025 X105.909 Y113.829
G1 F1800 X99.118 Y107.038 E14.37468
G1 X99.048 Y106.968
G0 F2025 X99.118 Y107.603
G1 F1800 X105.344 Y113.829 E14.47932
G1 X105.414 Y113.899
G0 F2025 X104.778 Y113.829
G1 F1800 X99.118 Y108.169 E14.57444
G1 X99.048 Y108.099
G0 F2025 X99.118 Y108.735
G1 F1800 X104.212 Y113.829 E14.66005
G1 X104.282 Y113.899
G0 F2025 X103.647 Y113.829
G1 F1800 X99.118 Y109.301 E14.73615
G1 X99.048 Y109.231
G0 F2025 X99.118 Y109.866
G1 F1800 X103.081 Y113.829 E14.80275
G1 X103.151 Y113.899
G0 F2025 X102.515 Y113.829
G1 F1800 X99.118 Y110.432 E14.85984
G1 X99.048 Y110.362
G0 F2025 X99.118 Y110.998
G1 F1800 X101.949 Y113.829 E14.90742
G1 X102.019 Y113.899
G0 F2025 X101.384 Y113.829
G1 F1800 X99.118 Y111.563 E14.9455
G1 X99.048 Y111.493
G0 F2025 X99.118 Y112.129
G1 F1800 X100.818 Y113.829 E14.97407
G1 X100.888 Y113.899
G0 F2025 X100.252 Y113.829
G1 F1800 X99.118 Y112.695 E14.99313
G1 X99.048 Y112.625
G0 F2025 X99.118 Y113.26
G1 F1800 X99.687 Y113.829 E15.00269
G1 X99.757 Y113.899
G0 F2025 X116.83 Y96.119
G0 X116.9 Y95.949
;TIME_ELAPSED:53.492427
;LAYER:1
M106 S255
G0 F2362.5 X116.9 Y95.949 Z0.5
;TYPE:WALL-INNER
G1 F2100 X116.9 Y114.4 E15.33159
G1 X98.449 Y114.4 E15.66048
G1 X98.249 Y114.4 E15.66405
G1 X98.249 Y114.2 E15.66636
G1 X98.25 Y95.75 E15.99524
G1 X116.7 Y95.749 E16.32411
G1 X116.9 Y95.749 E16.32768
G1 X116.9 Y95.949 E16.32999
G0 F2362.5 X117.3 Y95.549
;TYPE:WALL-OUTER
G1 F1500 X117.3 Y114.8 E16.67314
G1 X98.049 Y114.8 E17.0163
G1 X97.849 Y114.8 E17.01986
G1 X97.849 Y114.6 E17.02217
G1 X97.85 Y95.35 E17.36531
G1 X117.1 Y95.349 E17.70845
G1 X117.3 Y95.349 E17.71201
G1 X117.3 Y95.549 E17.71432
G0 F2362.5 X117.3 Y95.749
G0 X116.83 Y95.819
G0 X116.51 Y96.139
;TYPE:SKIN
G1 F1500 X116.51 Y114.01 E18.03288
G1 X98.639 Y114.01 E18.35144
G1 X98.64 Y96.14 E18.66997
G1 X116.51 Y96.139 E18.98851
G0 F2362.5 X99.407 Y96.319
G1 F1500 X98.818 Y96.908 E19.00336
G1 X98.748 Y96.978
G0 F2362.5 X98.818 Y97.473
G1 F1500 X99.973 Y96.319 E19.03246
G1 X100.043 Y96.249
G0 F2362.5 X100.539 Y96.319
G1 F1500 X98.818 Y98.039 E19.07584
G1 X98.748 Y98.109
G0 F2362.5 X98.818 Y98.605
G1 F1500 X101.104 Y96.319 E19.13346
G1 X101.174 Y96.249
G0 F2362.5 X101.67 Y96.319
G1 F1500 X98.818 Y99.171 E19.20536
G1 X98.748 Y99.241
G0 F2362.5 X98.818 Y99.736
G1 F1500 X102.236 Y96.319 E19.29151
G1 X102.306 Y96.249
G0 F2362.5 X102.802 Y96.319
G1 F1500 X98.818 Y100.302 E19.39193
G1 X98.748 Y100.372
G0 F2362.5 X98.818 Y100.868
G1 F1500 X103.367 Y96.319 E19.50661
G1 X103.437 Y96.249
G0 F2362.5 X103.933 Y96.319
G1 F1500 X98.818 Y101.433 E19.63554
G1 X98.748 Y101.503
G0 F2362.5 X98.818 Y101.999
G1 F1500 X104.499 Y96.319 E19.77874
G1 X104.569 Y96.249
G0 F2362.5 X105.064 Y96.319
G1 F1500 X98.818 Y102.565 E19.93619
G1 X98.748 Y102.635
G0 F2362.5 X98.818 Y103.13
G1 F1500 X105.63 Y96.319 E20.1079
G1 X105.7 Y96.249
G0 F2362.5 X106.196 Y96.319
G1 F1500 X98.818 Y103.696 E20.29388
G1 X98.748 Y103.766
G0 F2362.5 X98.818 Y104.262
G1 F1500 X106.761 Y96.319 E20.49411
G1 X106.831 Y96.249
G0 F2362.5 X107.327 Y96.319
G1 F1500 X98.818 Y104.827 E20.7086
G1 X98.748 Y104.897
G0 F2362.5 X98.818 Y105.393
G1 F1500 X107.893 Y96.319 E20.93736
G1 X107.963 Y96.249
G0 F2362.5 X108.458 Y96.319
G1 F1500 X98.818 Y105.959 E21.18037
G1 X98.748 Y106.029
G0 F2362.5 X98.818 Y106.524
G1 F1500 X109.024 Y96.319 E21.43764
G1 X109.094 Y96.249
G0 F2362.5 X109.59 Y96.319
G1 F1500 X98.818 Y107.09 E21.70918
G1 X98.748 Y107.16
G0 F2362.5 X98.818 Y107.656
G1 F1500 X110.155 Y96.319 E21.99497
G1 X110.225 Y96.249
G0 F2362.5 X110.721 Y96.319
G1 F1500 X98.818 Y108.221 E22.29502
G1 X98.748 Y108.291
G0 F2362.5 X98.818 Y108.787
G1 F1500 X111.287 Y96.319 E22.60934
G1 X111.357 Y96.249
G0 F2362.5 X111.852 Y96.319
G1 F1500 X98.818 Y109.353 E22.93791
G1 X98.748 Y109.423
G0 F2362.5 X98.818 Y109.919
G1 F1500 X112.418 Y96.319 E23.28075
G1 X112.488 Y96.249
G0 F2362.5 X112.984 Y96.319
G1 F1500 X98.818 Y110.484 E23.63785
G1 X98.748 Y110.554
G0 F2362.5 X98.818 Y111.05
G1 F1500 X113.55 Y96.319 E24.00921
G1 X113.62 Y96.249
G0 F2362.5 X114.115 Y96.319
G1 F1500 X98.818 Y111.616 E24.39483
G1 X98.748 Y111.686
G0 F2362.5 X98.818 Y112.181
G1 F1500 X114.681 Y96.319 E24.79471
G1 X114.751 Y96.249
G0 F2362.5 X115.247 Y96.319
G1 F1500 X98.818 Y112.747 E25.20885
G1 X98.748 Y112.817
G0 F2362.5 X98.818 Y113.313
G1 F1500 X115.812 Y96.319 E25.63725
G1 X115.882 Y96.249
G0 F2362.5 X116.328 Y96.368
G1 F1500 X98.867 Y113.83 E26.07743
G1 X98.797 Y113.9
G0 F2362.5 X99.433 Y113.83
G1 F1500 X116.328 Y96.934 E26.50335
G1 X116.398 Y96.864
G0 F2362.5 X116.328 Y97.5
G1 F1500 X99.999 Y113.83 E26.915
G1 X99.929 Y113.9
G0 F2362.5 X100.564 Y113.83
G1 F1500 X116.328 Y98.065 E27.3124
G1 X116.398 Y97.995
G0 F2362.5 X116.328 Y98.631
G1 F1500 X101.13 Y113.83 E27.69554
G1 X101.06 Y113.9
G0 F2362.5 X101.696 Y113.83
G1 F1500 X116.328 Y99.197 E28.06441
G1 X116.398 Y99.127
G0 F2362.5 X116.328 Y99.762
G1 F1500 X102.261 Y113.83 E28.41903
G1 X102.191 Y113.9
G0 F2362.5 X102.827 Y113.83
G1 F1500 X116.328 Y100.328 E28.75939
G1 X116.398 Y100.258
G0 F2362.5 X116.328 Y100.894
G1 F1500 X103.393 Y113.83 E29.08548
G1 X103.323 Y113.9
G0 F2362.5 X103.958 Y113.83
G1 F1500 X116.328 Y101.459 E29.39733
G1 X116.398 Y101.389
G0 F2362.5 X116.328 Y102.025
G1 F1500 X104.524 Y113.83 E29.6949
G1 X104.454 Y113.9
G0 F2362.5 X105.09 Y113.83
G1 F1500 X116.328 Y102.591 E29.97821
G1 X116.398 Y102.521
G0 F2362.5 X116.328 Y103.156
G1 F1500 X105.655 Y113.83 E30.24728
G1 X105.585 Y113.9
G0 F2362.5 X106.221 Y113.83
G1 F1500 X116.328 Y103.722 E30.50208
G1 X116.398 Y103.652
G0 F2362.5 X116.328 Y104.288
G1 F1500 X106.787 Y113.83 E30.74261
G1 X106.717 Y113.9
G0 F2362.5 X107.352 Y113.83
G1 F1500 X116.328 Y104.854 E30.96888
G1 X116.398 Y104.784
G0 F2362.5 X116.328 Y105.419
G1 F1500 X107.918 Y113.83 E31.1809
G1 X107.848 Y113.9
G0 F2362.5 X108.484 Y113.83
G1 F1500 X116.328 Y105.985 E31.37865
G1 X116.398 Y105.915
G0 F2362.5 X116.328 Y106.551
G1 F1500 X109.05 Y113.83 E31.56214
G1 X108.98 Y113.9
G0 F2362.5 X109.615 Y113.83
G1 F1500 X116.328 Y107.116 E31.73138
G1 X116.398 Y107.046
G0 F2362.5 X116.328 Y107.682
G1 F1500 X110.181 Y113.83 E31.88635
G1 X110.111 Y113.9
G0 F2362.5 X110.747 Y113.83
G1 F1500 X116.328 Y108.248 E32.02705
G1 X116.398 Y108.178
G0 F2362.5 X116.328 Y108.813
G1 F1500 X111.312 Y113.83 E32.15351
G1 X111.242 Y113.9
G0 F2362.5 X111.878 Y113.83
G1 F1500 X116.328 Y109.379 E32.2657
G1 X116.398 Y109.309
G0 F2362.5 X116.328 Y109.945
G1 F1500 X112.444 Y113.83 E32.36363
