;FLAVOR:Marlin
;TIME:1069
;Filament used: 0.413886m
;Layer height: 0.3
;Generated with Cura_SteamEngine master
M104 S185
M109 S185
M82 ;absolute extrusion mode
; -- START GCODE --
G21                     ;set units to millimetres
G90                     ;set to absolute positioning
M106 S0                 ;set fan speed to zero (turned off)
G28 X0 Y0               ;move to the X/Y origin (Home)
G28 Z0                  ;move to the Z origin (Home)
G1 Z15.0 F1200          ;move Z to position 15.0 mm
G92 E0                  ;zero the extruded length
G1 E20 F200             ;extrude 20mm of feed stock
G92 E0                  ;zero the extruded length again
G1 F7200                ;set feedrate to 120 mm/s
; -- end of START GCODE --
G92 E0
G1 F2400 E-1
;LAYER_COUNT:88
;LAYER:0
M107
G0 F2025 X97.565 Y44.674 Z0.2
;TYPE:SKIRT
G1 F2400 E0
G1 F1800 X97.833 Y44.177 E0.00671
G1 X98.169 Y43.722 E0.01343
G1 X98.566 Y43.319 E0.02015
G1 X99.016 Y42.977 E0.02687
G1 X99.509 Y42.701 E0.03359
G1 X100.036 Y42.497 E0.0403
G1 X100.587 Y42.37 E0.04702
G1 X101.21 Y42.321 E0.05445
G1 X116.192 Y42.322 E0.23249
G1 X116.756 Y42.362 E0.23921
G1 X117.309 Y42.481 E0.24593
G1 X117.839 Y42.677 E0.25264
G1 X118.337 Y42.946 E0.25937
G1 X118.791 Y43.282 E0.26608
G1 X119.194 Y43.678 E0.27279
G1 X119.537 Y44.128 E0.27952
G1 X119.812 Y44.621 E0.28623
G1 X120.016 Y45.149 E0.29295
G1 X120.143 Y45.7 E0.29967
G1 X120.192 Y46.322 E0.30709
G1 X120.191 Y62.058 E0.49409
G1 X120.151 Y62.622 E0.50081
G1 X120.032 Y63.175 E0.50753
G1 X119.836 Y63.705 E0.51424
G1 X119.567 Y64.203 E0.52097
G1 X119.231 Y64.657 E0.52768
G1 X118.976 Y64.929 E0.53211
G1 X115.573 Y68.23 E0.58845
G1 X113.459 Y70.442 E0.62481
G1 X113.04 Y70.822 E0.63154
G1 X112.572 Y71.139 E0.63825
G1 X112.064 Y71.387 E0.64497
G1 X111.527 Y71.561 E0.65168
G1 X110.97 Y71.658 E0.6584
G1 X110.551 Y71.678 E0.66338
G1 X103.383 Y71.65 E0.74856
G1 X102.82 Y71.608 E0.75527
G1 X102.267 Y71.487 E0.762
G1 X101.738 Y71.289 E0.76871
G1 X101.241 Y71.018 E0.77544
G1 X100.788 Y70.68 E0.78216
G1 X100.387 Y70.282 E0.78887
G1 X100.046 Y69.831 E0.79559
G1 X99.674 Y69.107 E0.80526
G1 X97.486 Y63.513 E0.87664
G1 X97.318 Y62.973 E0.88336
G1 X97.227 Y62.415 E0.89008
G1 X97.211 Y62.056 E0.89435
G1 X97.21 Y46.321 E1.08134
G1 X97.25 Y45.757 E1.08806
G1 X97.369 Y45.205 E1.09477
G1 X97.565 Y44.674 E1.1015
G0 F2025 X97.964 Y44.764
G1 F1800 X98.231 Y44.299 E1.10787
G1 X98.565 Y43.879 E1.11425
G1 X98.957 Y43.513 E1.12062
G1 X99.399 Y43.21 E1.12699
G1 X99.881 Y42.975 E1.13336
G1 X100.393 Y42.815 E1.13973
G1 X100.923 Y42.732 E1.14611
G1 X101.21 Y42.721 E1.14952
G1 X116.192 Y42.722 E1.32756
G1 X116.727 Y42.762 E1.33394
G1 X117.25 Y42.881 E1.34031
G1 X117.749 Y43.076 E1.34668
G1 X118.214 Y43.344 E1.35306
G1 X118.634 Y43.677 E1.35943
G1 X119 Y44.069 E1.3658
G1 X119.304 Y44.511 E1.37217
G1 X119.538 Y44.994 E1.37855
G1 X119.698 Y45.506 E1.38493
G1 X119.781 Y46.035 E1.39129
G1 X119.792 Y46.322 E1.3947
G1 X119.791 Y62.058 E1.5817
G1 X119.751 Y62.593 E1.58808
G1 X119.632 Y63.116 E1.59445
G1 X119.437 Y63.615 E1.60082
G1 X119.169 Y64.08 E1.6072
G1 X118.698 Y64.642 E1.61591
G1 X115.275 Y67.962 E1.67258
G1 X113.17 Y70.165 E1.70879
G1 X112.771 Y70.524 E1.71516
G1 X112.324 Y70.82 E1.72154
G1 X111.838 Y71.046 E1.72791
G1 X111.323 Y71.198 E1.73429
G1 X110.553 Y71.278 E1.74349
G1 X103.385 Y71.25 E1.82867
G1 X102.85 Y71.208 E1.83505
G1 X102.328 Y71.087 E1.84141
G1 X101.829 Y70.89 E1.84779
G1 X101.365 Y70.621 E1.85416
G1 X100.947 Y70.285 E1.86054
G1 X100.582 Y69.892 E1.86691
G1 X100.281 Y69.449 E1.87327
G1 X100.046 Y68.961 E1.87971
G1 X97.858 Y63.367 E1.95109
G1 X97.701 Y62.855 E1.95745
G1 X97.621 Y62.324 E1.96384
G1 X97.611 Y62.056 E1.96702
G1 X97.61 Y46.321 E2.15401
G1 X97.65 Y45.786 E2.16039
G1 X97.769 Y45.263 E2.16676
G1 X97.964 Y44.764 E2.17313
G0 F2025 X98.363 Y44.859
G1 F1800 X98.629 Y44.429 E2.17914
G1 X98.959 Y44.046 E2.18514
G1 X99.346 Y43.72 E2.19116
G1 X99.779 Y43.459 E2.19716
G1 X100.247 Y43.269 E2.20317
G1 X100.74 Y43.156 E2.20918
G1 X101.21 Y43.121 E2.21478
G1 X116.192 Y43.122 E2.39282
G1 X116.696 Y43.162 E2.39883
G1 X117.188 Y43.281 E2.40484
G1 X117.654 Y43.476 E2.41084
G1 X118.084 Y43.741 E2.41685
G1 X118.467 Y44.072 E2.42286
G1 X118.793 Y44.458 E2.42887
G1 X119.054 Y44.891 E2.43487
G1 X119.244 Y45.36 E2.44089
G1 X119.357 Y45.852 E2.44689
G1 X119.392 Y46.322 E2.45249
G1 X119.391 Y62.058 E2.63949
G1 X119.351 Y62.562 E2.6455
G1 X119.232 Y63.054 E2.65151
G1 X119.037 Y63.52 E2.65751
G1 X118.772 Y63.95 E2.66352
G1 X118.419 Y64.355 E2.6699
G1 X114.99 Y67.682 E2.72668
G1 X112.88 Y69.889 E2.76296
G1 X112.503 Y70.226 E2.76897
G1 X112.078 Y70.499 E2.77497
G1 X111.615 Y70.702 E2.78098
G1 X111.126 Y70.829 E2.78699
G1 X110.555 Y70.878 E2.7938
G1 X103.387 Y70.85 E2.87898
G1 X102.883 Y70.808 E2.88499
G1 X102.392 Y70.687 E2.891
G1 X101.926 Y70.491 E2.89701
G1 X101.497 Y70.223 E2.90302
G1 X101.115 Y69.892 E2.90902
G1 X100.791 Y69.504 E2.91503
G1 X100.531 Y69.07 E2.92104
G1 X100.419 Y68.816 E2.92434
G1 X98.231 Y63.222 E2.99572
G1 X98.084 Y62.738 E3.00173
G1 X98.011 Y62.056 E3.00988
G1 X98.01 Y46.321 E3.19687
G1 X98.05 Y45.817 E3.20288
G1 X98.169 Y45.326 E3.20888
G1 X98.363 Y44.859 E3.21489
G1 F2400 E2.21489
G0 F2025 X100.536 Y46.926
G0 X101.815 Y46.926
G0 X106.531 Y52.392
G0 X106.601 Y52.462
;TYPE:WALL-INNER
G1 F2400 E3.21489
G1 F1800 X101.801 Y52.462 E3.27193
G1 X101.801 Y46.912 E3.33789
G1 X106.601 Y46.912 E3.39493
G1 X106.601 Y52.462 E3.46088
G0 F2025 X107.001 Y52.862
;TYPE:WALL-OUTER
G1 F1800 X101.401 Y52.862 E3.52743
G1 X101.401 Y46.512 E3.60289
G1 X107.001 Y46.512 E3.66944
G1 X107.001 Y52.862 E3.7449
G0 F2025 X106.801 Y52.862
G0 X106.531 Y52.392
G0 X106.211 Y52.072
;TYPE:SKIN
G1 F1800 X102.191 Y52.072 E3.79267
G1 X102.191 Y47.302 E3.84936
G1 X106.211 Y47.302 E3.89713
G1 X106.211 Y52.072 E3.95381
G0 F2025 X102.803 Y51.891
G1 F1800 X102.37 Y51.458 E3.96109
G0 F2025 X102.37 Y50.893
G1 F1800 X103.369 Y51.891 E3.97787
G1 X103.439 Y51.961
G0 F2025 X103.934 Y51.891
G1 F1800 X102.37 Y50.327 E4.00416
G1 X102.3 Y50.257
G0 F2025 X102.37 Y49.761
G1 F1800 X104.5 Y51.891 E4.03995
G1 X104.57 Y51.961
G0 F2025 X105.066 Y51.891
G1 F1800 X102.37 Y49.196 E4.08525
G1 X102.3 Y49.126
G0 F2025 X102.37 Y48.63
G1 F1800 X105.631 Y51.891 E4.14006
G1 X105.701 Y51.961
G0 F2025 X106.03 Y51.724
G1 F1800 X102.37 Y48.064 E4.20157
G1 X102.3 Y47.994
G0 F2025 X102.37 Y47.499
G1 F1800 X106.03 Y51.159 E4.26308
G1 X106.1 Y51.229
G0 F2025 X106.03 Y50.593
G1 F1800 X102.919 Y47.482 E4.31536
G1 X102.849 Y47.412
G0 F2025 X103.485 Y47.482
G1 F1800 X106.03 Y50.027 E4.35813
G1 X106.1 Y50.097
G0 F2025 X106.03 Y49.462
G1 F1800 X104.05 Y47.482 E4.39141
G1 X103.98 Y47.412
G0 F2025 X104.616 Y47.482
G1 F1800 X106.03 Y48.896 E4.41517
G1 X106.1 Y48.966
G0 F2025 X106.03 Y48.33
G1 F1800 X105.182 Y47.482 E4.42942
G1 X105.112 Y47.412
G0 F2025 X105.747 Y47.482
G1 F1800 X106.03 Y47.765 E4.43418
G1 F2400 E3.43418
G0 F2025 X106.581 Y52.392
G0 X107.866 Y52.392
G0 X109.536 Y52.392
G0 X110.821 Y52.392
G0 X115.531 Y52.392
G0 X115.601 Y52.462
;TYPE:WALL-INNER
G1 F2400 E4.43418
G1 F1800 X110.801 Y52.462 E4.49122
G1 X110.801 Y46.912 E4.55717
G1 X115.601 Y46.912 E4.61421
G1 X115.601 Y52.462 E4.68017
G0 F2025 X116.001 Y52.862
;TYPE:WALL-OUTER
G1 F1800 X110.401 Y52.862 E4.74671
G1 X110.401 Y46.512 E4.82218
G1 X116.001 Y46.512 E4.88872
G1 X116.001 Y52.862 E4.96418
G0 F2025 X115.801 Y52.862
G0 X115.531 Y52.392
G0 X115.211 Y52.072
;TYPE:SKIN
G1 F1800 X111.191 Y52.072 E5.01196
G1 X111.191 Y47.302 E5.06864
G1 X115.211 Y47.302 E5.11641
G1 X115.211 Y52.072 E5.1731
G0 F2025 X111.854 Y51.891
G1 F1800 X111.37 Y51.408 E5.18122
G0 F2025 X111.37 Y50.842
G1 F1800 X112.42 Y51.891 E5.19886
G1 X112.49 Y51.961
G0 F2025 X112.985 Y51.891
G1 F1800 X111.37 Y50.276 E5.226
G1 X111.3 Y50.206
G0 F2025 X111.37 Y49.711
G1 F1800 X113.551 Y51.891 E5.26265
G1 X113.621 Y51.961
G0 F2025 X114.117 Y51.891
G1 F1800 X111.37 Y49.145 E5.3088
G1 X111.3 Y49.075
G0 F2025 X111.37 Y48.579
G1 F1800 X114.682 Y51.891 E5.36447
G1 X114.752 Y51.961
G0 F2025 X115.03 Y51.673
G1 F1800 X111.37 Y48.013 E5.42598
G1 X111.3 Y47.943
G0 F2025 X111.404 Y47.482
G1 F1800 X115.03 Y51.108 E5.48691
G1 X115.1 Y51.178
G0 F2025 X115.03 Y50.542
G1 F1800 X111.97 Y47.482 E5.53834
G1 X111.9 Y47.412
G0 F2025 X112.536 Y47.482
G1 F1800 X115.03 Y49.976 E5.58025
G1 X115.1 Y50.046
G0 F2025 X115.03 Y49.411
G1 F1800 X113.101 Y47.482 E5.61267
G1 X113.031 Y47.412
G0 F2025 X113.667 Y47.482
G1 F1800 X115.03 Y48.845 E5.63558
G1 X115.1 Y48.915
G0 F2025 X115.03 Y48.279
G1 F1800 X114.233 Y47.482 E5.64897
G1 X114.163 Y47.412
G0 F2025 X114.798 Y47.482
G1 F1800 X115.03 Y47.714 E5.65287
G1 F2400 E4.65287
G0 F2025 X110.815 Y52.448
G0 X110.815 Y53.727
G0 X110.815 Y54.647
G0 X110.815 Y55.926
G0 X110.829 Y59.69
G0 X109.906 Y61.392
G0 X109.976 Y61.462
;TYPE:WALL-INNER
G1 F2400 E5.65287
G1 F1800 X109.976 Y67.087 E5.71972
G1 X103.974 Y67.087 E5.79104
G1 X103.973 Y64.737 E5.81897
G1 X103.973 Y64.537 E5.82135
G1 X104.173 Y64.537 E5.82288
G1 X107.426 Y64.537 E5.86154
G1 X107.426 Y61.462 E5.89808
G1 X101.801 Y61.462 E5.96493
G1 X101.801 Y55.912 E6.03088
G1 X106.601 Y55.912 E6.08792
G1 X106.601 Y59.662 E6.13249
G1 X110.801 Y59.662 E6.1824
G1 X110.801 Y55.912 E6.22696
G1 X115.601 Y55.912 E6.284
G1 X115.601 Y61.462 E6.34996
G1 X109.976 Y61.462 E6.4168
G0 F2025 X110.376 Y61.862
;TYPE:WALL-OUTER
G1 F1800 X110.376 Y67.487 E6.48365
G1 X103.574 Y67.487 E6.56448
G1 X103.573 Y64.337 E6.60191
G1 X103.573 Y64.137 E6.60429
G1 X103.773 Y64.137 E6.60583
G1 X107.026 Y64.137 E6.64448
G1 X107.026 Y61.862 E6.67152
G1 X101.401 Y61.862 E6.73836
G1 X101.401 Y55.512 E6.81383
G1 X107.001 Y55.512 E6.88037
G1 X107.001 Y59.262 E6.92494
G1 X110.401 Y59.262 E6.96534
G1 X110.401 Y55.512 E7.0099
G1 X116.001 Y55.512 E7.07645
G1 X116.001 Y61.862 E7.15191
G1 X110.376 Y61.862 E7.21876
G0 F2025 X110.376 Y62.062
G0 X109.876 Y62.062
G0 X109.586 Y61.072
;TYPE:SKIN
G1 F1800 X109.586 Y66.697 E7.2856
G1 X104.364 Y66.697 E7.34766
G1 X104.363 Y64.927 E7.36869
G1 X107.816 Y64.927 E7.40973
G1 X107.816 Y61.072 E7.45554
G1 X102.191 Y61.072 E7.52238
G1 X102.191 Y56.302 E7.57907
G1 X106.211 Y56.302 E7.62684
G1 X106.211 Y60.052 E7.6714
G1 X111.191 Y60.052 E7.73058
G1 X111.191 Y56.302 E7.77515
G1 X115.211 Y56.302 E7.82292
G1 X115.211 Y61.072 E7.8796
G1 X109.586 Y61.072 E7.94645
G0 F2025 X115.03 Y56.765
G1 F1800 X114.747 Y56.482 E7.9512
G0 F2025 X114.182 Y56.482
G1 F1800 X115.03 Y57.33 E7.96546
G1 X115.1 Y57.4
G0 F2025 X115.03 Y57.896
G1 F1800 X113.616 Y56.482 E7.98922
G1 X113.546 Y56.412
G0 F2025 X113.05 Y56.482
G1 F1800 X115.03 Y58.462 E8.0225
G1 X115.1 Y58.532
G0 F2025 X115.03 Y59.027
G1 F1800 X112.485 Y56.482 E8.06527
G1 X112.415 Y56.412
G0 F2025 X111.919 Y56.482
G1 F1800 X115.03 Y59.593 E8.11755
G1 X115.1 Y59.663
G0 F2025 X115.03 Y60.159
G1 F1800 X111.37 Y56.498 E8.17907
G1 X111.3 Y56.428
G0 F2025 X111.37 Y57.064
G1 F1800 X115.03 Y60.724 E8.24058
G1 X115.1 Y60.794
G0 F2025 X114.631 Y60.891
G1 F1800 X111.37 Y57.629 E8.29539
G1 X111.3 Y57.559
G0 F2025 X111.37 Y58.195
G1 F1800 X114.066 Y60.891 E8.3407
G1 X114.136 Y60.961
G0 F2025 X113.5 Y60.891
G1 F1800 X111.37 Y58.761 E8.37649
G1 X111.3 Y58.691
G0 F2025 X111.37 Y59.326
G1 F1800 X112.934 Y60.891 E8.40279
G1 X113.004 Y60.961
G0 F2025 X112.369 Y60.891
G1 F1800 X111.37 Y59.892 E8.41958
G1 X111.3 Y59.822
G0 F2025 X111.143 Y60.232
G1 F1800 X111.803 Y60.891 E8.43066
G1 X111.873 Y60.961
G0 F2025 X111.237 Y60.891
G1 F1800 X110.578 Y60.232 E8.44174
G1 X110.508 Y60.162
G0 F2025 X110.012 Y60.232
G1 F1800 X110.672 Y60.891 E8.45282
G1 X110.742 Y60.961
G0 F2025 X110.106 Y60.891
G1 F1800 X109.446 Y60.232 E8.4639
G1 X109.376 Y60.162
G0 F2025 X108.881 Y60.232
G1 F1800 X109.54 Y60.891 E8.47498
G1 X109.61 Y60.961
G0 F2025 X109.405 Y61.322
G1 F1800 X108.315 Y60.232 E8.4933
G1 X108.245 Y60.162
G0 F2025 X107.749 Y60.232
G1 F1800 X109.405 Y61.888 E8.52113
G1 X109.475 Y61.958
G0 F2025 X109.405 Y62.453
G1 F1800 X107.995 Y61.043 E8.54482
G1 X107.925 Y60.973
G0 F2025 X107.843 Y60.891
G1 F1800 X107.183 Y60.232 E8.55591
G1 X107.113 Y60.162
G0 F2025 X106.618 Y60.232
G1 F1800 X107.277 Y60.891 E8.56698
G1 X107.347 Y60.961
G0 F2025 X106.712 Y60.891
G1 F1800 X106.052 Y60.232 E8.57806
G1 X105.982 Y60.162
G0 F2025 X106.03 Y60.21
G1 F1800 X102.37 Y56.55 E8.63957
G1 X102.3 Y56.48
G0 F2025 X102.868 Y56.482
G1 F1800 X106.03 Y59.644 E8.69271
G1 X106.1 Y59.714
G0 F2025 X106.03 Y59.078
G1 F1800 X103.434 Y56.482 E8.73634
G1 X103.364 Y56.412
G0 F2025 X103.999 Y56.482
G1 F1800 X106.03 Y58.513 E8.77048
G1 X106.1 Y58.583
G0 F2025 X106.03 Y57.947
G1 F1800 X104.565 Y56.482 E8.7951
G1 X104.495 Y56.412
G0 F2025 X105.131 Y56.482
G1 F1800 X106.03 Y57.381 E8.8102
G1 X106.1 Y57.451
G0 F2025 X106.03 Y56.816
G1 F1800 X105.696 Y56.482 E8.81582
G0 F2025 X102.37 Y57.115
G1 F1800 X106.146 Y60.891 E8.87928
G1 X106.216 Y60.961
G0 F2025 X105.58 Y60.891
G1 F1800 X102.37 Y57.681 E8.93322
G1 X102.3 Y57.611
G0 F2025 X102.37 Y58.247
G1 F1800 X105.015 Y60.891 E8.97767
G1 X105.085 Y60.961
G0 F2025 X104.449 Y60.891
G1 F1800 X102.37 Y58.812 E9.01261
G1 X102.3 Y58.742
G0 F2025 X102.37 Y59.378
G1 F1800 X103.883 Y60.891 E9.03803
G1 X103.953 Y60.961
G0 F2025 X103.318 Y60.891
G1 F1800 X102.37 Y59.944 E9.05396
G1 X102.3 Y59.874
G0 F2025 X102.37 Y60.509
G1 F1800 X102.752 Y60.891 E9.06038
G0 F2025 X107.454 Y61.434
G0 X107.454 Y64.565
G0 X104.704 Y65.106
G1 F1800 X106.114 Y66.516 E9.08407
G1 X106.184 Y66.586
G0 F2025 X105.549 Y66.516
G1 F1800 X104.542 Y65.509 E9.101
G1 X104.472 Y65.439
G0 F2025 X104.542 Y66.076
G1 F1800 X104.983 Y66.516 E9.1084
G0 F2025 X105.27 Y65.106
G1 F1800 X106.68 Y66.516 E9.1321
G1 X106.75 Y66.586
G0 F2025 X107.246 Y66.516
G1 F1800 X105.836 Y65.106 E9.15579
G1 X105.766 Y65.036
G0 F2025 X106.401 Y65.106
G1 F1800 X107.811 Y66.516 E9.17949
G1 X107.881 Y66.586
G0 F2025 X108.377 Y66.516
G1 F1800 X106.967 Y65.106 E9.20319
G1 X106.897 Y65.036
G0 F2025 X107.533 Y65.106
G1 F1800 X108.943 Y66.516 E9.22688
G1 X109.013 Y66.586
G0 F2025 X109.405 Y66.413
G1 F1800 X107.995 Y65.002 E9.25059
G1 X107.925 Y64.932
G0 F2025 X107.995 Y64.437
G1 F1800 X109.405 Y65.847 E9.27428
G1 X109.475 Y65.917
G0 F2025 X109.405 Y65.282
G1 F1800 X107.995 Y63.871 E9.29799
G1 X107.925 Y63.801
G0 F2025 X107.995 Y63.305
G1 F1800 X109.405 Y64.716 E9.32169
G1 X109.475 Y64.786
G0 F2025 X109.405 Y64.15
G1 F1800 X107.995 Y62.74 E9.34539
G1 X107.925 Y62.67
G0 F2025 X107.995 Y62.174
G1 F1800 X109.405 Y63.585 E9.36909
G1 X109.475 Y63.655
G0 F2025 X109.405 Y63.019
G1 F1800 X107.995 Y61.608 E9.3928
G1 X107.925 Y61.538
G1 F2400 E8.3928
G0 F2025 X106.573 Y59.69
G0 X106.587 Y55.926
G0 X106.587 Y54.647
G0 X106.587 Y53.727
G0 X106.587 Y52.442
G0 X106.531 Y52.392
G0 X106.601 Y52.462
;TIME_ELAPSED:39.415487
;LAYER:1
M106 S255
G0 F2362.5 X106.601 Y52.462 Z0.5
;TYPE:WALL-INNER
G1 F2400 E9.3928
G1 F2100 X101.801 Y52.462 E9.47836
G1 X101.801 Y46.912 E9.57729
G1 X106.601 Y46.912 E9.66285
G1 X106.601 Y52.462 E9.76178
G0 F2362.5 X107.001 Y52.862
;TYPE:WALL-OUTER
G1 F1500 X101.401 Y52.862 E9.86161
G1 X101.401 Y46.512 E9.9748
G1 X107.001 Y46.512 E10.07462
G1 X107.001 Y52.862 E10.18781
G0 F2362.5 X106.801 Y52.862
G0 X106.531 Y52.392
G0 X106.211 Y52.072
;TYPE:SKIN
G1 F1500 X102.191 Y52.072 E10.25947
G1 X102.191 Y47.302 E10.34449
G1 X106.211 Y47.302 E10.41615
G1 X106.211 Y52.072 E10.50118
G0 F2362.5 X105.982 Y51.843
G1 F1500 X105.699 Y51.56 E10.51074
G1 X105.298 Y51.961
G0 F2362.5 X104.803 Y51.891
G1 F1500 X106.03 Y50.664 E10.54167
G1 X106.1 Y50.594
G0 F2362.5 X106.03 Y50.098
G1 F1500 X104.237 Y51.891 E10.58687
G1 X104.167 Y51.961
G0 F2362.5 X103.671 Y51.891
G1 F1500 X106.03 Y49.532 E10.64634
G1 X106.1 Y49.462
G0 F2362.5 X106.03 Y48.967
G1 F1500 X103.106 Y51.891 E10.72005
G1 X103.036 Y51.961
G0 F2362.5 X102.54 Y51.891
G1 F1500 X106.03 Y48.401 E10.80803
G1 X106.1 Y48.331
G0 F2362.5 X106.03 Y47.835
G1 F1500 X102.37 Y51.495 E10.90029
G1 X102.3 Y51.565
G0 F2362.5 X102.37 Y50.93
G1 F1500 X105.818 Y47.482 E10.98721
G1 X105.888 Y47.412
G0 F2362.5 X105.252 Y47.482
G1 F1500 X102.37 Y50.364 E11.05986
G1 X102.3 Y50.434
G0 F2362.5 X102.37 Y49.798
G1 F1500 X104.687 Y47.482 E11.11826
G1 X104.757 Y47.412
G0 F2362.5 X104.121 Y47.482
