;FLAVOR:Marlin
;TIME:1238
;Filament used: 0.272591m
;Layer height: 0.3
;Generated with Cura_SteamEngine master
M104 S185
M109 S185
M82 ;absolute extrusion mode
; -- START GCODE --
G21                     ;set units to millimetres
G90                     ;set to absolute positioning
M106 S0                 ;set fan speed to zero (turned off)
G28 X0 Y0               ;move to the X/Y origin (Home)
G28 Z0                  ;move to the Z origin (Home)
G1 Z15.0 F1200          ;move Z to position 15.0 mm
G92 E0                  ;zero the extruded length
G1 E20 F200             ;extrude 20mm of feed stock
G92 E0                  ;zero the extruded length again
G1 F7200                ;set feedrate to 120 mm/s
; -- end of START GCODE --
G92 E0
G1 F2400 E-1
;LAYER_COUNT:209
;LAYER:0
M107
G0 F2025 X108.84 Y93.774 Z0.2
;TYPE:SKIRT
G1 F2400 E0
G1 F1800 X109.309 Y93.297 E0.00795
G1 X109.832 Y92.88 E0.0159
G1 X110.401 Y92.527 E0.02386
G1 X111.008 Y92.246 E0.0318
G1 X111.644 Y92.038 E0.03976
G1 X112.3 Y91.909 E0.0477
G1 X113.103 Y91.857 E0.05726
G1 X116.083 Y91.881 E0.09268
G1 X116.751 Y91.927 E0.10063
G1 X117.408 Y92.051 E0.10858
G1 X118.046 Y92.253 E0.11653
G1 X118.655 Y92.53 E0.12448
G1 X119.227 Y92.877 E0.13243
G1 X119.753 Y93.291 E0.14039
G1 X120.226 Y93.763 E0.14833
G1 X120.639 Y94.289 E0.15628
G1 X120.987 Y94.861 E0.16423
G1 X121.264 Y95.47 E0.17218
G1 X121.467 Y96.108 E0.18014
G1 X121.592 Y96.765 E0.18809
G1 X121.638 Y97.478 E0.19658
G1 X121.639 Y99.218 E0.21726
G1 X121.599 Y99.886 E0.22521
G1 X121.48 Y100.544 E0.23315
G1 X121.284 Y101.183 E0.2411
G1 X121.012 Y101.795 E0.24906
G1 X120.67 Y102.37 E0.25701
G1 X120.261 Y102.9 E0.26496
G1 X119.793 Y103.377 E0.2729
G1 X119.27 Y103.795 E0.28086
G1 X118.702 Y104.147 E0.2888
G1 X118.095 Y104.43 E0.29676
G1 X117.459 Y104.638 E0.30471
G1 X116.803 Y104.769 E0.31266
G1 X116.05 Y104.821 E0.32163
G1 X113.068 Y104.827 E0.35707
G1 X112.4 Y104.788 E0.36502
G1 X111.742 Y104.67 E0.37296
G1 X111.102 Y104.475 E0.38091
G1 X110.49 Y104.204 E0.38887
G1 X109.915 Y103.862 E0.39682
G1 X109.385 Y103.455 E0.40476
G1 X108.907 Y102.987 E0.41271
G1 X108.488 Y102.465 E0.42066
G1 X108.134 Y101.897 E0.42862
G1 X107.851 Y101.291 E0.43656
G1 X107.642 Y100.655 E0.44452
G1 X107.51 Y99.999 E0.45247
G1 X107.457 Y99.224 E0.4617
G1 X107.458 Y97.454 E0.48274
G1 X107.498 Y96.786 E0.49069
G1 X107.618 Y96.128 E0.49864
G1 X107.815 Y95.489 E0.50658
G1 X108.088 Y94.877 E0.51455
G1 X108.431 Y94.303 E0.52249
G1 X108.84 Y93.774 E0.53044
G0 F2025 X109.235 Y93.932
G1 F1800 X109.701 Y93.486 E0.53811
G1 X110.218 Y93.101 E0.54577
G1 X110.779 Y92.783 E0.55343
G1 X111.375 Y92.537 E0.56109
G1 X111.996 Y92.367 E0.56874
G1 X112.634 Y92.274 E0.5764
G1 X113.1 Y92.257 E0.58195
G1 X116.08 Y92.281 E0.61736
G1 X116.723 Y92.326 E0.62502
G1 X117.356 Y92.451 E0.63269
G1 X117.968 Y92.652 E0.64034
G1 X118.55 Y92.928 E0.648
G1 X119.095 Y93.274 E0.65567
G1 X119.592 Y93.685 E0.66333
G1 X120.034 Y94.154 E0.67099
G1 X120.415 Y94.674 E0.67865
G1 X120.729 Y95.237 E0.68631
G1 X120.97 Y95.834 E0.69396
G1 X121.136 Y96.457 E0.70162
G1 X121.224 Y97.096 E0.70929
G1 X121.238 Y97.478 E0.71383
G1 X121.239 Y99.218 E0.73451
G1 X121.199 Y99.861 E0.74217
G1 X121.081 Y100.495 E0.74983
G1 X120.884 Y101.109 E0.75749
G1 X120.613 Y101.694 E0.76515
G1 X120.272 Y102.241 E0.77281
G1 X119.866 Y102.742 E0.78048
G1 X119.401 Y103.188 E0.78813
G1 X118.884 Y103.574 E0.7958
G1 X118.324 Y103.892 E0.80345
G1 X117.728 Y104.139 E0.81112
G1 X117.107 Y104.31 E0.81877
G1 X116.469 Y104.403 E0.82644
G1 X116.049 Y104.421 E0.83143
G1 X113.067 Y104.427 E0.86687
G1 X112.424 Y104.388 E0.87452
G1 X111.79 Y104.27 E0.88219
G1 X111.176 Y104.075 E0.88984
G1 X110.59 Y103.805 E0.89751
G1 X110.043 Y103.464 E0.90517
G1 X109.542 Y103.059 E0.91283
G1 X109.095 Y102.595 E0.92048
G1 X108.708 Y102.078 E0.92816
G1 X108.389 Y101.518 E0.93582
G1 X108.141 Y100.923 E0.94348
G1 X107.969 Y100.302 E0.95113
G1 X107.875 Y99.664 E0.9588
G1 X107.857 Y99.224 E0.96403
G1 X107.858 Y97.454 E0.98506
G1 X107.898 Y96.811 E0.99272
G1 X108.018 Y96.177 E1.00039
G1 X108.215 Y95.563 E1.00805
G1 X108.487 Y94.979 E1.01571
G1 X108.828 Y94.432 E1.02337
G1 X109.235 Y93.932 E1.03103
G0 F2025 X109.63 Y94.097
G1 F1800 X110.091 Y93.684 E1.03838
G1 X110.601 Y93.333 E1.04574
G1 X111.153 Y93.051 E1.05311
G1 X111.736 Y92.843 E1.06046
G1 X112.341 Y92.711 E1.06782
G1 X113.097 Y92.657 E1.07683
G1 X116.077 Y92.681 E1.11224
G1 X116.694 Y92.726 E1.11959
G1 X117.301 Y92.85 E1.12696
G1 X117.887 Y93.051 E1.13432
G1 X118.442 Y93.326 E1.14168
G1 X118.957 Y93.67 E1.14904
G1 X119.423 Y94.078 E1.1564
G1 X119.833 Y94.542 E1.16376
G1 X120.18 Y95.055 E1.17112
G1 X120.458 Y95.609 E1.17848
G1 X120.662 Y96.194 E1.18585
G1 X120.789 Y96.8 E1.1932
G1 X120.838 Y97.478 E1.20128
G1 X120.839 Y99.218 E1.22196
G1 X120.799 Y99.836 E1.22932
G1 X120.681 Y100.444 E1.23668
G1 X120.484 Y101.032 E1.24405
G1 X120.214 Y101.589 E1.2514
G1 X119.875 Y102.107 E1.25876
G1 X119.471 Y102.577 E1.26613
G1 X119.01 Y102.991 E1.27349
G1 X118.5 Y103.342 E1.28085
G1 X117.949 Y103.625 E1.28821
G1 X117.366 Y103.834 E1.29557
G1 X116.761 Y103.966 E1.30293
G1 X116.049 Y104.021 E1.31141
G1 X113.067 Y104.027 E1.34685
G1 X112.449 Y103.988 E1.35421
G1 X111.841 Y103.87 E1.36157
G1 X111.253 Y103.675 E1.36893
G1 X110.695 Y103.406 E1.37629
G1 X110.177 Y103.067 E1.38365
G1 X109.706 Y102.664 E1.39101
G1 X109.292 Y102.204 E1.39837
G1 X108.94 Y101.694 E1.40573
G1 X108.656 Y101.143 E1.4131
G1 X108.446 Y100.561 E1.42045
G1 X108.313 Y99.956 E1.42781
G1 X108.257 Y99.224 E1.43654
G1 X108.258 Y97.454 E1.45757
G1 X108.298 Y96.836 E1.46493
G1 X108.418 Y96.229 E1.47228
G1 X108.615 Y95.641 E1.47965
G1 X108.885 Y95.084 E1.48701
G1 X109.226 Y94.567 E1.49437
G1 X109.63 Y94.097 E1.50173
G0 F2025 X109.623 Y94.708
G1 F1800 X110.023 Y94.271 E1.50877
G1 X110.479 Y93.892 E1.51582
G1 X110.982 Y93.577 E1.52287
G1 X111.523 Y93.334 E1.52992
G1 X112.091 Y93.165 E1.53696
G1 X112.677 Y93.074 E1.54401
G1 X113.093 Y93.057 E1.54896
G1 X116.073 Y93.081 E1.58437
G1 X116.665 Y93.126 E1.59143
G1 X117.245 Y93.25 E1.59847
G1 X117.803 Y93.45 E1.60552
G1 X118.328 Y93.724 E1.61256
G1 X118.813 Y94.066 E1.61961
G1 X119.247 Y94.47 E1.62665
G1 X119.622 Y94.929 E1.6337
G1 X119.933 Y95.434 E1.64075
G1 X120.173 Y95.977 E1.6478
G1 X120.338 Y96.546 E1.65484
G1 X120.424 Y97.133 E1.66189
G1 X120.438 Y97.478 E1.66599
G1 X120.439 Y99.218 E1.68667
G1 X120.399 Y99.81 E1.69372
G1 X120.281 Y100.391 E1.70077
G1 X120.085 Y100.951 E1.70782
G1 X119.815 Y101.479 E1.71487
G1 X119.478 Y101.966 E1.7219
G1 X119.077 Y102.404 E1.72896
G1 X118.622 Y102.783 E1.736
G1 X118.119 Y103.098 E1.74305
G1 X117.579 Y103.343 E1.7501
G1 X117.011 Y103.512 E1.75714
G1 X116.425 Y103.604 E1.76419
G1 X116.048 Y103.621 E1.76867
G1 X113.066 Y103.627 E1.80411
G1 X112.474 Y103.588 E1.81116
G1 X111.893 Y103.47 E1.81821
G1 X111.333 Y103.275 E1.82525
G1 X110.804 Y103.007 E1.8323
G1 X110.317 Y102.669 E1.83935
G1 X109.879 Y102.27 E1.84639
G1 X109.498 Y101.815 E1.85344
G1 X109.183 Y101.313 E1.86048
G1 X108.938 Y100.773 E1.86753
G1 X108.767 Y100.205 E1.87458
G1 X108.675 Y99.619 E1.88163
G1 X108.657 Y99.225 E1.88631
G1 X108.658 Y97.455 E1.90735
G1 X108.698 Y96.863 E1.9144
G1 X108.818 Y96.282 E1.92145
G1 X109.014 Y95.723 E1.92849
G1 X109.284 Y95.195 E1.93553
G1 X109.623 Y94.708 E1.94259
G0 F2025 X110.019 Y94.856
G1 F1800 X110.416 Y94.454 E1.9493
G1 X110.866 Y94.111 E1.95602
G1 X111.359 Y93.836 E1.96273
G1 X111.887 Y93.632 E1.96946
G1 X112.438 Y93.505 E1.97618
G1 X113.09 Y93.457 E1.98395
G1 X116.07 Y93.481 E2.01936
G1 X116.634 Y93.526 E2.02609
G1 X117.185 Y93.649 E2.03279
G1 X117.714 Y93.849 E2.03952
G1 X118.21 Y94.122 E2.04624
G1 X118.661 Y94.461 E2.05295
G1 X119.061 Y94.861 E2.05967
G1 X119.4 Y95.314 E2.06639
G1 X119.672 Y95.809 E2.07311
G1 X119.871 Y96.338 E2.07982
G1 X119.994 Y96.89 E2.08654
G1 X120.038 Y97.479 E2.09356
G1 X120.039 Y99.219 E2.11424
G1 X119.999 Y99.783 E2.12096
G1 X119.881 Y100.335 E2.12767
G1 X119.685 Y100.866 E2.13439
G1 X119.417 Y101.363 E2.1411
G1 X119.081 Y101.818 E2.14782
G1 X118.685 Y102.221 E2.15454
G1 X118.235 Y102.564 E2.16126
G1 X117.742 Y102.84 E2.16798
G1 X117.215 Y103.044 E2.17469
G1 X116.664 Y103.172 E2.18141
G1 X116.047 Y103.221 E2.18877
G1 X113.065 Y103.227 E2.22421
G1 X112.501 Y103.188 E2.23093
G1 X111.948 Y103.07 E2.23764
G1 X111.417 Y102.876 E2.24436
G1 X110.919 Y102.608 E2.25108
G1 X110.464 Y102.273 E2.2578
G1 X110.061 Y101.877 E2.26451
G1 X109.717 Y101.428 E2.27123
G1 X109.44 Y100.935 E2.27795
G1 X109.235 Y100.408 E2.28467
G1 X109.107 Y99.858 E2.29138
G1 X109.057 Y99.225 E2.29893
G1 X109.058 Y97.455 E2.31996
G1 X109.098 Y96.891 E2.32668
G1 X109.218 Y96.338 E2.33341
G1 X109.414 Y95.808 E2.34012
G1 X109.683 Y95.311 E2.34684
G1 X110.019 Y94.856 E2.35356
G0 F2025 X110.414 Y95.013
G1 F1800 X110.807 Y94.648 E2.35993
G1 X111.249 Y94.345 E2.3663
G1 X111.731 Y94.11 E2.37267
G1 X112.243 Y93.95 E2.37905
G1 X112.773 Y93.868 E2.38542
G1 X113.087 Y93.857 E2.38916
G1 X116.067 Y93.881 E2.42457
G1 X116.601 Y93.925 E2.43094
G1 X117.123 Y94.049 E2.43731
G1 X117.621 Y94.248 E2.44369
G1 X118.084 Y94.519 E2.45006
G1 X118.501 Y94.856 E2.45643
G1 X118.864 Y95.251 E2.46281
G1 X119.164 Y95.695 E2.46918
G1 X119.395 Y96.18 E2.47556
G1 X119.551 Y96.693 E2.48193
G1 X119.638 Y97.479 E2.49133
G1 X119.639 Y99.219 E2.51201
G1 X119.599 Y99.754 E2.51838
G1 X119.481 Y100.277 E2.52475
G1 X119.286 Y100.776 E2.53112
G1 X119.019 Y101.241 E2.53749
G1 X118.685 Y101.662 E2.54388
G1 X118.294 Y102.028 E2.55024
G1 X117.852 Y102.331 E2.55661
G1 X117.369 Y102.566 E2.56299
G1 X116.858 Y102.727 E2.56936
G1 X116.328 Y102.809 E2.57573
G1 X116.046 Y102.821 E2.57909
G1 X113.064 Y102.827 E2.61453
G1 X112.529 Y102.788 E2.6209
G1 X112.006 Y102.67 E2.62727
G1 X111.506 Y102.476 E2.63364
G1 X111.041 Y102.21 E2.64001
G1 X110.62 Y101.877 E2.64639
G1 X110.254 Y101.486 E2.65275
G1 X109.949 Y101.044 E2.65914
G1 X109.714 Y100.562 E2.66551
G1 X109.553 Y100.051 E2.67187
G1 X109.469 Y99.521 E2.67825
G1 X109.457 Y99.225 E2.68177
G1 X109.458 Y97.455 E2.70281
G1 X109.498 Y96.92 E2.70918
G1 X109.617 Y96.397 E2.71556
G1 X109.813 Y95.898 E2.72193
G1 X110.081 Y95.433 E2.7283
G1 X110.414 Y95.013 E2.73467
G0 F2025 X110.809 Y95.181
G1 F1800 X111.195 Y94.855 E2.74068
G1 X111.628 Y94.594 E2.74669
G1 X112.097 Y94.405 E2.75269
G1 X112.59 Y94.291 E2.75871
G1 X113.084 Y94.257 E2.76459
G1 X116.064 Y94.281 E2.80001
G1 X116.567 Y94.325 E2.80601
G1 X117.058 Y94.448 E2.81202
G1 X117.523 Y94.646 E2.81803
G1 X117.951 Y94.916 E2.82404
G1 X118.331 Y95.249 E2.83005
G1 X118.654 Y95.638 E2.83605
G1 X118.912 Y96.073 E2.84206
G1 X119.097 Y96.543 E2.84807
G1 X119.207 Y97.037 E2.85408
G1 X119.238 Y97.479 E2.85935
G1 X119.239 Y99.219 E2.88002
G1 X119.199 Y99.723 E2.88603
G1 X119.081 Y100.215 E2.89204
G1 X118.886 Y100.681 E2.89805
G1 X118.621 Y101.112 E2.90406
G1 X118.291 Y101.495 E2.91007
G1 X117.905 Y101.821 E2.91607
G1 X117.472 Y102.082 E2.92208
G1 X117.003 Y102.272 E2.92809
G1 X116.511 Y102.386 E2.9341
G1 X116.045 Y102.421 E2.93965
G1 X113.063 Y102.427 E2.97509
G1 X112.559 Y102.388 E2.98109
G1 X112.068 Y102.27 E2.98709
G1 X111.601 Y102.076 E2.9931
G1 X111.17 Y101.812 E2.99911
G1 X110.787 Y101.482 E3.00512
G1 X110.46 Y101.096 E3.01113
G1 X110.198 Y100.664 E3.01713
G1 X110.007 Y100.196 E3.02314
G1 X109.893 Y99.703 E3.02915
G1 X109.857 Y99.225 E3.03485
G1 X109.858 Y97.455 E3.05588
G1 X109.898 Y96.951 E3.06189
G1 X110.017 Y96.46 E3.0679
G1 X110.212 Y95.993 E3.07391
G1 X110.478 Y95.564 E3.07991
G1 X110.809 Y95.181 E3.08592
G1 F2400 E2.08592
G0 F2025 X112.37 Y98.035
G0 X113.647 Y98.061
G0 X115.328 Y98.343
G0 X115.428 Y98.343
;TYPE:WALL-INNER
G1 F2400 E3.08592
G1 F1800 X115.434 Y98.637 E3.08942
G1 X113.831 Y98.637 E3.10847
G1 X113.631 Y98.637 E3.11084
G1 X113.631 Y98.437 E3.11238
G1 X113.633 Y98.047 E3.11702
G1 X115.434 Y98.047 E3.13842
G1 X115.428 Y98.343 E3.14194
G0 F2025 X115.839 Y97.851
;TYPE:WALL-OUTER
G1 F1800 X115.828 Y98.343 E3.14779
G1 X115.839 Y98.833 E3.15361
G1 X115.843 Y99.031 E3.15596
G1 X115.833 Y99.037 E3.1561
G1 X115.635 Y99.037 E3.15846
G1 X113.239 Y99.037 E3.18693
G1 X113.227 Y98.432 E3.19412
G1 X113.239 Y97.647 E3.20345
G1 X115.639 Y97.647 E3.23197
G1 X115.64 Y97.647 E3.23198
G1 X115.843 Y97.647 E3.23439
G1 X115.84 Y97.85 E3.23595
G1 X115.839 Y97.851 E3.23597
G0 F2025 X115.835 Y98.051
G0 X115.363 Y98.116
G0 X114.861 Y98.456
G0 X114.746 Y98.341
G1 F1800 X114.181 Y98.341 E3.23981
G0 F2025 X114.066 Y98.237
G0 X115.363 Y98.116
G0 X115.445 Y96.816
;TIME_ELAPSED:18.312683
;LAYER:1
M106 S255
G0 F2362.5 X115.445 Y96.816 Z0.5
;TYPE:WALL-INNER
G1 F840 X115.492 Y96.809 E3.24066
G1 X115.452 Y97.335 E3.25006
G1 X115.427 Y98.343 E3.26803
G1 X115.449 Y99.321 E3.28547
G1 X115.496 Y99.942 E3.29657
G1 X115.498 Y99.974 E3.29714
G1 X115.46 Y99.974 E3.29782
G1 X115.506 Y100.309 E3.30206
G1 X115.461 Y100.309
G1 X115.428 Y100.309 E3.30265
G1 X113.726 Y100.31 E3.33299
G1 X113.656 Y99.45 E3.34837
G1 X113.644 Y99.179 E3.3532
G1 X113.627 Y98.289 E3.36907
G1 X113.649 Y97.403 E3.38487
G1 X113.727 Y96.375 E3.40325
G1 X115.277 Y96.375 E3.43087
G1 X115.278 Y96.375 E3.43089
G1 X115.506 Y96.375 E3.43496
G1 X115.475 Y96.601 E3.43749
G1 X115.447 Y96.803 E3.44074
G1 X115.445 Y96.816
G0 F2362.5 X115.914 Y96.345
;TYPE:WALL-OUTER
G1 F600 X115.928 Y96.343 E3.44099
G1 X115.927 Y96.359 E3.44128
G1 X115.852 Y97.355 E3.45908
G1 X115.827 Y98.343 E3.4767
G1 X115.849 Y99.301 E3.49378
G1 X115.928 Y100.34 E3.51235
G1 X115.93 Y100.374 E3.51296
G1 X115.919 Y100.374 E3.51316
G1 X115.965 Y100.709 E3.51743
G1 X115.931 Y100.709
G1 X115.92 Y100.709
G1 X115.885 Y100.709 E3.51805
G1 X113.368 Y100.71 E3.56292
G1 X113.343 Y100.534 E3.56609
G1 X113.257 Y99.483 E3.58489
G1 X113.244 Y99.197 E3.58999
G1 X113.227 Y98.279 E3.60636
G1 X113.25 Y97.373 E3.62251
G1 X113.343 Y96.151 E3.64436
G1 X113.368 Y95.975 E3.64753
G1 X115.897 Y95.975 E3.69261
G1 X115.914 Y95.975 E3.69291
G1 X115.928 Y95.975 E3.69316
G1 X115.965 Y95.975 E3.69382
G1 X115.914 Y96.345 E3.69865
G0 F2362.5 X115.928 Y96.343
G0 X115.927 Y96.359
G0 X115.915 Y96.528
G0 X115.394 Y96.456
G0 X115.058 Y96.765
;TYPE:SKIN
G1 F600 X114.987 Y97.276 E3.70785
G1 X115.066 Y97.265 E3.70927
G1 X115.037 Y98.343 E3.72849
G1 X115.059 Y99.34 E3.74627
G1 X115.078 Y99.584 E3.75063
G1 X115.013 Y99.584 E3.75179
G1 X115.059 Y99.919 E3.75782
G1 X114.085 Y99.92 E3.77518
G1 X114.046 Y99.433 E3.78389
G1 X114.034 Y99.162 E3.78873
G1 X114.017 Y98.299 E3.80411
G1 X114.039 Y97.413 E3.81991
G1 X114.088 Y96.765 E3.83149
G1 X115.058 Y96.765 E3.84878
G0 F2362.5 X114.422 Y97.143
G1 F600 X114.5 Y97.63 E3.8612
G1 X114.136 Y97.995
G0 F2362.5 X114.2 Y98.497
G1 F600 X114.87 Y97.827 E3.87809
G1 X114.94 Y97.757
G0 F2362.5 X114.856 Y98.406
G1 F600 X114.211 Y99.051 E3.89435
G1 X114.141 Y99.121
G0 F2362.5 X114.238 Y99.591
G1 F600 X114.868 Y98.96 E3.91025
G1 X114.938 Y98.89
G0 F2362.5 X114.828 Y99.566
G1 F600 X114.655 Y99.739 E3.91461
G0 F2362.5 X115.431 Y100.244
G0 X115.549 Y100.572
;TIME_ELAPSED:22.196691
;LAYER:2
G0 F2700 X115.549 Y100.572 Z0.8
;TYPE:WALL-INNER
G1 F1200 X115.594 Y100.897 E3.92046
G1 X115.625 Y101.123 E3.92452
G1 X115.397 Y101.123 E3.92706
G1 X115.396 Y101.123 E3.92708
G1 X113.828 Y101.124 E3.95503
G1 X113.742 Y100.5 E3.96625
G1 X113.653 Y99.42 E3.98557
G1 X113.641 Y99.11 E3.9911
G1 X113.627 Y98.354 E4.00458
G1 X113.645 Y97.478 E4.0202
G1 X113.658 Y97.205 E4.02507
G1 X113.739 Y96.206 E4.04293
G1 X113.832 Y95.561 E4.05455
G1 X115.394 Y95.561 E4.08239
G1 X115.395 Y95.561 E4.08241
G1 X115.62 Y95.561 E4.08642
G1 X115.592 Y95.785 E4.08894
G1 X115.535 Y96.24 E4.09711
G1 X115.45 Y97.386 E4.1176
G1 X115.431 Y98.103 E4.13038
G1 X115.43 Y98.571 E4.13873
G1 X115.451 Y99.355 E4.15271
G1 X115.549 Y100.572 E4.17447
G0 F2700 X115.947 Y100.529
;TYPE:WALL-OUTER
G1 F600 X116.053 Y101.297 E4.18829
G1 X116.084 Y101.523 E4.19235
G1 X115.856 Y101.523 E4.19489
G1 X115.855 Y101.523 E4.19491
G1 X113.486 Y101.524 E4.23714
G1 X113.422 Y101.117 E4.24448
G1 X113.343 Y100.533 E4.25499
G1 X113.254 Y99.453 E4.2743
G1 X113.241 Y99.126 E4.28014
G1 X113.227 Y98.346 E4.29404
G1 X113.245 Y97.458 E4.30987
G1 X113.259 Y97.173 E4.31496
G1 X113.341 Y96.164 E4.33301
G1 X113.486 Y95.161 E4.35107
