;FLAVOR:Marlin
;TIME:1119
;Filament used: 0.376447m
;Layer height: 0.3
;Generated with Cura_SteamEngine master
M104 S185
M109 S185
M82 ;absolute extrusion mode
; -- START GCODE --
G21                     ;set units to millimetres
G90                     ;set to absolute positioning
M106 S0                 ;set fan speed to zero (turned off)
G28 X0 Y0               ;move to the X/Y origin (Home)
G28 Z0                  ;move to the Z origin (Home)
G1 Z15.0 F1200          ;move Z to position 15.0 mm
G92 E0                  ;zero the extruded length
G1 E20 F200             ;extrude 20mm of feed stock
G92 E0                  ;zero the extruded length again
G1 F7200                ;set feedrate to 120 mm/s
; -- end of START GCODE --
G92 E0
G1 F2400 E-1
;LAYER_COUNT:13
;LAYER:0
M107
G0 F2025 X89.816 Y83.692 Z0.2
;TYPE:SKIRT
G1 F2400 E0
G1 F1800 X90.286 Y83.185 E0.00822
G1 X92.012 Y81.651 E0.03566
G1 X92.439 Y81.326 E0.04203
G1 X92.909 Y81.067 E0.04841
G1 X93.484 Y80.862 E0.05567
G1 X98.214 Y79.611 E0.11381
G1 X105.717 Y77.366 E0.20688
G1 X106.403 Y77.232 E0.21518
G1 X108.735 Y77.007 E0.24302
G1 X109.271 Y76.995 E0.24939
G1 X109.803 Y77.063 E0.25577
G1 X110.361 Y77.225 E0.26267
G1 X117.759 Y80.038 E0.35673
G1 X122.279 Y81.586 E0.4135
G1 X122.94 Y81.89 E0.42215
G1 X124.937 Y83.066 E0.44969
G1 X125.377 Y83.372 E0.45606
G1 X125.768 Y83.74 E0.46244
G1 X126.137 Y84.22 E0.46964
G1 X128.8 Y88.358 E0.52811
G1 X133.231 Y94.762 E0.62066
G1 X133.567 Y95.365 E0.62886
G1 X134.343 Y97.135 E0.65183
G1 X134.509 Y97.598 E0.65767
G1 X134.665 Y98.148 E0.66446
G1 X134.773 Y98.673 E0.67083
G1 X134.797 Y99.314 E0.67846
G1 X134.41 Y106.867 E0.76833
G1 X134.334 Y111.816 E0.82715
G1 X134.249 Y112.536 E0.83576
G1 X133.747 Y114.81 E0.86344
G1 X133.593 Y115.324 E0.86982
G1 X133.364 Y115.809 E0.87619
G1 X133.036 Y116.292 E0.88313
G1 X128.149 Y122.361 E0.97572
G1 X125.191 Y126.298 E1.03424
G1 X124.703 Y126.827 E1.0428
G1 X122.968 Y128.367 E1.07036
G1 X122.541 Y128.693 E1.07675
G1 X122.071 Y128.951 E1.08312
G1 X121.513 Y129.152 E1.09017
G1 X114.262 Y131.101 E1.17939
G1 X109.301 Y132.627 E1.24107
G1 X108.593 Y132.769 E1.24966
G1 X106.412 Y132.982 E1.2757
G1 X105.876 Y132.994 E1.28207
G1 X105.344 Y132.927 E1.28844
G1 X105.045 Y132.852 E1.2921
G1 X104.05 Y132.559 E1.30443
G1 X103.773 Y132.465 E1.30791
G1 X97.424 Y130.02 E1.38876
G1 X92.734 Y128.415 E1.44766
G1 X92.073 Y128.111 E1.45631
G1 X90.055 Y126.923 E1.48414
G1 X89.614 Y126.618 E1.49051
G1 X89.224 Y126.25 E1.49688
G1 X88.855 Y125.771 E1.50407
G1 X85.974 Y121.3 E1.56727
G1 X81.772 Y115.235 E1.65496
G1 X81.43 Y114.622 E1.6633
G1 X80.498 Y112.481 E1.69105
G1 X80.321 Y111.975 E1.69742
G1 X80.222 Y111.448 E1.70379
G1 X80.205 Y110.838 E1.71104
G1 X80.489 Y105.878 E1.77008
G1 X80.668 Y98.158 E1.86185
G1 X80.753 Y97.46 E1.8702
G1 X81.261 Y95.173 E1.89804
G1 X81.416 Y94.66 E1.90441
G1 X81.645 Y94.175 E1.91078
G1 X81.988 Y93.675 E1.91799
G1 X85.133 Y89.831 E1.97701
G1 X89.816 Y83.692 E2.06877
G0 F2025 X90.134 Y83.935
G1 F1800 X90.552 Y83.484 E2.07607
G1 X92.278 Y81.95 E2.10351
G1 X92.681 Y81.645 E2.10952
G1 X93.128 Y81.408 E2.11553
G1 X93.586 Y81.248 E2.1213
G1 X98.341 Y79.99 E2.17975
G1 X105.832 Y77.749 E2.27267
G1 X106.442 Y77.63 E2.28005
G1 X108.774 Y77.405 E2.30789
G1 X109.279 Y77.396 E2.3139
G1 X109.78 Y77.467 E2.31991
G1 X110.218 Y77.599 E2.32535
G1 X117.622 Y80.414 E2.41948
G1 X122.15 Y81.965 E2.47635
G1 X122.737 Y82.235 E2.48403
G1 X124.734 Y83.411 E2.51157
G1 X125.148 Y83.701 E2.51758
G1 X125.511 Y84.052 E2.52358
G1 X125.801 Y84.436 E2.5293
G1 X128.473 Y88.587 E2.58796
G1 X132.902 Y94.989 E2.68047
G1 X133.201 Y95.525 E2.68777
G1 X133.977 Y97.295 E2.71073
G1 X134.125 Y97.707 E2.71594
G1 X134.281 Y98.257 E2.72273
G1 X134.38 Y98.753 E2.72874
G1 X134.398 Y99.294 E2.73517
G1 X134.01 Y106.87 E2.82532
G1 X133.934 Y111.809 E2.88402
G1 X133.859 Y112.45 E2.89169
G1 X133.357 Y114.724 E2.91936
G1 X133.209 Y115.207 E2.92537
G1 X132.987 Y115.662 E2.93138
G1 X132.724 Y116.041 E2.93687
G1 X127.83 Y122.119 E3.0296
G1 X124.871 Y126.057 E3.08813
G1 X124.437 Y126.528 E3.09574
G1 X122.702 Y128.068 E3.12331
G1 X122.299 Y128.373 E3.12932
G1 X121.852 Y128.61 E3.13533
G1 X121.409 Y128.765 E3.14091
G1 X114.184 Y130.707 E3.22982
G1 X109.184 Y132.245 E3.29198
G1 X108.554 Y132.371 E3.29962
G1 X106.373 Y132.584 E3.32566
G1 X105.868 Y132.593 E3.33166
G1 X105.158 Y132.469 E3.34022
G1 X104.163 Y132.176 E3.35255
G1 X103.917 Y132.092 E3.35564
G1 X97.571 Y129.648 E3.43645
G1 X92.863 Y128.037 E3.49558
G1 X92.276 Y127.767 E3.50326
G1 X90.258 Y126.579 E3.53109
G1 X89.844 Y126.289 E3.5371
G1 X89.48 Y125.937 E3.54311
G1 X89.191 Y125.554 E3.54882
G1 X86.302 Y121.07 E3.6122
G1 X82.101 Y115.007 E3.69986
G1 X81.797 Y114.462 E3.70728
G1 X80.865 Y112.321 E3.73503
G1 X80.7 Y111.843 E3.74103
G1 X80.613 Y111.345 E3.74704
G1 X80.604 Y110.861 E3.75279
G1 X80.89 Y105.881 E3.81207
G1 X81.068 Y98.167 E3.90377
G1 X81.143 Y97.547 E3.91119
G1 X81.651 Y95.26 E3.93903
G1 X81.799 Y94.777 E3.94503
G1 X82.022 Y94.323 E3.95104
G1 X82.298 Y93.928 E3.95677
G1 X85.448 Y90.077 E4.01589
G1 X90.134 Y83.935 E4.1077
G1 F2400 E3.1077
G0 F2025 X91.835 Y85.856
G0 X92.843 Y86.645
G0 X94.611 Y87.729
G0 X97.718 Y89.246
G0 X97.733 Y89.148
;TYPE:WALL-INNER
G1 F2400 E4.1077
G1 F1800 X97.772 Y89.119 E4.10828
G1 X97.982 Y89.335 E4.11186
G1 X98.254 Y89.576 E4.11617
G1 X98.489 Y89.761 E4.11973
G1 X98.722 Y89.917 E4.12306
G1 X99.179 Y90.185 E4.12936
G1 X99.54 Y90.349 E4.13407
G1 X99.904 Y90.487 E4.13869
G1 X100.148 Y90.556 E4.14171
G1 X100.352 Y90.818 E4.14565
G1 X100.683 Y91.289 E4.15249
G1 X100.705 Y91.277 E4.15279
G1 X100.877 Y91.499 E4.15613
G1 X101.372 Y92.097 E4.16535
G1 X101.796 Y91.851 E4.17118
G1 X104.656 Y91.032 E4.20653
G1 X104.886 Y89.512 E4.2248
G1 X104.928 Y89.377 E4.22648
G1 X105.068 Y89.247 E4.22875
G1 X105.329 Y88.964 E4.23333
G1 X105.583 Y88.645 E4.23817
G1 X105.826 Y88.27 E4.24348
G1 X106.004 Y87.956 E4.24777
G1 X106.173 Y87.58 E4.25267
G1 X106.306 Y87.222 E4.25721
G1 X106.415 Y86.823 E4.26212
G1 X106.485 Y86.468 E4.26642
G1 X106.533 Y86.041 E4.27153
G1 X106.547 Y85.691 E4.27569
G1 X106.528 Y85.25 E4.28094
G1 X106.5 Y85.044 E4.28341
G1 X106.557 Y85.01 E4.2842
G1 X106.351 Y84.082 E4.29549
G1 X106.13 Y83.449 E4.30346
G1 X105.818 Y82.847 E4.31152
G1 X105.514 Y82.44 E4.31756
G1 X105.709 Y81.725 E4.32636
G1 X106.44 Y81.517 E4.3354
G1 X106.937 Y82.495 E4.34843
G1 X107.388 Y83.783 E4.36465
G1 X108.482 Y83.465 E4.37819
G1 X108.393 Y83.09 E4.38277
G1 X108.486 Y82.899 E4.38529
G1 X108.766 Y82.254 E4.39365
G1 X109.335 Y81.313 E4.40672
G1 X110.046 Y81.572 E4.41571
G1 X110.184 Y82.296 E4.42447
G1 X109.921 Y82.6 E4.42924
G1 X109.809 Y82.757 E4.43154
G1 X109.501 Y83.262 E4.43857
G1 X109.257 Y83.813 E4.44573
G1 X108.963 Y84.778 E4.45771
G1 X109.028 Y84.826 E4.45868
G1 X108.982 Y85.06 E4.46151
G1 X108.873 Y86.081 E4.47371
G1 X108.935 Y86.086 E4.47445
G1 X108.937 Y86.187 E4.47565
G1 X108.987 Y86.626 E4.4809
G1 X109.086 Y87.084 E4.48647
G1 X109.167 Y87.374 E4.49005
G1 X109.301 Y87.739 E4.49467
G1 X109.479 Y88.13 E4.49977
G1 X109.691 Y88.504 E4.50488
G1 X109.931 Y88.851 E4.5099
G1 X110.044 Y88.995 E4.51207
G1 X110.098 Y91.002 E4.53593
G1 X112.773 Y91.669 E4.56869
G1 X113.409 Y92.029 E4.57738
G1 X114.484 Y90.937 E4.59559
G1 X114.6 Y90.849 E4.59732
G1 X114.768 Y90.83 E4.59933
G1 X115.213 Y90.739 E4.60472
G1 X115.613 Y90.621 E4.60968
G1 X115.945 Y90.499 E4.61388
G1 X116.33 Y90.316 E4.61895
G1 X116.659 Y90.131 E4.62343
G1 X116.991 Y89.907 E4.62819
G1 X117.284 Y89.674 E4.63264
G1 X117.596 Y89.384 E4.6377
G1 X117.834 Y89.122 E4.64191
G1 X118.099 Y88.787 E4.64699
G1 X118.307 Y88.487 E4.65132
G1 X118.404 Y88.303 E4.6538
G1 X118.467 Y88.314 E4.65456
G1 X118.866 Y87.401 E4.6664
G1 X119.059 Y86.758 E4.67437
G1 X119.16 Y86.091 E4.68239
G1 X119.154 Y85.583 E4.68843
G1 X119.732 Y85.116 E4.69726
G1 X120.447 Y85.377 E4.7063
G1 X120.273 Y86.461 E4.71935
G1 X119.927 Y87.617 E4.73369
G1 X120.571 Y88.123 E4.74342
G1 X121.898 Y87.341 E4.76173
G1 X122.907 Y86.914 E4.77475
G1 X123.33 Y87.544 E4.78377
G1 X123.018 Y88.208 E4.79248
G1 X122.523 Y88.331 E4.79854
G1 X121.897 Y88.589 E4.80659
G1 X121.39 Y88.884 E4.81356
G1 X121.252 Y88.978 E4.81555
G1 X121.067 Y89.12 E4.81832
G1 X120.621 Y89.503 E4.8253
G1 X120.597 Y89.485 E4.82566
G1 X120.178 Y89.985 E4.83341
G1 X119.989 Y90.234 E4.83713
G1 X119.696 Y90.664 E4.84331
G1 X119.522 Y90.972 E4.84751
G1 X119.355 Y91.329 E4.8522
G1 X119.21 Y91.714 E4.85709
G1 X119.1 Y92.093 E4.86178
G1 X119.018 Y92.515 E4.86689
G1 X118.974 Y92.893 E4.87141
G1 X118.956 Y93.308 E4.87634
G1 X118.968 Y93.542 E4.87913
G1 X118.289 Y94.532 E4.89339
G1 X118.1 Y94.808 E4.89737
G1 X118.1 Y94.402 E4.8992
G1 X97.082 Y94.399 E5.14896
G1 X96.328 Y92.748 E5.17053
G1 X96.315 Y92.447 E5.17411
G1 X96.267 Y92.066 E5.17868
G1 X96.19 Y91.689 E5.18325
G1 X96.062 Y91.262 E5.18855
G1 X95.938 Y90.933 E5.19273
G1 X95.77 Y90.575 E5.19742
G1 X95.573 Y90.226 E5.20219
G1 X95.331 Y89.876 E5.20724
G1 X95.139 Y89.627 E5.21098
G1 X94.981 Y89.461 E5.2137
G1 X95.011 Y89.402 E5.21449
G1 X94.276 Y88.75 E5.22617
G1 X93.724 Y88.372 E5.23412
G1 X93.12 Y88.066 E5.24216
G1 X92.635 Y87.916 E5.2482
G1 X92.37 Y87.222 E5.25702
G1 X92.839 Y86.626 E5.26604
G1 X93.823 Y87.128 E5.27916
G1 X94.808 Y87.81 E5.2934
G1 X95.489 Y87.354 E5.30314
G1 X95.156 Y85.849 E5.32146
G1 X95.061 Y84.757 E5.33448
G1 X95.788 Y84.55 E5.34347
G1 X96.328 Y85.055 E5.35225
G1 X96.296 Y85.453 E5.357
G1 X96.294 Y85.642 E5.35924
G1 X96.344 Y86.237 E5.36634
G1 X96.467 Y86.807 E5.37327
G1 X96.511 Y86.968 E5.37525
G1 X96.787 Y87.737 E5.38496
G1 X96.847 Y87.743 E5.38568
G1 X96.86 Y87.745 E5.38583
G1 X96.895 Y87.821 E5.38683
G1 X96.864 Y87.843 E5.38688
G1 X96.833 Y87.865 E5.38713
G1 X97.733 Y89.148 E5.40575
G0 F2025 X97.718 Y89.246
G0 X96.803 Y94.915
G0 X96.903 Y94.915
G1 F1800 X96.903 Y95.216 E5.40933
G1 X96.749 Y94.915 E5.41037
G1 X96.762 Y94.909
G1 X96.903 Y94.845 E5.41106
G1 X96.903 Y94.915
G0 F2025 X96.803 Y94.915
G0 X92.946 Y106.619
G0 X89.42 Y109.455
G0 X89.33 Y109.413
G1 F1800 X89.317 Y109.38 E5.41148
G1 X89.532 Y109.282 E5.41429
G1 X89.882 Y109.088 E5.41905
G1 X90.258 Y108.832 E5.42445
G1 X90.529 Y108.625 E5.4285
G1 X90.831 Y108.347 E5.43338
G1 X91.102 Y108.048 E5.43818
G1 X91.36 Y107.727 E5.44307
G1 X91.489 Y107.529 E5.44588
G1 X93.319 Y106.878 E5.46896
G1 X93.262 Y103.353 E5.51086
G1 X91.966 Y102.702 E5.52809
G1 X91.852 Y102.621 E5.52975
G1 X91.769 Y102.444 E5.53208
G1 X91.581 Y102.107 E5.53666
G1 X91.35 Y101.764 E5.54158
G1 X91.072 Y101.42 E5.54683
G1 X90.826 Y101.156 E5.55112
G1 X90.525 Y100.879 E5.55598
G1 X90.213 Y100.639 E5.56066
G1 X89.906 Y100.432 E5.56506
G1 X89.533 Y100.223 E5.57014
G1 X89.209 Y100.076 E5.57437
G1 X88.801 Y99.927 E5.57953
G1 X88.46 Y99.83 E5.58374
G1 X88.222 Y99.783 E5.58663
G1 X88.21 Y99.722 E5.58736
G1 X87.251 Y99.627 E5.59882
G1 X86.581 Y99.646 E5.60678
G1 X85.911 Y99.752 E5.61484
G1 X85.434 Y99.916 E5.62084
G1 X84.812 Y99.511 E5.62966
G1 X84.839 Y98.752 E5.63868
G1 X85.928 Y98.58 E5.65178
G1 X87.13 Y98.554 E5.66607
G1 X87.413 Y97.785 E5.67581
G1 X86.259 Y96.765 E5.69411
G1 X85.539 Y95.934 E5.70718
G1 X86.005 Y95.338 E5.71617
G1 X86.742 Y95.432 E5.725
G1 X87.007 Y95.867 E5.73105
G1 X87.446 Y96.377 E5.73905
G1 X87.894 Y96.781 E5.74622
G1 X88.682 Y97.335 E5.75766
G1 X88.754 Y97.294 E5.75865
G1 X88.894 Y97.372 E5.76055
G1 X88.888 Y97.395
G1 X88.875 Y97.437 E5.76108
G1 X90.2 Y97.887 E5.7777
G1 X90.22 Y97.854 E5.77816
G1 X90.446 Y97.9 E5.7809
G1 X90.87 Y97.95 E5.78598
G1 X91.299 Y97.967 E5.79108
G1 X91.641 Y97.955 E5.79515
G1 X92.045 Y97.909 E5.79998
G1 X92.448 Y97.829 E5.80486
G1 X92.898 Y97.699 E5.81043
G1 X93.063 Y97.634 E5.81253
G1 X95.018 Y98.203 E5.83673
G1 X95.991 Y96.459 E5.86046
G1 X96.56 Y95.87 E5.87019
G1 X96.903 Y95.515 E5.87606
G1 X96.903 Y96.008 E5.8792
G1 X96.903 Y96.009 E5.87922
G1 X96.901 Y114.045 E6.09355
G1 X96.901 Y114.518 E6.09917
G1 X96.562 Y114.188 E6.1022
G1 X96.274 Y113.908 E6.10698
G1 X95.139 Y112.02 E6.13315
G1 X93.588 Y112.271 E6.15183
G1 X93.442 Y112.273 E6.15356
G1 X93.29 Y112.189 E6.15562
G1 X92.879 Y112.001 E6.161
G1 X92.48 Y111.86 E6.16602
G1 X92.145 Y111.767 E6.17016
G1 X91.727 Y111.687 E6.17521
G1 X91.35 Y111.645 E6.17972
G1 X90.947 Y111.631 E6.18451
G1 X90.469 Y111.657 E6.1902
G1 X90.148 Y111.7 E6.19405
G1 X89.665 Y111.806 E6.19993
G1 X89.387 Y111.887 E6.20337
G1 X89.057 Y112.01 E6.20755
G1 X88.865 Y112.1 E6.21007
G1 X88.82 Y112.053 E6.21085
G1 X87.961 Y112.554 E6.22266
G1 X87.429 Y112.964 E6.23065
G1 X86.952 Y113.447 E6.23871
G1 X86.664 Y113.856 E6.24466
G1 X85.918 Y113.892 E6.25353
G1 X85.495 Y113.265 E6.26252
G1 X86.291 Y112.473 E6.27586
G1 X86.631 Y112.197 E6.28107
G1 X86.65 Y112.199 E6.2813
G1 X87.233 Y111.759 E6.28998
G1 X87.008 Y110.97 E6.29973
G1 X85.483 Y110.823 E6.31793
G1 X84.407 Y110.573 E6.33106
G1 X84.434 Y109.817 E6.34005
G1 X85.078 Y109.462 E6.34879
G1 X85.551 Y109.655 E6.35486
G1 X86.208 Y109.813 E6.36289
G1 X86.804 Y109.874 E6.37001
G1 X87.185 Y109.873 E6.37454
G1 X87.75 Y109.823 E6.38128
G1 X87.771 Y109.792 E6.38172
G1 X87.78 Y109.791 E6.38183
G1 X87.786 Y109.811
G1 X87.804 Y109.868 E6.38238
G1 X87.97 Y109.821 E6.38443
G1 X87.975 Y109.834 E6.3846
G1 X89.33 Y109.413 E6.40146
G0 F2025 X89.42 Y109.455
G0 X94.952 Y112.422
G0 X96.697 Y114.836
G0 X95.544 Y119.196
G0 X95.445 Y119.209
G1 F1800 X95.397 Y119.173 E6.40217
G1 X95.48 Y119.026 E6.40418
G1 X95.648 Y118.666 E6.4089
G1 X95.792 Y118.281 E6.41378
G1 X95.9 Y117.911 E6.41836
G1 X95.981 Y117.507 E6.42326
G1 X96.027 Y117.112 E6.42798
G1 X96.045 Y116.707 E6.4328
G1 X96.034 Y116.458 E6.43576
G1 X96.711 Y115.47 E6.45
G1 X96.901 Y115.192 E6.454
G1 X96.901 Y115.599 E6.45582
G1 X118.1 Y115.598 E6.70774
G1 X118.1 Y114.8 E6.71723
G1 X118.426 Y115.428 E6.72093
G1 X118.718 Y115.988 E6.72843
G1 X118.765 Y116.125 E6.73016
G1 X118.729 Y116.313 E6.73243
G1 X118.683 Y116.699 E6.73705
G1 X118.668 Y117.1 E6.74182
G1 X118.687 Y117.546 E6.74712
G1 X118.731 Y117.913 E6.75152
G1 X118.813 Y118.313 E6.75637
G1 X118.938 Y118.732 E6.76156
G1 X119.062 Y119.066 E6.7658
G1 X119.215 Y119.392 E6.77008
G1 X119.428 Y119.771 E6.77524
G1 X119.672 Y120.127 E6.78037
G1 X119.867 Y120.372 E6.78409
G1 X120.018 Y120.536 E6.78674
G1 X119.99 Y120.592 E6.78749
G1 X120.725 Y121.247 E6.79919
G1 X121.278 Y121.627 E6.80716
G1 X121.886 Y121.934 E6.81525
G1 X122.365 Y122.082 E6.82121
G1 X122.631 Y122.776 E6.83004
G1 X122.163 Y123.374 E6.83907
G1 X121.183 Y122.874 E6.85214
G1 X120.194 Y122.188 E6.86645
G1 X119.513 Y122.644 E6.87619
G1 X119.846 Y124.149 E6.8945
G1 X119.941 Y125.243 E6.90755
G1 X119.211 Y125.449 E6.91657
G1 X118.674 Y124.943 E6.92533
G1 X118.712 Y124.437 E6.93136
G1 X118.659 Y123.761 E6.93942
G1 X118.532 Y123.178 E6.94651
G1 X118.419 Y122.825 E6.95092
G1 X118.209 Y122.277 E6.95789
G1 X118.149 Y122.268 E6.95861
G1 X118.024 Y122.001 E6.96212
G1 X117.828 Y121.655 E6.96684
G1 X117.599 Y121.318 E6.97168
G1 X117.364 Y121.027 E6.97613
G1 X117.128 Y120.767 E6.9803
G1 X116.815 Y120.475 E6.98539
G1 X116.474 Y120.21 E6.99052
G1 X116.196 Y120.023 E6.9945
G1 X115.839 Y119.82 E6.99938
G1 X115.467 Y119.649 E7.00425
G1 X115.092 Y119.508 E7.00901
G1 X114.855 Y119.446 E7.01192
G1 X113.649 Y117.877 E7.03544
G1 X113.202 Y118.148 E7.04165
G1 X110.347 Y118.966 E7.07694
G1 X110.34 Y119.012 E7.07749
G1 X109.858 Y118.914 E7.08334
G1 X109.393 Y121.192 E7.11097
G1 X109.348 Y121.47 E7.11431
G1 X109.177 Y121.725 E7.11796
G1 X108.998 Y122.047 E7.12234
G1 X108.827 Y122.419 E7.12721
G1 X108.681 Y122.833 E7.13242
G1 X108.587 Y123.177 E7.13666
G1 X108.519 Y123.528 E7.14091
G1 X108.47 Y123.956 E7.14603
G1 X108.455 Y124.306 E7.15019
G1 X108.47 Y124.703 E7.15491
G1 X108.502 Y124.981 E7.15824
G1 X108.454 Y125.014 E7.15893
G1 X108.63 Y125.834 E7.1689
G1 X108.674 Y125.994 E7.17087
G1 X108.872 Y126.552 E7.17791
G1 X109.185 Y127.156 E7.18599
G1 X109.485 Y127.555 E7.19192
G1 X109.29 Y128.274 E7.20077
G1 X108.562 Y128.482 E7.20977
G1 X108.063 Y127.504 E7.22282
G1 X107.904 Y127.049 E7.22855
G1 X107.907 Y127.043 E7.22863
G1 X107.657 Y126.362 E7.23725
G1 X106.845 Y126.338 E7.2469
G1 X106.235 Y127.745 E7.26513
G1 X105.667 Y128.686 E7.27819
G1 X104.955 Y128.425 E7.2872
