;FLAVOR:Marlin
;TIME:1560
;Filament used: 0.567388m
;Layer height: 0.3
;Generated with Cura_SteamEngine master
M104 S185
M109 S185
M82 ;absolute extrusion mode
; -- START GCODE --
G21                     ;set units to millimetres
G90                     ;set to absolute positioning
M106 S0                 ;set fan speed to zero (turned off)
G28 X0 Y0               ;move to the X/Y origin (Home)
G28 Z0                  ;move to the Z origin (Home)
G1 Z15.0 F1200          ;move Z to position 15.0 mm
G92 E0                  ;zero the extruded length
G1 E20 F200             ;extrude 20mm of feed stock
G92 E0                  ;zero the extruded length again
G1 F7200                ;set feedrate to 120 mm/s
; -- end of START GCODE --
G92 E0
G1 F2400 E-1
;LAYER_COUNT:208
;LAYER:0
M107
G0 F2025 X111.945 Y99.887 Z0.2
;TYPE:SKIRT
G1 F2400 E0
G1 F1800 X112.418 Y99.413 E0.01194
G1 X112.761 Y99.132 E0.01984
G1 X113.192 Y98.806 E0.02947
G1 X113.749 Y98.435 E0.0414
G1 X114.078 Y98.257 E0.04807
G1 X114.921 Y97.838 E0.06485
G1 X115.536 Y97.577 E0.07676
G1 X116.179 Y97.391 E0.08869
G1 X116.839 Y97.282 E0.10062
G1 X117.508 Y97.254 E0.11255
G1 X118.175 Y97.305 E0.12448
G1 X118.831 Y97.435 E0.1364
G1 X119.467 Y97.643 E0.14832
G1 X120.073 Y97.925 E0.16024
G1 X120.642 Y98.278 E0.17217
G1 X121.165 Y98.695 E0.1841
G1 X121.634 Y99.173 E0.19603
G1 X122.043 Y99.702 E0.20795
G1 X122.385 Y100.277 E0.21988
G1 X122.657 Y100.888 E0.2318
G1 X122.854 Y101.528 E0.24374
G1 X122.973 Y102.186 E0.25566
G1 X123.013 Y102.806 E0.26673
G1 X123.053 Y107.579 E0.35182
G1 X123.018 Y108.247 E0.36374
G1 X122.905 Y108.906 E0.37566
G1 X122.713 Y109.547 E0.38759
G1 X122.446 Y110.161 E0.39952
G1 X122.108 Y110.738 E0.41144
G1 X121.704 Y111.271 E0.42336
G1 X121.239 Y111.752 E0.43529
G1 X120.72 Y112.174 E0.44721
G1 X120.154 Y112.532 E0.45915
G1 X119.55 Y112.819 E0.47107
G1 X118.916 Y113.032 E0.48299
G1 X118.26 Y113.167 E0.49493
G1 X117.594 Y113.224 E0.50684
G1 X116.925 Y113.201 E0.51878
G1 X116.264 Y113.098 E0.5307
G1 X115.62 Y112.918 E0.54262
G1 X115.181 Y112.744 E0.55104
G1 X114.467 Y112.427 E0.56496
G1 X113.872 Y112.12 E0.5769
G1 X113.319 Y111.744 E0.58882
G1 X112.815 Y111.304 E0.60074
G1 X112.531 Y111.004 E0.60811
G1 X111.666 Y110.019 E0.63148
G1 X111.256 Y109.491 E0.64339
G1 X110.911 Y108.918 E0.65531
G1 X110.657 Y108.36 E0.66624
G1 X110.287 Y107.412 E0.68438
G1 X110.082 Y106.775 E0.69631
G1 X109.953 Y106.119 E0.70823
G1 X109.905 Y105.452 E0.72015
G1 X109.942 Y104.721 E0.7332
G1 X110.064 Y103.685 E0.75179
G1 X110.182 Y103.026 E0.76372
G1 X110.378 Y102.387 E0.77564
G1 X110.648 Y101.775 E0.78756
G1 X111.02 Y101.155 E0.80045
G1 X111.533 Y100.413 E0.81653
G1 X111.945 Y99.887 E0.82844
G0 F2025 X112.261 Y100.134
G1 F1800 X112.719 Y99.681 E0.83992
G1 X113.002 Y99.451 E0.84642
G1 X113.433 Y99.125 E0.85606
G1 X113.97 Y98.768 E0.86755
G1 X114.256 Y98.615 E0.87333
G1 X115.099 Y98.196 E0.89011
G1 X115.693 Y97.946 E0.9016
G1 X116.313 Y97.771 E0.91308
G1 X116.95 Y97.674 E0.92457
G1 X117.595 Y97.656 E0.93607
G1 X118.236 Y97.719 E0.94755
G1 X118.865 Y97.86 E0.95904
G1 X119.472 Y98.078 E0.97054
G1 X120.047 Y98.369 E0.98203
G1 X120.582 Y98.73 E0.99353
G1 X121.067 Y99.154 E1.00501
G1 X121.497 Y99.634 E1.0165
G1 X121.864 Y100.164 E1.02799
G1 X122.162 Y100.736 E1.03949
G1 X122.388 Y101.34 E1.05099
G1 X122.537 Y101.967 E1.06247
G1 X122.613 Y102.809 E1.07754
G1 X122.653 Y107.582 E1.16263
G1 X122.618 Y108.226 E1.17412
G1 X122.504 Y108.861 E1.18562
G1 X122.313 Y109.476 E1.1971
G1 X122.046 Y110.063 E1.2086
G1 X121.71 Y110.613 E1.22009
G1 X121.307 Y111.117 E1.23159
G1 X120.846 Y111.567 E1.24307
G1 X120.332 Y111.956 E1.25456
G1 X119.774 Y112.279 E1.26606
G1 X119.18 Y112.531 E1.27756
G1 X118.56 Y112.707 E1.28905
G1 X117.923 Y112.805 E1.30053
G1 X117.279 Y112.823 E1.31202
G1 X116.637 Y112.762 E1.32351
G1 X116.008 Y112.621 E1.335
G1 X115.343 Y112.379 E1.34762
G1 X114.629 Y112.062 E1.36154
G1 X114.057 Y111.764 E1.37304
G1 X113.526 Y111.398 E1.38454
G1 X112.832 Y110.74 E1.40158
G1 X111.967 Y109.755 E1.42495
G1 X111.572 Y109.245 E1.43645
G1 X111.244 Y108.691 E1.44793
G1 X111.03 Y108.215 E1.45723
G1 X110.66 Y107.267 E1.47537
G1 X110.463 Y106.653 E1.48686
G1 X110.344 Y106.019 E1.49836
G1 X110.304 Y105.376 E1.50985
G1 X110.34 Y104.768 E1.5207
G1 X110.462 Y103.732 E1.5393
G1 X110.577 Y103.098 E1.55078
G1 X110.769 Y102.482 E1.56228
G1 X111.036 Y101.896 E1.57376
G1 X111.349 Y101.383 E1.58447
G1 X111.862 Y100.641 E1.60055
G1 X112.261 Y100.134 E1.61205
G0 F2025 X112.575 Y100.383
G1 F1800 X113.243 Y99.77 E1.62822
G1 X113.674 Y99.444 E1.63785
G1 X114.434 Y98.974 E1.65378
G1 X115.277 Y98.555 E1.67056
G1 X115.848 Y98.315 E1.6816
G1 X116.445 Y98.152 E1.69263
G1 X117.059 Y98.066 E1.70368
G1 X117.678 Y98.06 E1.71472
G1 X118.293 Y98.134 E1.72576
G1 X118.893 Y98.287 E1.7368
G1 X119.469 Y98.515 E1.74784
G1 X120.01 Y98.816 E1.75887
G1 X120.508 Y99.184 E1.76991
G1 X120.955 Y99.613 E1.78095
G1 X121.343 Y100.096 E1.792
G1 X121.665 Y100.625 E1.80304
G1 X121.916 Y101.191 E1.81407
G1 X122.093 Y101.785 E1.82512
G1 X122.191 Y102.397 E1.83617
G1 X122.213 Y102.813 E1.8436
G1 X122.253 Y107.586 E1.92868
G1 X122.218 Y108.204 E1.93971
G1 X122.104 Y108.813 E1.95076
G1 X121.912 Y109.402 E1.9618
G1 X121.647 Y109.961 E1.97283
G1 X121.311 Y110.482 E1.98388
G1 X120.911 Y110.955 E1.99492
G1 X120.454 Y111.372 E2.00595
G1 X119.946 Y111.728 E2.01701
G1 X119.397 Y112.015 E2.02805
G1 X118.816 Y112.228 E2.03908
G1 X118.212 Y112.366 E2.05012
G1 X117.596 Y112.424 E2.06115
G1 X116.977 Y112.402 E2.07219
G1 X116.366 Y112.301 E2.08323
G1 X115.505 Y112.013 E2.09942
G1 X114.791 Y111.696 E2.11334
G1 X114.243 Y111.409 E2.12437
G1 X113.735 Y111.053 E2.13543
G1 X113.132 Y110.476 E2.1503
G1 X112.267 Y109.491 E2.17367
G1 X111.89 Y109.001 E2.18469
G1 X111.578 Y108.465 E2.19575
G1 X111.403 Y108.069 E2.20346
G1 X111.033 Y107.121 E2.2216
G1 X110.845 Y106.531 E2.23264
G1 X110.735 Y105.921 E2.24369
G1 X110.705 Y105.303 E2.25472
G1 X110.737 Y104.815 E2.26344
G1 X110.859 Y103.779 E2.28203
G1 X110.971 Y103.169 E2.29309
G1 X111.16 Y102.58 E2.30411
G1 X111.424 Y102.019 E2.31516
G1 X111.678 Y101.61 E2.32375
G1 X112.191 Y100.868 E2.33983
G1 X112.575 Y100.383 E2.35085
G0 F2025 X112.889 Y100.632
G1 F1800 X113.485 Y100.089 E2.36522
G1 X113.916 Y99.763 E2.37486
G1 X114.612 Y99.332 E2.38945
G1 X115.455 Y98.913 E2.40623
G1 X116.002 Y98.685 E2.41679
G1 X116.575 Y98.533 E2.42736
G1 X117.164 Y98.46 E2.43794
G1 X117.757 Y98.466 E2.44851
G1 X118.343 Y98.552 E2.45907
G1 X118.913 Y98.717 E2.46965
G1 X119.456 Y98.956 E2.48022
G1 X119.961 Y99.266 E2.49078
G1 X120.42 Y99.641 E2.50135
G1 X120.825 Y100.075 E2.51193
G1 X121.167 Y100.559 E2.5225
G1 X121.442 Y101.084 E2.53306
G1 X121.643 Y101.642 E2.54363
G1 X121.767 Y102.222 E2.5542
G1 X121.813 Y102.816 E2.56482
G1 X121.853 Y107.589 E2.64991
G1 X121.818 Y108.181 E2.66048
G1 X121.704 Y108.763 E2.67105
G1 X121.512 Y109.324 E2.68162
G1 X121.247 Y109.854 E2.69218
G1 X120.913 Y110.344 E2.70275
G1 X120.516 Y110.785 E2.71333
G1 X120.063 Y111.168 E2.7239
G1 X119.563 Y111.487 E2.73448
G1 X119.025 Y111.736 E2.74504
G1 X118.458 Y111.91 E2.75562
G1 X117.873 Y112.006 E2.76618
G1 X117.281 Y112.023 E2.77674
G1 X116.691 Y111.96 E2.78732
G1 X116.115 Y111.818 E2.79789
G1 X115.668 Y111.647 E2.80642
G1 X114.954 Y111.33 E2.82035
G1 X114.429 Y111.054 E2.83092
G1 X113.947 Y110.709 E2.84149
G1 X113.433 Y110.212 E2.85423
G1 X112.568 Y109.227 E2.8776
G1 X112.208 Y108.756 E2.88817
G1 X111.914 Y108.241 E2.89874
G1 X111.775 Y107.924 E2.90491
G1 X111.405 Y106.976 E2.92305
G1 X111.227 Y106.41 E2.93362
G1 X111.127 Y105.826 E2.94418
G1 X111.106 Y105.233 E2.95476
G1 X111.134 Y104.861 E2.96141
G1 X111.256 Y103.825 E2.98001
G1 X111.365 Y103.243 E2.99056
G1 X111.551 Y102.68 E3.00113
G1 X111.812 Y102.147 E3.01171
G1 X112.007 Y101.838 E3.01822
G1 X112.52 Y101.096 E3.0343
G1 X112.889 Y100.632 E3.04487
G0 F2025 X113.202 Y100.882
G1 F1800 X113.726 Y100.408 E3.05746
G1 X114.157 Y100.082 E3.0671
G1 X114.79 Y99.69 E3.08037
G1 X115.633 Y99.271 E3.09715
G1 X116.155 Y99.056 E3.10721
G1 X116.703 Y98.916 E3.11729
G1 X117.265 Y98.856 E3.12737
G1 X117.83 Y98.875 E3.13745
G1 X118.387 Y98.973 E3.14753
G1 X118.924 Y99.149 E3.1576
G1 X119.431 Y99.4 E3.16769
G1 X119.898 Y99.719 E3.17777
G1 X120.315 Y100.1 E3.18784
G1 X120.674 Y100.537 E3.19792
G1 X120.968 Y101.02 E3.208
G1 X121.191 Y101.539 E3.21806
G1 X121.339 Y102.085 E3.22815
G1 X121.413 Y102.819 E3.2413
G1 X121.453 Y107.592 E3.32638
G1 X121.418 Y108.157 E3.33647
G1 X121.303 Y108.71 E3.34654
G1 X121.112 Y109.242 E3.35662
G1 X120.847 Y109.742 E3.3667
G1 X120.515 Y110.199 E3.37677
G1 X120.122 Y110.605 E3.38685
G1 X119.675 Y110.952 E3.39693
G1 X119.184 Y111.232 E3.40701
G1 X118.658 Y111.44 E3.41709
G1 X118.109 Y111.572 E3.42715
G1 X117.546 Y111.625 E3.43724
G1 X116.981 Y111.598 E3.44732
G1 X116.426 Y111.492 E3.45739
G1 X115.83 Y111.282 E3.46865
G1 X115.116 Y110.965 E3.48258
G1 X114.617 Y110.7 E3.49265
G1 X114.16 Y110.366 E3.50274
G1 X113.733 Y109.948 E3.51339
G1 X112.868 Y108.963 E3.53676
G1 X112.526 Y108.513 E3.54683
G1 X112.148 Y107.778 E3.56157
G1 X111.778 Y106.83 E3.57971
G1 X111.61 Y106.29 E3.58979
G1 X111.52 Y105.732 E3.59986
G1 X111.531 Y104.908 E3.61455
G1 X111.653 Y103.872 E3.63315
G1 X111.759 Y103.317 E3.64322
G1 X111.942 Y102.782 E3.6533
G1 X112.336 Y102.065 E3.66788
G1 X112.849 Y101.323 E3.68396
G1 X113.202 Y100.882 E3.69403
G0 F2025 X113.515 Y101.134
G1 F1800 X113.967 Y100.727 E3.70487
G1 X114.398 Y100.401 E3.7145
G1 X114.968 Y100.048 E3.72646
G1 X115.811 Y99.629 E3.74324
G1 X116.307 Y99.427 E3.75278
G1 X116.829 Y99.301 E3.76235
G1 X117.363 Y99.253 E3.77191
G1 X117.898 Y99.286 E3.78147
G1 X118.423 Y99.397 E3.79103
G1 X118.925 Y99.586 E3.80059
G1 X119.393 Y99.847 E3.81015
G1 X119.818 Y100.174 E3.8197
G1 X120.189 Y100.561 E3.82926
G1 X120.499 Y100.999 E3.83883
G1 X120.74 Y101.478 E3.84838
G1 X120.907 Y101.987 E3.85793
G1 X120.997 Y102.516 E3.8675
G1 X121.013 Y102.823 E3.87298
G1 X121.053 Y107.596 E3.95806
G1 X121.017 Y108.131 E3.96762
G1 X120.903 Y108.655 E3.97718
G1 X120.712 Y109.156 E3.98674
G1 X120.448 Y109.623 E3.9963
G1 X120.118 Y110.046 E4.00586
G1 X119.729 Y110.415 E4.01542
G1 X119.29 Y110.722 E4.02497
G1 X118.809 Y110.961 E4.03454
G1 X118.299 Y111.125 E4.04409
G1 X117.77 Y111.212 E4.05365
G1 X117.234 Y111.219 E4.0632
G1 X116.702 Y111.147 E4.07277
G1 X115.992 Y110.916 E4.08608
G1 X115.278 Y110.599 E4.10001
G1 X114.806 Y110.346 E4.10955
G1 X114.376 Y110.025 E4.11912
G1 X114.034 Y109.684 E4.12773
G1 X113.169 Y108.699 E4.15109
G1 X112.846 Y108.271 E4.16065
G1 X112.52 Y107.633 E4.17342
G1 X112.15 Y106.685 E4.19156
G1 X111.993 Y106.172 E4.20113
G1 X111.914 Y105.642 E4.21068
G1 X111.929 Y104.955 E4.22293
G1 X112.051 Y103.919 E4.24152
G1 X112.153 Y103.393 E4.25107
G1 X112.332 Y102.887 E4.26064
G1 X112.665 Y102.293 E4.27278
G1 X113.178 Y101.551 E4.28886
G1 X113.515 Y101.134 E4.29841
G0 F2025 X113.826 Y101.386
G1 F1800 X114.209 Y101.046 E4.30754
G1 X114.64 Y100.72 E4.31718
G1 X115.146 Y100.406 E4.32779
G1 X115.989 Y99.987 E4.34457
G1 X116.458 Y99.799 E4.35358
G1 X116.951 Y99.687 E4.36259
G1 X117.455 Y99.653 E4.3716
G1 X117.959 Y99.7 E4.38062
G1 X118.448 Y99.825 E4.38962
G1 X118.912 Y100.026 E4.39863
G1 X119.339 Y100.297 E4.40764
G1 X119.717 Y100.633 E4.41666
G1 X120.038 Y101.023 E4.42566
G1 X120.294 Y101.46 E4.43469
G1 X120.477 Y101.931 E4.4437
G1 X120.584 Y102.425 E4.45271
G1 X120.613 Y102.826 E4.45987
G1 X120.653 Y107.599 E4.54496
G1 X120.617 Y108.103 E4.55396
G1 X120.502 Y108.596 E4.56299
G1 X120.312 Y109.064 E4.57199
G1 X120.05 Y109.496 E4.581
G1 X119.723 Y109.882 E4.59002
G1 X119.339 Y110.211 E4.59903
G1 X118.908 Y110.476 E4.60805
G1 X118.441 Y110.67 E4.61706
G1 X117.949 Y110.787 E4.62608
G1 X117.445 Y110.826 E4.63509
G1 X116.942 Y110.785 E4.64408
G1 X116.45 Y110.665 E4.65311
G1 X116.154 Y110.551 E4.65877
G1 X115.44 Y110.234 E4.67269
G1 X114.996 Y109.993 E4.6817
G1 X114.595 Y109.685 E4.69071
G1 X114.335 Y109.421 E4.69731
G1 X113.47 Y108.436 E4.72068
G1 X113.167 Y108.03 E4.72971
G1 X112.893 Y107.487 E4.74055
G1 X112.523 Y106.539 E4.75869
G1 X112.377 Y106.055 E4.7677
G1 X112.309 Y105.554 E4.77672
G1 X112.326 Y105.002 E4.78656
G1 X112.448 Y103.966 E4.80516
G1 X112.547 Y103.47 E4.81417
G1 X112.722 Y102.996 E4.82318
G1 X112.994 Y102.52 E4.83295
G1 X113.507 Y101.778 E4.84903
G1 X113.826 Y101.386 E4.85804
G1 F2400 E3.85804
G0 F2025 X114.934 Y104.346
G0 X116.183 Y104.642
G0 X116.623 Y106.231
G0 X116.722 Y106.226
;TYPE:WALL-INNER
G1 F2400 E4.85804
G1 F1800 X116.737 Y106.401 E4.86117
G1 X116.643 Y106.298 E4.86134
G1 X116.377 Y106.003 E4.86842
G1 X116.316 Y105.871 E4.87102
G1 X116.161 Y105.539 E4.87755
G1 X116.08 Y105.255 E4.88281
G1 X116.076 Y105.223 E4.88339
G1 X116.164 Y104.639 E4.89391
G1 X116.214 Y104.445 E4.89749
G1 X116.38 Y104.24 E4.90219
G1 X116.493 Y104.099 E4.90541
G1 X116.569 Y104.005 E4.90756
G1 X116.699 Y103.889 E4.91067
G1 X116.735 Y103.868 E4.91141
G1 X116.734 Y103.891
G1 X116.726 Y104.016 E4.91176
G1 X116.708 Y104.272 E4.91485
G1 X116.706 Y104.453 E4.9176
G1 X116.694 Y105.143 E4.9299
G1 X116.713 Y105.848 E4.94248
G1 X116.716 Y105.994 E4.94442
G1 X116.722 Y106.226 E4.94621
G0 F2025 X117.122 Y106.204
;TYPE:WALL-OUTER
G1 F1800 X117.193 Y107.048 E4.96131
G1 X117.199 Y107.125 E4.96268
G1 X117.211 Y107.268 E4.96524
G1 X117.217 Y107.331 E4.96637
G1 X117.081 Y107.278 E4.96748
G1 X116.85 Y107.154 E4.97086
G1 X116.8 Y107.095 E4.97216
G1 X116.363 Y106.579 E4.98421
G1 X116.04 Y106.228 E4.99272
G1 X115.784 Y105.676 E5.00356
G1 X115.689 Y105.343 E5.00973
G1 X115.672 Y105.216 E5.01202
G1 X115.769 Y104.572 E5.02363
G1 X115.835 Y104.293 E5.02874
G1 X115.889 Y104.211 E5.03049
G1 X116.281 Y103.725 E5.04162
G1 X116.463 Y103.564 E5.04595
G1 X116.845 Y103.339 E5.05385
G1 X117.118 Y103.178 E5.0595
G1 X117.185 Y103.15 E5.0608
G1 X117.183 Y103.181
G1 X117.162 Y103.497 E5.06435
G1 X117.108 Y104.289 E5.0785
G1 X117.094 Y105.141 E5.09369
G1 X117.122 Y106.204 E5.11264
G0 F2025 X117.138 Y106.403
G0 X116.697 Y106.31
G0 X116.529 Y105.781
G0 X116.474 Y105.726
G1 F1800 X116.403 Y105.09 E5.11678
G1 X116.455 Y104.576 E5.12122
G0 F2025 X116.302 Y104.647
G0 X116.697 Y106.31
G0 X116.816 Y107.357
;TIME_ELAPSED:19.002824
;LAYER:1
M106 S255
G0 F2362.5 X116.816 Y107.357 Z0.5
;TYPE:WALL-INNER
G1 F840 X116.848 Y107.578 E5.1252
G1 X116.747 Y107.54
G1 X116.596 Y107.483 E5.12808
G1 X116.197 Y107.33 E5.1357
G1 X116.124 Y107.291 E5.13717
G1 X115.731 Y106.945 E5.1465
G1 X115.494 Y106.64 E5.15339
G1 X115.146 Y105.965 E5.16693
G1 X115.1 Y105.811 E5.16979
G1 X114.967 Y104.809 E5.18781
G1 X115.262 Y103.994 E5.20326
G1 X115.282 Y103.97 E5.20382
G1 X116.216 Y103.152 E5.22595
G1 X116.479 Y103.046 E5.231
G1 X116.6 Y102.998 E5.23332
G1 X116.719 Y102.956 E5.23557
G1 X116.811 Y102.923 E5.23731
G1 X116.8 Y103.021 E5.23777
G1 X116.785 Y103.143 E5.23887
G1 X116.776 Y103.273 E5.24119
G1 X116.714 Y104.148 E5.25683
G1 X116.694 Y105.124 E5.27423
G1 X116.722 Y106.223 E5.29383
G1 X116.803 Y107.196 E5.31123
G1 X116.816 Y107.357 E5.31349
G0 F2362.5 X117.214 Y107.312
;TYPE:WALL-OUTER
G1 F600 X117.293 Y107.859 E5.32334
G1 X117.341 Y108.194 E5.32937
G1 X117.024 Y108.074 E5.33281
G1 X116.028 Y107.694 E5.35181
G1 X115.897 Y107.624 E5.35446
G1 X115.437 Y107.219 E5.36538
G1 X115.156 Y106.856 E5.37357
G1 X114.772 Y106.113 E5.38847
G1 X114.709 Y105.899 E5.39245
G1 X114.561 Y104.79 E5.41239
G1 X114.569 Y104.733 E5.41342
G1 X114.91 Y103.793 E5.43125
G1 X114.992 Y103.692 E5.43356
G1 X115.956 Y102.842 E5.45647
G1 X116.037 Y102.793 E5.45816
G1 X116.466 Y102.621 E5.4664
G1 X116.982 Y102.437 E5.47617
G1 X117.285 Y102.329 E5.4819
G1 X117.247 Y102.648 E5.48519
G1 X117.183 Y103.181 E5.49476
G1 X117.114 Y104.166 E5.51236
G1 X117.094 Y105.123 E5.52942
G1 X117.122 Y106.201 E5.54865
G1 X117.214 Y107.312 E5.56852
G0 F2362.5 X117.242 Y107.51
G0 X116.786 Y107.5
G0 X116.394 Y106.988
;TYPE:SKIN
G1 F600 X116.351 Y106.97 E5.56935
G1 X116.015 Y106.674 E5.57733
G1 X115.826 Y106.431 E5.58282
G1 X115.508 Y105.816 E5.59516
G1 X115.481 Y105.724 E5.59687
G1 X115.365 Y104.855 E5.6125
G1 X115.599 Y104.211 E5.62471
G1 X116.366 Y103.539 E5.64289
G1 X116.324 Y104.13 E5.65345
G1 X116.304 Y105.124 E5.67117
