;FLAVOR:Marlin
;TIME:329
;Filament used: 0.1187m
;Layer height: 0.3
;Generated with Cura_SteamEngine master
M104 S185
M109 S185
M82 ;absolute extrusion mode
; -- START GCODE --
G21                     ;set units to millimetres
G90                     ;set to absolute positioning
M106 S0                 ;set fan speed to zero (turned off)
G28 X0 Y0               ;move to the X/Y origin (Home)
G28 Z0                  ;move to the Z origin (Home)
G1 Z15.0 F1200          ;move Z to position 15.0 mm
G92 E0                  ;zero the extruded length
G1 E20 F200             ;extrude 20mm of feed stock
G92 E0                  ;zero the extruded length again
G1 F7200                ;set feedrate to 120 mm/s
; -- end of START GCODE --
G92 E0
G1 F2400 E-1
;LAYER_COUNT:31
;LAYER:0
M107
G0 F2025 X102.166 Y80.002 Z0.2
;TYPE:SKIRT
G1 F2400 E0
G1 F1800 X102.657 Y79.447 E0.00881
G1 X103.145 Y78.956 E0.01703
G1 X103.687 Y78.524 E0.02527
G1 X104.274 Y78.158 E0.03349
G1 X104.9 Y77.861 E0.04172
G1 X105.478 Y77.661 E0.04899
G1 X105.633 Y77.616 E0.05091
G1 X106.308 Y77.462 E0.05914
G1 X106.997 Y77.386 E0.06737
G1 X107.689 Y77.39 E0.0756
G1 X108.377 Y77.474 E0.08383
G1 X109.05 Y77.637 E0.09206
G1 X109.451 Y77.774 E0.0971
G1 X109.613 Y77.836 E0.09916
G1 X110.244 Y78.121 E0.10739
G1 X110.838 Y78.476 E0.11561
G1 X111.606 Y79.095 E0.12733
G1 X112.027 Y79.496 E0.13424
G1 X112.5 Y80.002 E0.14247
G1 X112.912 Y80.559 E0.15071
G1 X113.257 Y81.16 E0.15894
G1 X113.581 Y81.944 E0.16902
G1 X113.647 Y82.142 E0.1715
G1 X113.828 Y82.81 E0.17973
G1 X113.93 Y83.495 E0.18796
G1 X113.953 Y84.187 E0.19619
G1 X113.896 Y84.877 E0.20441
G1 X113.76 Y85.556 E0.21264
G1 X113.651 Y85.925 E0.21722
G1 X113.603 Y86.07 E0.21903
G1 X113.348 Y86.713 E0.22725
G1 X113.02 Y87.323 E0.23548
G1 X112.624 Y87.892 E0.24372
G1 X112.112 Y88.464 E0.25284
G1 X111.657 Y88.911 E0.26042
G1 X111.136 Y89.367 E0.26865
G1 X110.565 Y89.76 E0.27689
G1 X109.954 Y90.085 E0.28511
G1 X109.189 Y90.374 E0.29483
G1 X109.027 Y90.423 E0.29684
G1 X108.354 Y90.585 E0.30507
G1 X107.666 Y90.668 E0.3133
G1 X106.974 Y90.672 E0.32153
G1 X106.285 Y90.595 E0.32976
G1 X105.61 Y90.44 E0.33799
G1 X104.958 Y90.208 E0.34622
G1 X104.336 Y89.903 E0.35445
G1 X103.992 Y89.692 E0.35925
G1 X103.682 Y89.488 E0.36366
G1 X103.126 Y89.075 E0.37189
G1 X102.683 Y88.663 E0.37908
G1 X102.417 Y88.39 E0.38361
G1 X101.963 Y87.867 E0.39184
G1 X101.572 Y87.295 E0.40007
G1 X101.25 Y86.682 E0.4083
G1 X101.001 Y86.036 E0.41653
G1 X100.88 Y85.603 E0.42187
G1 X100.826 Y85.378 E0.42462
G1 X100.703 Y84.697 E0.43284
G1 X100.66 Y84.005 E0.44108
G1 X100.697 Y83.314 E0.4493
G1 X100.813 Y82.631 E0.45754
G1 X101.007 Y81.966 E0.46577
G1 X101.277 Y81.328 E0.474
G1 X101.618 Y80.726 E0.48222
G1 X102.166 Y80.002 E0.49301
G0 F2025 X102.466 Y80.267
G1 F1800 X102.957 Y79.712 E0.50182
G1 X103.429 Y79.239 E0.50976
G1 X103.955 Y78.825 E0.51772
G1 X104.526 Y78.476 E0.52567
G1 X105.135 Y78.199 E0.53362
G1 X105.59 Y78.045 E0.53933
G1 X105.745 Y78 E0.54124
G1 X106.397 Y77.852 E0.54919
G1 X107.063 Y77.783 E0.55715
G1 X107.732 Y77.794 E0.5651
G1 X108.394 Y77.885 E0.57304
G1 X109.308 Y78.148 E0.58434
G1 X109.47 Y78.21 E0.5864
G1 X110.079 Y78.486 E0.59435
G1 X110.651 Y78.833 E0.6023
G1 X111.33 Y79.385 E0.6127
G1 X111.751 Y79.786 E0.61961
G1 X112.207 Y80.276 E0.62756
G1 X112.602 Y80.816 E0.63551
G1 X112.929 Y81.4 E0.64347
G1 X113.202 Y82.07 E0.65206
G1 X113.268 Y82.268 E0.65454
G1 X113.441 Y82.914 E0.66249
G1 X113.536 Y83.577 E0.67045
G1 X113.551 Y84.245 E0.67839
G1 X113.487 Y84.911 E0.68634
G1 X113.271 Y85.799 E0.6972
G1 X113.223 Y85.944 E0.69902
G1 X112.975 Y86.565 E0.70696
G1 X112.655 Y87.153 E0.71492
G1 X112.267 Y87.698 E0.72287
G1 X111.832 Y88.179 E0.73057
G1 X111.377 Y88.626 E0.73815
G1 X110.872 Y89.065 E0.74611
G1 X110.319 Y89.442 E0.75406
G1 X109.725 Y89.749 E0.76201
G1 X109.073 Y89.991 E0.77027
G1 X108.911 Y90.04 E0.77228
G1 X108.26 Y90.195 E0.78023
G1 X107.596 Y90.272 E0.78818
G1 X106.927 Y90.268 E0.79613
G1 X106.263 Y90.185 E0.80408
G1 X105.614 Y90.023 E0.81203
G1 X104.989 Y89.785 E0.81998
G1 X104.212 Y89.358 E0.83051
G1 X103.902 Y89.154 E0.83492
G1 X103.366 Y88.753 E0.84288
G1 X102.969 Y88.384 E0.84932
G1 X102.703 Y88.111 E0.85385
G1 X102.266 Y87.605 E0.86179
G1 X101.892 Y87.05 E0.86975
G1 X101.587 Y86.455 E0.87769
G1 X101.269 Y85.51 E0.88954
G1 X101.215 Y85.285 E0.89229
G1 X101.098 Y84.626 E0.90024
G1 X101.06 Y83.958 E0.9082
G1 X101.102 Y83.291 E0.91614
G1 X101.224 Y82.633 E0.92409
G1 X101.423 Y81.994 E0.93204
G1 X101.697 Y81.384 E0.93999
G1 X102.042 Y80.81 E0.94795
G1 X102.466 Y80.267 E0.95614
G0 F2025 X102.765 Y80.532
G1 F1800 X103.256 Y79.977 E0.96494
G1 X103.713 Y79.522 E0.9726
G1 X104.222 Y79.127 E0.98026
G1 X104.776 Y78.797 E0.98792
G1 X105.367 Y78.539 E0.99559
G1 X105.701 Y78.429 E0.99977
G1 X105.856 Y78.384 E1.00168
G1 X106.485 Y78.243 E1.00934
G1 X107.127 Y78.181 E1.01701
G1 X107.771 Y78.199 E1.02467
G1 X108.409 Y78.296 E1.03233
G1 X109.165 Y78.522 E1.04171
G1 X109.327 Y78.584 E1.04377
G1 X109.913 Y78.851 E1.05142
G1 X110.462 Y79.189 E1.05909
G1 X111.054 Y79.675 E1.06819
G1 X111.475 Y80.076 E1.0751
G1 X111.914 Y80.548 E1.08276
G1 X112.29 Y81.072 E1.09042
G1 X112.599 Y81.638 E1.09808
G1 X112.822 Y82.197 E1.10524
G1 X112.888 Y82.395 E1.10772
G1 X113.054 Y83.018 E1.11538
G1 X113.141 Y83.656 E1.12303
G1 X113.148 Y84.301 E1.1307
G1 X113.076 Y84.942 E1.13836
G1 X112.892 Y85.673 E1.14732
G1 X112.844 Y85.818 E1.14913
G1 X112.603 Y86.416 E1.1568
G1 X112.291 Y86.98 E1.16446
G1 X111.911 Y87.501 E1.17212
G1 X111.551 Y87.893 E1.17844
G1 X111.096 Y88.34 E1.18602
G1 X110.609 Y88.763 E1.19369
G1 X110.074 Y89.122 E1.20135
G1 X109.498 Y89.412 E1.20901
G1 X108.957 Y89.608 E1.21585
G1 X108.795 Y89.657 E1.21786
G1 X108.168 Y89.805 E1.22551
G1 X107.527 Y89.875 E1.23318
G1 X106.883 Y89.864 E1.24083
G1 X106.244 Y89.774 E1.2485
G1 X105.622 Y89.605 E1.25616
G1 X105.025 Y89.361 E1.26382
G1 X104.431 Y89.024 E1.27194
G1 X104.121 Y88.82 E1.27635
G1 X103.606 Y88.433 E1.284
G1 X103.256 Y88.105 E1.2897
G1 X102.99 Y87.832 E1.29423
G1 X102.569 Y87.343 E1.3019
G1 X102.212 Y86.806 E1.30956
G1 X101.925 Y86.229 E1.31722
G1 X101.658 Y85.417 E1.32738
G1 X101.604 Y85.192 E1.33013
G1 X101.492 Y84.557 E1.33779
G1 X101.46 Y83.913 E1.34546
G1 X101.508 Y83.27 E1.35312
G1 X101.636 Y82.638 E1.36078
G1 X101.84 Y82.026 E1.36845
G1 X102.119 Y81.445 E1.37611
G1 X102.467 Y80.903 E1.38376
G1 X102.765 Y80.532 E1.38942
G0 F2025 X103.065 Y80.798
G1 F1800 X103.556 Y80.243 E1.39822
G1 X103.995 Y79.806 E1.40558
G1 X104.487 Y79.43 E1.41294
G1 X105.024 Y79.12 E1.42031
G1 X105.813 Y78.813 E1.43037
G1 X105.968 Y78.768 E1.43229
G1 X106.572 Y78.634 E1.43964
G1 X107.189 Y78.579 E1.447
G1 X107.808 Y78.604 E1.45436
G1 X108.419 Y78.709 E1.46173
G1 X109.022 Y78.895 E1.46923
G1 X109.184 Y78.957 E1.47129
G1 X109.747 Y79.215 E1.47865
G1 X110.272 Y79.544 E1.48601
G1 X110.779 Y79.964 E1.49384
G1 X111.2 Y80.365 E1.50075
G1 X111.62 Y80.821 E1.50811
G1 X111.977 Y81.326 E1.51546
G1 X112.267 Y81.873 E1.52282
G1 X112.443 Y82.323 E1.52856
G1 X112.509 Y82.521 E1.53104
G1 X112.666 Y83.12 E1.5384
G1 X112.745 Y83.734 E1.54576
G1 X112.745 Y84.354 E1.55313
G1 X112.664 Y84.968 E1.56049
G1 X112.512 Y85.547 E1.5676
G1 X112.464 Y85.692 E1.56941
G1 X112.232 Y86.267 E1.57678
G1 X111.927 Y86.806 E1.58414
G1 X111.556 Y87.302 E1.5915
G1 X111.271 Y87.608 E1.59647
G1 X110.816 Y88.055 E1.60405
G1 X110.347 Y88.46 E1.61142
G1 X109.83 Y88.801 E1.61878
G1 X109.273 Y89.072 E1.62614
G1 X108.842 Y89.225 E1.63157
G1 X108.68 Y89.274 E1.63358
G1 X108.077 Y89.415 E1.64094
G1 X107.46 Y89.477 E1.64831
G1 X106.841 Y89.459 E1.65567
G1 X106.23 Y89.361 E1.66302
G1 X105.636 Y89.186 E1.67038
G1 X105.069 Y88.935 E1.67775
G1 X104.651 Y88.69 E1.68351
G1 X104.341 Y88.486 E1.68792
G1 X103.847 Y88.113 E1.69527
G1 X103.542 Y87.826 E1.70025
G1 X103.276 Y87.553 E1.70478
G1 X102.873 Y87.082 E1.71215
G1 X102.535 Y86.564 E1.7195
G1 X102.265 Y86.006 E1.72686
G1 X102.047 Y85.323 E1.73538
G1 X101.993 Y85.098 E1.73813
G1 X101.887 Y84.488 E1.74549
G1 X101.861 Y83.869 E1.75285
G1 X101.915 Y83.252 E1.76021
G1 X102.048 Y82.647 E1.76758
G1 X102.258 Y82.064 E1.77494
G1 X102.541 Y81.513 E1.7823
G1 X103.065 Y80.798 E1.79283
G0 F2025 X103.365 Y81.063
G1 F1800 X103.856 Y80.508 E1.80164
G1 X104.277 Y80.091 E1.80868
G1 X104.752 Y79.735 E1.81574
G1 X105.269 Y79.446 E1.82277
G1 X105.924 Y79.197 E1.8311
G1 X106.079 Y79.152 E1.83302
G1 X106.659 Y79.026 E1.84007
G1 X107.25 Y78.978 E1.84712
G1 X107.842 Y79.011 E1.85417
G1 X108.424 Y79.122 E1.86121
G1 X108.879 Y79.269 E1.86689
G1 X109.041 Y79.331 E1.86895
G1 X109.579 Y79.579 E1.87599
G1 X110.079 Y79.898 E1.88304
G1 X110.503 Y80.254 E1.88962
G1 X110.924 Y80.655 E1.89653
G1 X111.324 Y81.092 E1.90357
G1 X111.663 Y81.579 E1.91062
G1 X111.933 Y82.107 E1.91767
G1 X112.063 Y82.45 E1.92202
G1 X112.129 Y82.648 E1.9245
G1 X112.278 Y83.221 E1.93154
G1 X112.349 Y83.81 E1.93859
G1 X112.34 Y84.403 E1.94564
G1 X112.251 Y84.989 E1.95268
G1 X112.132 Y85.422 E1.95802
G1 X112.084 Y85.567 E1.95983
G1 X111.86 Y86.116 E1.96688
G1 X111.565 Y86.63 E1.97392
G1 X111.203 Y87.099 E1.98096
G1 X110.991 Y87.323 E1.98463
G1 X110.536 Y87.77 E1.99221
G1 X110.086 Y88.156 E1.99925
G1 X109.588 Y88.478 E2.0063
G1 X109.051 Y88.73 E2.01335
G1 X108.726 Y88.843 E2.01744
G1 X108.564 Y88.892 E2.01945
G1 X107.986 Y89.025 E2.0265
G1 X107.396 Y89.079 E2.03354
G1 X106.803 Y89.053 E2.04059
G1 X106.22 Y88.948 E2.04763
G1 X105.655 Y88.765 E2.05469
G1 X104.871 Y88.356 E2.0652
G1 X104.561 Y88.152 E2.06961
G1 X104.089 Y87.793 E2.07665
G1 X103.829 Y87.547 E2.08091
G1 X103.563 Y87.274 E2.08544
G1 X103.178 Y86.822 E2.09249
G1 X102.858 Y86.323 E2.09954
G1 X102.608 Y85.785 E2.10659
G1 X102.435 Y85.23 E2.1135
G1 X102.381 Y85.005 E2.11625
G1 X102.282 Y84.42 E2.1233
G1 X102.263 Y83.828 E2.13034
G1 X102.323 Y83.238 E2.13738
G1 X102.462 Y82.661 E2.14444
G1 X102.677 Y82.109 E2.15148
G1 X102.964 Y81.59 E2.15852
G1 X103.365 Y81.063 E2.16639
G0 F2025 X103.664 Y81.328
G1 F1800 X104.155 Y80.773 E2.1752
G1 X104.559 Y80.377 E2.18192
G1 X105.014 Y80.042 E2.18864
G1 X105.512 Y79.774 E2.19536
G1 X106.036 Y79.582 E2.20199
G1 X106.191 Y79.537 E2.20391
G1 X106.743 Y79.418 E2.21062
G1 X107.307 Y79.378 E2.21734
G1 X107.871 Y79.418 E2.22406
G1 X108.424 Y79.537 E2.23078
G1 X108.736 Y79.642 E2.23469
G1 X108.898 Y79.704 E2.23675
G1 X109.41 Y79.943 E2.24347
G1 X109.884 Y80.252 E2.25019
G1 X110.227 Y80.544 E2.25554
G1 X110.648 Y80.945 E2.26245
G1 X111.029 Y81.362 E2.26916
G1 X111.347 Y81.83 E2.27589
G1 X111.684 Y82.576 E2.28562
G1 X111.75 Y82.774 E2.2881
G1 X111.89 Y83.322 E2.29482
G1 X111.952 Y83.884 E2.30154
G1 X111.934 Y84.449 E2.30825
G1 X111.836 Y85.006 E2.31497
G1 X111.752 Y85.296 E2.31856
G1 X111.704 Y85.441 E2.32038
G1 X111.489 Y85.964 E2.3271
G1 X111.203 Y86.451 E2.33381
G1 X110.71 Y87.037 E2.34291
G1 X110.255 Y87.484 E2.35049
G1 X109.825 Y87.851 E2.35721
G1 X109.347 Y88.153 E2.36393
G1 X108.61 Y88.46 E2.37341
G1 X108.448 Y88.509 E2.37543
G1 X107.897 Y88.634 E2.38214
G1 X107.333 Y88.68 E2.38886
G1 X106.769 Y88.646 E2.39558
G1 X106.215 Y88.533 E2.4023
G1 X105.683 Y88.343 E2.40901
G1 X105.091 Y88.021 E2.41702
G1 X104.781 Y87.817 E2.42143
G1 X104.332 Y87.474 E2.42814
G1 X104.115 Y87.267 E2.43171
G1 X103.849 Y86.994 E2.43624
G1 X103.484 Y86.563 E2.44295
G1 X103.184 Y86.084 E2.44967
G1 X102.954 Y85.567 E2.45639
G1 X102.824 Y85.136 E2.46174
G1 X102.77 Y84.911 E2.46449
G1 X102.678 Y84.354 E2.4712
G1 X102.664 Y83.789 E2.47791
G1 X102.731 Y83.227 E2.48464
G1 X102.876 Y82.681 E2.49135
G1 X103.097 Y82.16 E2.49808
G1 X103.389 Y81.676 E2.5048
G1 X103.664 Y81.328 E2.51007
G0 F2025 X103.964 Y81.593
G1 F1800 X104.455 Y81.038 E2.51887
G1 X104.839 Y80.664 E2.52524
G1 X105.275 Y80.351 E2.53162
G1 X105.752 Y80.106 E2.53799
G1 X106.147 Y79.966 E2.54297
G1 X106.302 Y79.921 E2.54489
G1 X106.827 Y79.81 E2.55127
G1 X107.362 Y79.778 E2.55764
G1 X107.896 Y79.827 E2.56401
G1 X108.593 Y80.016 E2.57259
G1 X108.755 Y80.078 E2.57465
G1 X109.24 Y80.306 E2.58102
G1 X109.686 Y80.604 E2.5874
G1 X109.951 Y80.833 E2.59156
G1 X110.372 Y81.234 E2.59847
G1 X110.732 Y81.632 E2.60484
G1 X111.028 Y82.079 E2.61122
G1 X111.304 Y82.703 E2.61932
G1 X111.37 Y82.901 E2.6218
G1 X111.501 Y83.421 E2.62818
G1 X111.554 Y83.954 E2.63454
G1 X111.527 Y84.49 E2.64092
G1 X111.373 Y85.17 E2.64921
G1 X111.325 Y85.315 E2.65102
G1 X111.119 Y85.81 E2.65739
G1 X110.841 Y86.27 E2.66378
G1 X110.43 Y86.752 E2.67131
G1 X109.975 Y87.199 E2.67889
G1 X109.565 Y87.545 E2.68526
G1 X109.109 Y87.827 E2.69163
G1 X108.494 Y88.077 E2.69952
G1 X108.332 Y88.126 E2.70153
G1 X107.809 Y88.242 E2.7079
G1 X107.274 Y88.28 E2.71427
G1 X106.739 Y88.238 E2.72065
G1 X106.217 Y88.116 E2.72702
G1 X105.718 Y87.919 E2.7334
G1 X105.311 Y87.687 E2.73896
G1 X105.001 Y87.483 E2.74337
G1 X104.402 Y86.988 E2.75261
G1 X104.136 Y86.715 E2.75714
G1 X103.791 Y86.304 E2.76351
G1 X103.511 Y85.847 E2.76988
G1 X103.303 Y85.353 E2.77625
G1 X103.213 Y85.043 E2.78009
G1 X103.159 Y84.818 E2.78284
G1 X103.073 Y84.289 E2.78921
G1 X103.067 Y83.753 E2.79558
G1 X103.14 Y83.221 E2.80196
G1 X103.292 Y82.707 E2.80833
G1 X103.518 Y82.221 E2.8147
G1 X103.964 Y81.593 E2.82385
G0 F2025 X104.263 Y81.858
G1 F1800 X104.754 Y81.303 E2.83266
G1 X105.118 Y80.952 E2.83867
G1 X105.533 Y80.662 E2.84468
G1 X105.988 Y80.442 E2.85069
G1 X106.259 Y80.35 E2.85409
G1 X106.414 Y80.305 E2.85601
G1 X106.909 Y80.203 E2.86201
G1 X107.414 Y80.18 E2.86802
G1 X107.916 Y80.237 E2.87402
G1 X108.45 Y80.389 E2.88062
G1 X108.612 Y80.451 E2.88268
G1 X109.068 Y80.669 E2.88869
G1 X109.485 Y80.955 E2.8947
G1 X109.675 Y81.123 E2.89771
G1 X110.096 Y81.524 E2.90462
G1 X110.433 Y81.9 E2.91062
G1 X110.707 Y82.325 E2.91663
G1 X110.925 Y82.829 E2.92316
G1 X110.991 Y83.027 E2.92564
G1 X111.112 Y83.518 E2.93165
G1 X111.155 Y84.022 E2.93766
G1 X111.118 Y84.526 E2.94366
G1 X110.993 Y85.045 E2.95001
G1 X110.945 Y85.19 E2.95182
G1 X110.749 Y85.656 E2.95783
G1 X110.481 Y86.085 E2.96384
G1 X110.15 Y86.467 E2.96985
G1 X109.695 Y86.914 E2.97743
G1 X109.307 Y87.238 E2.98343
G1 X108.873 Y87.498 E2.98945
G1 X108.378 Y87.694 E2.99577
G1 X108.216 Y87.743 E2.99778
G1 X107.722 Y87.851 E3.00379
G1 X107.218 Y87.879 E3.00979
G1 X106.715 Y87.828 E3.0158
G1 X106.226 Y87.698 E3.02181
G1 X105.764 Y87.493 E3.02782
G1 X105.531 Y87.353 E3.03105
G1 X105.221 Y87.149 E3.03546
G1 X104.688 Y86.709 E3.04367
G1 X104.422 Y86.436 E3.0482
G1 X104.099 Y86.047 E3.05421
G1 X103.841 Y85.612 E3.06022
G1 X103.602 Y84.95 E3.06859
G1 X103.548 Y84.725 E3.07134
G1 X103.47 Y84.225 E3.07735
G1 X103.47 Y83.72 E3.08335
G1 X103.551 Y83.221 E3.08936
G1 X103.709 Y82.74 E3.09537
G1 X103.941 Y82.291 E3.10138
G1 X104.263 Y81.858 E3.10779
G1 F2400 E2.10779
G0 F2025 X106.256 Y83.361
G0 X106.881 Y83.983
G0 X107.107 Y84.196
G0 X107.034 Y84.263
;TYPE:WALL-OUTER
G1 F2400 E3.10779
G1 F1800 X106.865 Y84.085 E3.11071
G1 X106.846 Y84.029 E3.11141
G1 X106.864 Y83.973 E3.11211
G1 X106.879 Y83.957 E3.11237
G1 X107.047 Y83.781 E3.11526
G1 X107.242 Y83.594 E3.11847
G1 X107.299 Y83.576 E3.11918
G1 X107.351 Y83.593 E3.11983
G1 X107.637 Y83.864 E3.12452
G1 X107.732 Y83.954 E3.12607
G1 X107.757 Y84.029 E3.12701
G1 X107.733 Y84.103 E3.12794
G1 X107.638 Y84.194 E3.1295
G1 X107.368 Y84.451 E3.13393
G1 X107.354 Y84.464 E3.13416
G1 X107.297 Y84.482 E3.13487
G1 X107.245 Y84.465 E3.13552
G1 X107.063 Y84.292 E3.1385
G1 X107.047 Y84.277 E3.13876
G1 X107.034 Y84.263 E3.13899
G0 F2025 X106.897 Y84.118
G0 X107.259 Y84.066
G1 F1800 X107.403 Y83.927 E3.14086
G0 F2025 X107.305 Y84.1
G0 X107.3 Y83.678
G0 X107.658 Y82.932
;TIME_ELAPSED:17.516510
;LAYER:1
M106 S255
G0 F2362.5 X107.658 Y82.932 Z0.5
;TYPE:WALL-INNER
G1 F840 X108.11 Y83.197 E3.1502
G1 X108.386 Y83.643 E3.15955
G1 X108.462 Y84.029 E3.16656
G1 X108.386 Y84.415 E3.17358
G1 X108.098 Y84.872 E3.1832
G1 X107.655 Y85.127 E3.19232
G1 X107.298 Y85.193 E3.19879
G1 X106.938 Y85.124 E3.20532
G1 X106.488 Y84.863 E3.21459
G1 X106.21 Y84.415 E3.22399
G1 X106.134 Y84.029 E3.231
G1 X106.21 Y83.643 E3.23802
G1 X106.5 Y83.184 E3.2477
G1 X106.937 Y82.934 E3.25667
G1 X107.299 Y82.865 E3.26324
G1 X107.658 Y82.932 E3.26975
G0 F2362.5 X107.799 Y82.552
;TYPE:WALL-OUTER
G1 F600 X108.336 Y82.861 E3.28079
