;FLAVOR:Marlin
;TIME:2430
;Filament used: 0.903068m
;Layer height: 0.3
;Generated with Cura_SteamEngine master
M104 S185
M109 S185
M82 ;absolute extrusion mode
; -- START GCODE --
G21                     ;set units to millimetres
G90                     ;set to absolute positioning
M106 S0                 ;set fan speed to zero (turned off)
G28 X0 Y0               ;move to the X/Y origin (Home)
G28 Z0                  ;move to the Z origin (Home)
G1 Z15.0 F1200          ;move Z to position 15.0 mm
G92 E0                  ;zero the extruded length
G1 E20 F200             ;extrude 20mm of feed stock
G92 E0                  ;zero the extruded length again
G1 F7200                ;set feedrate to 120 mm/s
; -- end of START GCODE --
G92 E0
G1 F2400 E-1
;LAYER_COUNT:134
;LAYER:0
M107
G0 F2025 X109.341 Y78.637 Z0.2
;TYPE:SKIRT
G1 F2400 E0
G1 F1800 X109.747 Y78.136 E0.00766
G1 X110.212 Y77.689 E0.01533
G1 X110.729 Y77.304 E0.02299
G1 X111.289 Y76.985 E0.03065
G1 X111.885 Y76.738 E0.03831
G1 X112.506 Y76.566 E0.04597
G1 X113.144 Y76.473 E0.05363
G1 X113.576 Y76.455 E0.05877
G1 X116.219 Y76.455 E0.09018
G1 X116.862 Y76.495 E0.09784
G1 X117.496 Y76.614 E0.1055
G1 X118.11 Y76.811 E0.11316
G1 X118.695 Y77.082 E0.12083
G1 X119.242 Y77.424 E0.12849
G1 X119.742 Y77.83 E0.13615
G1 X120.188 Y78.295 E0.1438
G1 X120.573 Y78.812 E0.15146
G1 X120.892 Y79.373 E0.15913
G1 X121.138 Y79.969 E0.16679
G1 X121.309 Y80.59 E0.17445
G1 X121.401 Y81.228 E0.18211
G1 X121.419 Y81.66 E0.18725
G1 X121.411 Y90.13 E0.2879
G1 X121.37 Y90.773 E0.29556
G1 X121.251 Y91.407 E0.30322
G1 X121.053 Y92.02 E0.31088
G1 X120.781 Y92.605 E0.31855
G1 X120.439 Y93.152 E0.32621
G1 X120.032 Y93.651 E0.33386
G1 X119.567 Y94.097 E0.34152
G1 X119.049 Y94.482 E0.34919
G1 X118.489 Y94.8 E0.35684
G1 X117.893 Y95.046 E0.36451
G1 X117.271 Y95.216 E0.37217
G1 X116.633 Y95.308 E0.37983
G1 X115.988 Y95.32 E0.38749
G1 X115.347 Y95.253 E0.39515
G1 X114.494 Y95.033 E0.40562
G1 X111.867 Y94.114 E0.43869
G1 X111.273 Y93.864 E0.44635
G1 X110.714 Y93.542 E0.45402
G1 X110.2 Y93.154 E0.46167
G1 X109.737 Y92.705 E0.46934
G1 X109.334 Y92.202 E0.477
G1 X108.996 Y91.653 E0.48466
G1 X108.728 Y91.066 E0.49233
G1 X108.535 Y90.451 E0.49999
G1 X108.42 Y89.817 E0.50764
G1 X108.384 Y89.212 E0.51485
G1 X108.376 Y81.661 E0.60458
G1 X108.415 Y81.017 E0.61224
G1 X108.534 Y80.383 E0.61991
G1 X108.73 Y79.769 E0.62757
G1 X109.001 Y79.184 E0.63523
G1 X109.341 Y78.637 E0.64289
G0 F2025 X109.739 Y78.771
G1 F1800 X110.142 Y78.301 E0.65024
G1 X110.603 Y77.887 E0.65761
G1 X111.113 Y77.535 E0.66497
G1 X111.664 Y77.252 E0.67233
G1 X112.247 Y77.043 E0.67969
G1 X112.852 Y76.91 E0.68705
G1 X113.576 Y76.855 E0.69568
G1 X116.219 Y76.855 E0.72709
G1 X116.837 Y76.895 E0.73445
G1 X117.445 Y77.014 E0.74181
G1 X118.032 Y77.211 E0.74917
G1 X118.589 Y77.481 E0.75652
G1 X119.107 Y77.821 E0.76389
G1 X119.577 Y78.225 E0.77125
G1 X119.99 Y78.686 E0.77861
G1 X120.341 Y79.196 E0.78597
G1 X120.624 Y79.747 E0.79333
G1 X120.833 Y80.33 E0.80069
G1 X120.965 Y80.936 E0.80806
G1 X121.019 Y81.66 E0.81668
G1 X121.011 Y90.13 E0.91734
G1 X120.97 Y90.748 E0.9247
G1 X120.851 Y91.355 E0.93205
G1 X120.654 Y91.942 E0.93941
G1 X120.383 Y92.499 E0.94677
G1 X120.042 Y93.017 E0.95414
G1 X119.638 Y93.486 E0.96149
G1 X119.177 Y93.899 E0.96885
G1 X118.666 Y94.25 E0.97622
G1 X118.114 Y94.531 E0.98358
G1 X117.531 Y94.74 E0.99094
G1 X116.926 Y94.871 E0.99829
G1 X116.309 Y94.924 E1.00565
G1 X115.69 Y94.897 E1.01301
G1 X115.08 Y94.79 E1.02037
G1 X114.626 Y94.656 E1.026
G1 X111.999 Y93.737 E1.05907
G1 X111.429 Y93.495 E1.06643
G1 X110.894 Y93.182 E1.0738
G1 X110.405 Y92.802 E1.08116
G1 X109.968 Y92.363 E1.08852
G1 X109.592 Y91.871 E1.09588
G1 X109.282 Y91.335 E1.10323
G1 X109.044 Y90.763 E1.1106
G1 X108.881 Y90.166 E1.11795
G1 X108.796 Y89.552 E1.12532
G1 X108.784 Y89.211 E1.12937
G1 X108.776 Y81.66 E1.2191
G1 X108.815 Y81.042 E1.22646
G1 X108.934 Y80.434 E1.23383
G1 X109.13 Y79.847 E1.24118
G1 X109.4 Y79.289 E1.24855
G1 X109.739 Y78.771 E1.2559
G0 F2025 X110.136 Y78.911
G1 F1800 X110.536 Y78.474 E1.26294
G1 X110.992 Y78.094 E1.27
G1 X111.494 Y77.779 E1.27704
G1 X112.034 Y77.534 E1.28409
G1 X112.602 Y77.364 E1.29113
G1 X113.188 Y77.272 E1.29818
G1 X113.576 Y77.255 E1.3028
G1 X116.219 Y77.255 E1.33421
G1 X116.811 Y77.295 E1.34126
G1 X117.391 Y77.414 E1.34829
G1 X117.951 Y77.61 E1.35534
G1 X118.479 Y77.88 E1.36239
G1 X118.966 Y78.218 E1.36943
G1 X119.403 Y78.619 E1.37648
G1 X119.783 Y79.074 E1.38353
G1 X120.097 Y79.577 E1.39057
G1 X120.342 Y80.117 E1.39762
G1 X120.511 Y80.686 E1.40467
G1 X120.602 Y81.271 E1.41171
G1 X120.619 Y81.659 E1.41633
G1 X120.611 Y90.129 E1.51698
G1 X120.57 Y90.721 E1.52403
G1 X120.451 Y91.301 E1.53107
G1 X120.254 Y91.861 E1.53812
G1 X119.984 Y92.389 E1.54517
G1 X119.645 Y92.875 E1.55221
G1 X119.244 Y93.312 E1.55926
G1 X118.788 Y93.691 E1.56631
G1 X118.285 Y94.005 E1.57335
G1 X117.745 Y94.249 E1.58039
G1 X117.176 Y94.418 E1.58745
G1 X116.59 Y94.509 E1.59449
G1 X115.998 Y94.52 E1.60153
G1 X115.409 Y94.451 E1.60858
G1 X114.758 Y94.278 E1.61658
G1 X112.131 Y93.359 E1.64966
G1 X111.586 Y93.126 E1.6567
G1 X111.077 Y92.822 E1.66374
G1 X110.613 Y92.452 E1.6708
G1 X110.204 Y92.023 E1.67784
G1 X109.856 Y91.543 E1.68489
G1 X109.576 Y91.021 E1.69193
G1 X109.368 Y90.465 E1.69898
G1 X109.237 Y89.887 E1.70602
G1 X109.184 Y89.211 E1.71408
G1 X109.176 Y81.66 E1.80381
G1 X109.215 Y81.068 E1.81086
G1 X109.334 Y80.487 E1.81791
G1 X109.529 Y79.927 E1.82496
G1 X109.798 Y79.399 E1.832
G1 X110.136 Y78.911 E1.83906
G0 F2025 X110.197 Y79.514
G1 F1800 X110.533 Y79.059 E1.84578
G1 X110.929 Y78.656 E1.85249
G1 X111.378 Y78.313 E1.85921
G1 X111.871 Y78.036 E1.86593
G1 X112.399 Y77.832 E1.87265
G1 X112.949 Y77.704 E1.87936
G1 X113.576 Y77.655 E1.88684
G1 X116.219 Y77.655 E1.91824
G1 X116.783 Y77.695 E1.92496
G1 X117.336 Y77.814 E1.93169
G1 X117.866 Y78.01 E1.9384
G1 X118.363 Y78.278 E1.94511
G1 X118.818 Y78.614 E1.95183
G1 X119.221 Y79.011 E1.95856
G1 X119.563 Y79.461 E1.96527
G1 X119.839 Y79.954 E1.97199
G1 X120.043 Y80.482 E1.97871
G1 X120.17 Y81.032 E1.98542
G1 X120.219 Y81.659 E1.99289
G1 X120.211 Y90.129 E2.09355
G1 X120.171 Y90.693 E2.10027
G1 X120.051 Y91.245 E2.10698
G1 X119.855 Y91.775 E2.1137
G1 X119.586 Y92.273 E2.12042
G1 X119.249 Y92.727 E2.12714
G1 X118.852 Y93.129 E2.13385
G1 X118.402 Y93.472 E2.14058
G1 X117.908 Y93.747 E2.1473
G1 X117.381 Y93.95 E2.15401
G1 X116.83 Y94.077 E2.16073
G1 X116.267 Y94.125 E2.16744
G1 X115.702 Y94.093 E2.17417
G1 X114.89 Y93.901 E2.18408
G1 X112.263 Y92.982 E2.21716
G1 X111.744 Y92.758 E2.22387
G1 X111.262 Y92.463 E2.23059
G1 X110.826 Y92.103 E2.23731
G1 X110.445 Y91.685 E2.24403
G1 X110.127 Y91.218 E2.25074
G1 X109.878 Y90.71 E2.25747
G1 X109.703 Y90.173 E2.26418
G1 X109.605 Y89.616 E2.2709
G1 X109.584 Y89.21 E2.27573
G1 X109.576 Y81.659 E2.36546
G1 X109.615 Y81.095 E2.37218
G1 X109.734 Y80.542 E2.3789
G1 X109.929 Y80.012 E2.38562
G1 X110.197 Y79.514 E2.39234
G0 F2025 X110.595 Y79.636
G1 F1800 X110.928 Y79.216 E2.39871
G1 X111.32 Y78.849 E2.40509
G1 X111.762 Y78.545 E2.41146
G1 X112.244 Y78.31 E2.41783
G1 X112.756 Y78.15 E2.42421
G1 X113.285 Y78.067 E2.43057
G1 X113.576 Y78.055 E2.43403
G1 X116.219 Y78.055 E2.46544
G1 X116.754 Y78.095 E2.47182
G1 X117.277 Y78.214 E2.47819
G1 X117.776 Y78.409 E2.48456
G1 X118.241 Y78.677 E2.49094
G1 X118.661 Y79.01 E2.4973
G1 X119.027 Y79.402 E2.50368
G1 X119.33 Y79.844 E2.51005
G1 X119.565 Y80.327 E2.51643
G1 X119.725 Y80.838 E2.52279
G1 X119.808 Y81.368 E2.52917
G1 X119.819 Y81.658 E2.53262
G1 X119.811 Y90.128 E2.63327
G1 X119.771 Y90.663 E2.63965
G1 X119.651 Y91.186 E2.64602
G1 X119.455 Y91.685 E2.65239
G1 X119.188 Y92.15 E2.65876
G1 X118.854 Y92.57 E2.66514
G1 X118.461 Y92.935 E2.67152
G1 X118.019 Y93.238 E2.67788
G1 X117.536 Y93.472 E2.68426
G1 X117.024 Y93.632 E2.69064
G1 X116.494 Y93.714 E2.69701
G1 X115.958 Y93.716 E2.70338
G1 X115.427 Y93.639 E2.70976
G1 X115.022 Y93.523 E2.71476
G1 X112.395 Y92.604 E2.74783
G1 X111.904 Y92.39 E2.7542
G1 X111.449 Y92.105 E2.76058
G1 X111.042 Y91.756 E2.76695
G1 X110.692 Y91.35 E2.77332
G1 X110.405 Y90.896 E2.7797
G1 X110.19 Y90.405 E2.78607
G1 X110.049 Y89.888 E2.79244
G1 X109.984 Y89.21 E2.80054
G1 X109.976 Y81.659 E2.89027
G1 X110.015 Y81.124 E2.89664
G1 X110.134 Y80.601 E2.90302
G1 X110.329 Y80.101 E2.9094
G1 X110.595 Y79.636 E2.91576
G0 F2025 X110.993 Y79.766
G1 F1800 X111.323 Y79.383 E2.92177
G1 X111.709 Y79.056 E2.92778
G1 X112.142 Y78.794 E2.9338
G1 X112.61 Y78.604 E2.9398
G1 X113.103 Y78.49 E2.94581
G1 X113.576 Y78.455 E2.95145
G1 X116.219 Y78.455 E2.98286
G1 X116.723 Y78.495 E2.98886
G1 X117.214 Y78.614 E2.99487
G1 X117.681 Y78.808 E3.00088
G1 X118.111 Y79.074 E3.00689
G1 X118.494 Y79.404 E3.01289
G1 X118.82 Y79.791 E3.01891
G1 X119.081 Y80.224 E3.02491
G1 X119.271 Y80.692 E3.03092
G1 X119.384 Y81.185 E3.03693
G1 X119.419 Y81.658 E3.04256
G1 X119.411 Y90.128 E3.14322
G1 X119.371 Y90.632 E3.14923
G1 X119.251 Y91.123 E3.15523
G1 X119.056 Y91.59 E3.16125
G1 X118.79 Y92.019 E3.16724
G1 X118.459 Y92.402 E3.17326
G1 X118.073 Y92.728 E3.17926
G1 X117.64 Y92.988 E3.18527
G1 X117.171 Y93.178 E3.19128
G1 X116.678 Y93.291 E3.19729
G1 X116.174 Y93.325 E3.20329
G1 X115.67 Y93.279 E3.20931
G1 X115.154 Y93.146 E3.21564
G1 X112.527 Y92.227 E3.24871
G1 X112.065 Y92.022 E3.25472
G1 X111.64 Y91.748 E3.26073
G1 X111.264 Y91.41 E3.26674
G1 X110.946 Y91.017 E3.27274
G1 X110.694 Y90.579 E3.27875
G1 X110.513 Y90.107 E3.28476
G1 X110.41 Y89.612 E3.29077
G1 X110.384 Y89.209 E3.29556
G1 X110.376 Y81.658 E3.3853
G1 X110.415 Y81.154 E3.3913
G1 X110.534 Y80.663 E3.39731
G1 X110.728 Y80.196 E3.40332
G1 X110.993 Y79.766 E3.40932
G1 F2400 E2.40932
G0 F2025 X112.901 Y82.259
G0 X114.181 Y82.259
G0 X114.63 Y88.25
G0 X114.611 Y88.348
;TYPE:WALL-INNER
G1 F2400 E3.40932
G1 F1800 X114.383 Y88.37 E3.41204
G1 X114.164 Y88.391 E3.41466
G1 X114.164 Y88.171 E3.41631
G1 X114.167 Y82.245 E3.48673
G1 X115.429 Y82.245 E3.50172
G1 X115.629 Y82.245 E3.5041
G1 X115.629 Y82.445 E3.50564
G1 X115.622 Y88.588 E3.57864
G1 X115.622 Y88.66 E3.5795
G1 X115.621 Y88.905 E3.58241
G1 X115.321 Y88.66 E3.58488
G1 X115.254 Y88.634 E3.58565
G1 X114.876 Y88.487 E3.59047
G1 X114.611 Y88.348 E3.59402
G0 F2025 X114.531 Y88.758
;TYPE:WALL-OUTER
G1 F1800 X114.008 Y88.809 E3.60027
G1 X113.82 Y88.827 E3.60251
G1 X113.764 Y88.86 E3.60328
G1 X113.764 Y88.827
G1 X113.764 Y88.638 E3.60482
G1 X113.767 Y81.845 E3.68554
G1 X115.829 Y81.845 E3.71005
G1 X116.029 Y81.845 E3.71242
G1 X116.029 Y82.045 E3.71396
G1 X116.021 Y89.412 E3.80151
G1 X116.021 Y89.457 E3.80204
G1 X116.02 Y89.732 E3.80531
G1 X115.664 Y89.457 E3.8085
G1 X115.63 Y89.429 E3.809
G1 X115.117 Y89.01 E3.81687
G1 X114.709 Y88.851 E3.82207
G1 X114.531 Y88.758 E3.82446
G0 F2025 X114.332 Y88.777
G0 X114.286 Y88.279
G0 X114.554 Y87.961
;TYPE:SKIN
G1 F1800 X114.557 Y82.635 E3.88775
G1 X115.239 Y82.635 E3.89586
G1 X115.232 Y88.208 E3.96208
G1 X115.042 Y88.134 E3.96451
G1 X114.689 Y87.948 E3.96925
G1 X114.554 Y87.961 E3.97086
G0 F2025 X114.892 Y87.739
G1 F1800 X114.892 Y87.174 E3.9762
G1 X114.893 Y86.609 E3.98155
G1 X114.893 Y86.043 E3.98693
G1 X114.894 Y85.478 E3.99231
G1 X114.895 Y84.913 E3.99768
G1 X114.895 Y84.348 E4.00305
G1 X114.895 Y83.783 E4.00844
G1 X114.896 Y83.218 E4.01382
G0 F2025 X114.735 Y83.057
G0 X114.63 Y88.25
G0 X114.609 Y88.299
;TIME_ELAPSED:20.458513
;LAYER:1
M106 S255
G0 F2362.5 X114.609 Y88.299 Z0.5
;TYPE:WALL-INNER
G1 F2100 X113.691 Y88.38 E4.03025
G1 X113.118 Y88.715 E4.04208
G1 X112.316 Y89.429 E4.06122
G1 X112.109 Y89.584 E4.06583
G1 X111.79 Y89.823 E4.07294
G1 X111.79 Y89.425 E4.07686
G1 X111.79 Y89.424 E4.07688
G1 X111.794 Y82.245 E4.20485
G1 X117.965 Y82.245 E4.31485
G1 X117.966 Y90.238 E4.45732
G1 X117.966 Y90.39 E4.46003
G1 X117.967 Y90.456 E4.46121
G1 X117.765 Y90.391 E4.46338
G1 X117.626 Y90.33 E4.46552
G1 X117.298 Y90.184 E4.47192
G1 X116.357 Y89.456 E4.49313
G1 X115.799 Y89.014 E4.50582
G1 X115.308 Y88.613 E4.51712
G1 X114.925 Y88.463 E4.52445
G1 X114.609 Y88.299 E4.5308
G0 F2362.5 X114.528 Y88.708
;TYPE:WALL-OUTER
G1 F1500 X113.815 Y88.771 E4.54356
G1 X113.354 Y89.04 E4.55307
G1 X112.571 Y89.737 E4.57176
G1 X111.741 Y90.361 E4.59027
G1 X111.548 Y90.506 E4.59457
G1 X111.39 Y90.585 E4.59772
G1 X111.39 Y90.506
G1 X111.39 Y90.264 E4.60087
G1 X111.394 Y81.845 E4.75094
G1 X118.365 Y81.845 E4.8752
G1 X118.367 Y90.732 E5.03361
G1 X118.367 Y91.006 E5.0385
G1 X118.106 Y90.922 E5.04141
G1 X117.623 Y90.766 E5.05046
G1 X117.093 Y90.531 E5.06079
G1 X116.112 Y89.772 E5.0829
G1 X115.551 Y89.328 E5.09565
G1 X115.104 Y88.963 E5.10594
G1 X114.758 Y88.828 E5.11256
G1 X114.528 Y88.708 E5.11719
G0 F2362.5 X114.329 Y88.725
G0 X114.287 Y88.227
G0 X114.687 Y87.901
;TYPE:SKIN
G1 F1500 X113.57 Y87.999 E5.13717
G1 X112.888 Y88.397 E5.15125
G1 X112.18 Y89.028 E5.16815
G1 X112.184 Y82.635 E5.28211
G1 X117.575 Y82.635 E5.37821
G1 X117.577 Y89.881 E5.50737
G1 X117.495 Y89.844 E5.50897
G1 X116.599 Y89.15 E5.52918
G1 X116.044 Y88.71 E5.5418
G1 X115.507 Y88.272 E5.55415
G1 X115.091 Y88.11 E5.56211
G1 X114.687 Y87.901 E5.57022
G0 F2362.5 X117.136 Y89.338
G0 X117.265 Y89.208
G1 F1500 X117.106 Y88.802 E5.58073
G1 X116.747 Y89.161
G0 F2362.5 X116.5 Y88.843
G1 F1500 X117.395 Y87.948 E5.60329
G1 X117.465 Y87.878
G0 F2362.5 X117.395 Y87.382
G1 F1500 X116.184 Y88.593 E5.63382
G1 X116.114 Y88.663
G0 F2362.5 X115.872 Y88.339
G1 F1500 X117.394 Y86.817 E5.67219
G1 X117.464 Y86.747
G0 F2362.5 X117.394 Y86.252
G1 F1500 X115.55 Y88.096 E5.71867
G1 X115.48 Y88.166
G0 F2362.5 X115.144 Y87.936
G1 F1500 X117.394 Y85.686 E5.77539
G1 X117.464 Y85.616
G0 F2362.5 X117.394 Y85.12
G1 F1500 X114.771 Y87.744 E5.84153
G1 X114.701 Y87.814
G0 F2362.5 X114.184 Y87.765
G1 F1500 X117.393 Y84.555 E5.92244
G1 X117.463 Y84.485
G0 F2362.5 X117.393 Y83.99
G1 F1500 X113.564 Y87.819 E6.01896
G1 X113.494 Y87.889
G0 F2362.5 X112.359 Y87.892
G1 F1500 X117.393 Y82.858 E6.14586
G1 X117.463 Y82.788
G0 F2362.5 X116.872 Y82.814
G1 F1500 X112.36 Y87.326 E6.25961
G1 X112.29 Y87.396
G0 F2362.5 X112.36 Y86.76
G1 F1500 X116.306 Y82.814 E6.35908
G1 X116.376 Y82.744
G0 F2362.5 X115.74 Y82.814
G1 F1500 X112.361 Y86.194 E6.44427
G1 X112.291 Y86.264
G0 F2362.5 X112.362 Y85.627
G1 F1500 X115.174 Y82.814 E6.51517
G1 X115.244 Y82.744
G0 F2362.5 X114.609 Y82.814
G1 F1500 X112.362 Y85.062 E6.57183
G1 X112.292 Y85.132
G0 F2362.5 X112.362 Y84.495
G1 F1500 X114.043 Y82.814 E6.61421
G1 X114.113 Y82.744
G0 F2362.5 X113.477 Y82.814
G1 F1500 X112.362 Y83.93 E6.64233
G1 X112.292 Y84
G0 F2362.5 X112.363 Y83.363
G1 F1500 X112.912 Y82.814 E6.65617
G0 F2362.5 X117.393 Y83.424
G1 F1500 X112.359 Y88.458 E6.78307
G1 X112.289 Y88.528
G0 F2362.5 X114.628 Y88.201
G0 X114.605 Y88.246
;TIME_ELAPSED:27.230137
;LAYER:2
G0 F2700 X114.605 Y88.246 Z0.8
;TYPE:WALL-INNER
G1 F2400 X114.035 Y88.302 E6.79328
G1 X113.692 Y88.32 E6.7994
G1 X113.178 Y88.619 E6.81
G1 X112.04 Y89.628 E6.83711
G1 X111.357 Y90.143 E6.85236
G1 X110.724 Y90.461 E6.86499
G1 X110.435 Y90.606 E6.87075
G1 X110.435 Y90.283 E6.87406
G1 X110.435 Y90.282 E6.87407
G1 X110.436 Y82.245 E7.01734
G1 X119.122 Y82.245 E7.17217
G1 X119.322 Y82.245 E7.17573
G1 X119.322 Y82.445 E7.17804
G1 X119.318 Y90.653 E7.32435
G1 X119.318 Y90.826 E7.32743
G1 X119.317 Y90.846 E7.32779
G1 X119.172 Y90.826 E7.32931
G1 X119.008 Y90.774 E7.33159
G1 X118.009 Y90.454 E7.35029
G1 X117.254 Y90.12 E7.36501
G1 X116.452 Y89.498 E7.3831
G1 X115.293 Y88.566 E7.40961
G1 X114.978 Y88.443 E7.41564
G1 X114.605 Y88.246 E7.42316
G0 F2700 X114.524 Y88.656
;TYPE:WALL-OUTER
G1 F1200 X114.073 Y88.7 E7.43123
G1 X113.81 Y88.714 E7.43593
G1 X113.414 Y88.945 E7.4441
G1 X112.291 Y89.94 E7.47085
G1 X111.567 Y90.486 E7.48701
G1 X110.462 Y91.04 E7.50904
G1 X110.33 Y91.065 E7.51144
G1 X110.18 Y91.093 E7.51416
G1 X110.035 Y91.113 E7.51677
G1 X110.035 Y91.093
G1 X110.035 Y90.94 E7.51883
G1 X110.036 Y81.845 E7.68095
G1 X119.522 Y81.845 E7.85004
G1 X119.722 Y81.845 E7.85361
G1 X119.722 Y82.045 E7.85591
G1 X119.717 Y91.112 E8.01754
G1 X119.717 Y91.296 E8.02082
G1 X119.64 Y91.292 E8.02219
G1 X119.458 Y91.268 E8.02447
G1 X119.081 Y91.217 E8.03125
G1 X117.865 Y90.828 E8.05401
G1 X117.049 Y90.467 E8.06991
