;FLAVOR:Marlin
;TIME:1888
;Filament used: 0.680609m
;Layer height: 0.3
;Generated with Cura_SteamEngine master
M104 S185
M109 S185
M82 ;absolute extrusion mode
; -- START GCODE --
G21                     ;set units to millimetres
G90                     ;set to absolute positioning
M106 S0                 ;set fan speed to zero (turned off)
G28 X0 Y0               ;move to the X/Y origin (Home)
G28 Z0                  ;move to the Z origin (Home)
G1 Z15.0 F1200          ;move Z to position 15.0 mm
G92 E0                  ;zero the extruded length
G1 E20 F200             ;extrude 20mm of feed stock
G92 E0                  ;zero the extruded length again
G1 F7200                ;set feedrate to 120 mm/s
; -- end of START GCODE --
G92 E0
G1 F2400 E-1
;LAYER_COUNT:64
;LAYER:0
M107
G0 F2025 X95.33 Y90.542 Z0.2
;TYPE:SKIRT
G1 F2400 E0
G1 F1800 X95.751 Y90.164 E0.00672
G1 X96.147 Y89.892 E0.01243
G1 X99.482 Y87.887 E0.05868
G1 X99.986 Y87.631 E0.06539
G1 X100.436 Y87.471 E0.07107
G1 X104.173 Y86.395 E0.11728
G1 X104.726 Y86.278 E0.124
G1 X105.21 Y86.24 E0.12977
G1 X109.112 Y86.172 E0.17614
G1 X109.677 Y86.202 E0.18287
G1 X110.147 Y86.289 E0.18855
G1 X113.929 Y87.229 E0.23486
G1 X114.466 Y87.404 E0.24157
G1 X114.902 Y87.612 E0.24731
G1 X118.31 Y89.5 E0.29361
G1 X118.784 Y89.808 E0.30033
G1 X119.149 Y90.12 E0.30603
G1 X121.95 Y92.821 E0.35228
G1 X122.328 Y93.241 E0.35899
G1 X122.603 Y93.641 E0.36476
G1 X124.623 Y97.006 E0.4114
G1 X124.879 Y97.51 E0.41812
G1 X125.039 Y97.964 E0.42384
G1 X126.102 Y101.678 E0.46974
G1 X126.218 Y102.231 E0.47646
G1 X126.255 Y102.712 E0.48219
G1 X126.321 Y106.654 E0.52904
G1 X126.291 Y107.219 E0.53577
G1 X126.203 Y107.69 E0.54146
G1 X125.267 Y111.438 E0.58737
G1 X125.091 Y111.976 E0.5941
G1 X124.886 Y112.405 E0.59975
G1 X123.008 Y115.801 E0.64586
G1 X122.701 Y116.275 E0.65257
G1 X122.388 Y116.641 E0.6583
G1 X119.683 Y119.448 E0.70462
G1 X119.263 Y119.826 E0.71134
G1 X118.86 Y120.103 E0.71715
G1 X115.493 Y122.122 E0.7638
G1 X114.989 Y122.377 E0.77051
G1 X114.539 Y122.536 E0.77619
G1 X110.82 Y123.603 E0.82216
G1 X110.267 Y123.72 E0.82888
G1 X109.788 Y123.757 E0.83459
G1 X105.891 Y123.826 E0.88091
G1 X105.326 Y123.796 E0.88763
G1 X104.859 Y123.71 E0.89327
G1 X101.09 Y122.777 E0.93941
G1 X100.552 Y122.603 E0.94613
G1 X100.115 Y122.394 E0.95189
G1 X96.697 Y120.504 E0.9983
G1 X96.223 Y120.197 E1.00502
G1 X95.854 Y119.881 E1.01079
G1 X93.043 Y117.166 E1.05723
G1 X92.665 Y116.746 E1.06395
G1 X92.394 Y116.35 E1.06965
G1 X90.387 Y113.011 E1.11594
G1 X90.13 Y112.507 E1.12267
G1 X89.971 Y112.055 E1.12836
G1 X88.895 Y108.311 E1.17465
G1 X88.777 Y107.758 E1.18137
G1 X88.74 Y107.278 E1.18709
G1 X88.67 Y103.386 E1.23335
G1 X88.699 Y102.821 E1.24008
G1 X88.788 Y102.345 E1.24583
G1 X89.731 Y98.567 E1.2921
G1 X89.906 Y98.03 E1.29882
G1 X90.112 Y97.6 E1.30448
G1 X91.998 Y94.191 E1.35078
G1 X92.306 Y93.717 E1.3575
G1 X92.62 Y93.349 E1.36325
G1 X95.33 Y90.542 E1.40961
G0 F2025 X95.618 Y90.82
G1 F1800 X96.018 Y90.463 E1.41598
G1 X96.353 Y90.235 E1.4208
G1 X99.688 Y88.23 E1.46704
G1 X100.167 Y87.988 E1.47342
G1 X100.547 Y87.856 E1.4782
G1 X104.284 Y86.78 E1.52441
G1 X104.809 Y86.67 E1.53079
G1 X105.217 Y86.64 E1.53565
G1 X109.119 Y86.572 E1.58202
G1 X109.655 Y86.602 E1.5884
G1 X110.05 Y86.677 E1.59318
G1 X113.832 Y87.617 E1.63949
G1 X114.342 Y87.785 E1.64587
G1 X114.709 Y87.962 E1.65072
G1 X118.117 Y89.85 E1.69701
G1 X118.565 Y90.144 E1.70338
G1 X118.871 Y90.408 E1.70819
G1 X121.672 Y93.109 E1.75443
G1 X122.029 Y93.509 E1.7608
G1 X122.26 Y93.847 E1.76566
G1 X124.28 Y97.212 E1.8123
G1 X124.521 Y97.691 E1.81867
G1 X124.654 Y98.074 E1.82349
G1 X125.717 Y101.788 E1.8694
G1 X125.826 Y102.314 E1.87578
G1 X125.855 Y102.719 E1.88061
G1 X125.921 Y106.661 E1.92746
G1 X125.891 Y107.196 E1.93383
G1 X125.815 Y107.593 E1.93863
G1 X124.879 Y111.341 E1.98454
G1 X124.71 Y111.85 E1.99091
G1 X124.536 Y112.211 E1.99567
G1 X122.658 Y115.607 E2.04179
G1 X122.365 Y116.056 E2.04816
G1 X122.1 Y116.363 E2.05298
G1 X119.395 Y119.17 E2.09931
G1 X118.995 Y119.527 E2.10568
G1 X118.654 Y119.759 E2.11058
G1 X115.287 Y121.778 E2.15723
G1 X114.808 Y122.019 E2.16361
G1 X114.429 Y122.151 E2.16838
G1 X110.71 Y123.218 E2.21435
G1 X110.185 Y123.327 E2.22073
G1 X109.781 Y123.357 E2.22554
G1 X105.884 Y123.426 E2.27186
G1 X105.348 Y123.396 E2.27824
G1 X104.955 Y123.322 E2.28299
G1 X101.186 Y122.389 E2.32913
G1 X100.676 Y122.221 E2.33551
G1 X100.309 Y122.044 E2.34035
G1 X96.891 Y120.154 E2.38677
G1 X96.442 Y119.861 E2.39314
G1 X96.132 Y119.593 E2.39801
G1 X93.321 Y116.878 E2.44445
G1 X92.964 Y116.478 E2.45082
G1 X92.736 Y116.144 E2.45563
G1 X90.729 Y112.805 E2.50192
G1 X90.488 Y112.326 E2.50829
G1 X90.355 Y111.944 E2.5131
G1 X89.279 Y108.2 E2.55939
G1 X89.17 Y107.675 E2.56577
G1 X89.14 Y107.271 E2.57058
G1 X89.07 Y103.379 E2.61684
G1 X89.1 Y102.843 E2.62322
G1 X89.176 Y102.442 E2.62807
G1 X90.119 Y98.664 E2.67434
G1 X90.287 Y98.155 E2.68071
G1 X90.462 Y97.793 E2.68549
G1 X92.348 Y94.384 E2.73179
G1 X92.642 Y93.936 E2.73816
G1 X92.908 Y93.627 E2.743
G1 X95.618 Y90.82 E2.78937
G0 F2025 X95.906 Y91.097
G1 F1800 X96.285 Y90.763 E2.79537
G1 X96.559 Y90.577 E2.79931
G1 X99.894 Y88.572 E2.84555
G1 X100.347 Y88.347 E2.85156
G1 X100.658 Y88.24 E2.85547
G1 X104.395 Y87.164 E2.90168
G1 X104.89 Y87.063 E2.90768
G1 X105.224 Y87.039 E2.91166
G1 X109.126 Y86.971 E2.95804
G1 X109.631 Y87.003 E2.96405
G1 X109.954 Y87.065 E2.96796
G1 X113.736 Y88.005 E3.01427
G1 X114.215 Y88.166 E3.02028
G1 X114.515 Y88.312 E3.02424
G1 X117.923 Y90.2 E3.07054
G1 X118.344 Y90.479 E3.07654
G1 X118.593 Y90.696 E3.08047
G1 X121.394 Y93.397 E3.12671
G1 X121.729 Y93.775 E3.13271
G1 X121.917 Y94.053 E3.1367
G1 X123.937 Y97.418 E3.18334
G1 X124.162 Y97.871 E3.18935
G1 X124.269 Y98.184 E3.19328
G1 X125.332 Y101.898 E3.23919
G1 X125.433 Y102.394 E3.2452
G1 X125.456 Y102.725 E3.24915
G1 X125.522 Y106.667 E3.296
G1 X125.49 Y107.172 E3.30201
G1 X125.427 Y107.496 E3.30593
G1 X124.491 Y111.244 E3.35184
G1 X124.33 Y111.724 E3.35786
G1 X124.186 Y112.018 E3.36175
G1 X122.308 Y115.414 E3.40786
G1 X122.029 Y115.835 E3.41387
G1 X121.812 Y116.085 E3.4178
G1 X119.107 Y118.892 E3.46413
G1 X118.729 Y119.228 E3.47014
G1 X118.449 Y119.416 E3.47414
G1 X115.082 Y121.435 E3.5208
G1 X114.629 Y121.66 E3.52681
G1 X114.318 Y121.767 E3.53072
G1 X110.599 Y122.834 E3.57669
G1 X110.104 Y122.935 E3.5827
G1 X109.774 Y122.957 E3.58663
G1 X105.877 Y123.026 E3.63295
G1 X105.372 Y122.995 E3.63896
G1 X105.051 Y122.933 E3.64284
G1 X101.282 Y122 E3.68898
G1 X100.802 Y121.84 E3.695
G1 X100.503 Y121.694 E3.69895
G1 X97.085 Y119.804 E3.74537
G1 X96.663 Y119.526 E3.75137
G1 X96.41 Y119.306 E3.75535
G1 X93.599 Y116.591 E3.8018
G1 X93.264 Y116.212 E3.80781
G1 X93.079 Y115.938 E3.81174
G1 X91.072 Y112.599 E3.85803
G1 X90.847 Y112.146 E3.86404
G1 X90.739 Y111.834 E3.86797
G1 X89.663 Y108.09 E3.91426
G1 X89.563 Y107.594 E3.92027
G1 X89.54 Y107.264 E3.9242
G1 X89.47 Y103.372 E3.97046
G1 X89.5 Y102.867 E3.97647
G1 X89.564 Y102.539 E3.98044
G1 X90.507 Y98.761 E4.02672
G1 X90.668 Y98.282 E4.03272
G1 X90.812 Y97.987 E4.03662
G1 X92.698 Y94.578 E4.08292
G1 X92.977 Y94.156 E4.08893
G1 X93.196 Y93.904 E4.0929
G1 X95.906 Y91.097 E4.13927
G1 F2400 E3.13927
G0 F2025 X97.678 Y92.897
G0 X98.599 Y93.79
G0 X98.001 Y94.528
G0 X97.922 Y94.468
;TYPE:WALL-INNER
G1 F2400 E4.13927
G1 F1800 X97.938 Y94.441 E4.13964
G1 X98.587 Y93.775 E4.15069
G1 X101.802 Y91.848 E4.19523
G1 X104.264 Y91.143 E4.22567
G1 X104.302 Y91.138 E4.22612
G1 X105.396 Y90.821 E4.23966
G1 X109.137 Y90.761 E4.28412
G1 X112.774 Y91.673 E4.32868
G1 X116.043 Y93.491 E4.37313
G1 X118.728 Y96.09 E4.41754
G1 X120.657 Y99.317 E4.46221
G1 X121.674 Y102.892 E4.50638
G1 X121.738 Y106.549 E4.54985
G1 X121.735 Y106.659 E4.55116
G1 X120.828 Y110.267 E4.59537
G1 X119.01 Y113.546 E4.63992
G1 X116.894 Y115.731 E4.67607
G1 X116.851 Y115.766 E4.67673
G1 X116.414 Y116.224 E4.68425
G1 X113.186 Y118.155 E4.72895
G1 X109.605 Y119.175 E4.7732
G1 X105.866 Y119.237 E4.81763
G1 X102.24 Y118.333 E4.86204
G1 X98.956 Y116.507 E4.9067
G1 X96.275 Y113.907 E4.95108
G1 X94.349 Y110.693 E4.9956
G1 X93.322 Y107.096 E5.04006
G1 X93.26 Y103.356 E5.08451
G1 X94.172 Y99.733 E5.12891
G1 X95.992 Y96.453 E5.17348
G1 X97.922 Y94.468 E5.20638
G0 F2025 X97.603 Y94.222
;TYPE:WALL-OUTER
G1 F1800 X97.618 Y94.197 E5.20673
G1 X98.339 Y93.457 E5.21901
G1 X101.642 Y91.477 E5.26477
G1 X104.182 Y90.75 E5.29617
G1 X104.22 Y90.745 E5.29662
G1 X105.337 Y90.422 E5.31044
G1 X109.183 Y90.36 E5.35615
G1 X112.923 Y91.298 E5.40197
G1 X116.281 Y93.166 E5.44763
G1 X119.044 Y95.84 E5.49333
G1 X121.028 Y99.159 E5.53928
G1 X122.073 Y102.833 E5.58467
G1 X122.138 Y106.559 E5.62896
G1 X122.134 Y106.714 E5.6308
G1 X121.203 Y110.415 E5.67615
G1 X119.335 Y113.784 E5.72193
G1 X117.16 Y116.031 E5.75909
G1 X117.123 Y116.061 E5.75966
G1 X116.665 Y116.54 E5.76753
G1 X113.506 Y118.434 E5.8113
G1 X113.34 Y118.528 E5.81357
G1 X109.665 Y119.574 E5.85898
G1 X105.821 Y119.638 E5.90466
G1 X102.091 Y118.708 E5.95035
G1 X98.717 Y116.832 E5.99622
G1 X95.958 Y114.156 E6.0419
G1 X93.978 Y110.852 E6.08767
G1 X92.923 Y107.157 E6.13334
G1 X92.859 Y103.309 E6.17907
G1 X93.797 Y99.585 E6.22471
G1 X95.668 Y96.212 E6.27054
G1 X97.603 Y94.222 E6.30353
G0 F2025 X97.618 Y94.197
G0 X97.737 Y94.075
G0 X98.25 Y94.68
;TYPE:SKIN
G1 F1800 X98.83 Y94.084 E6.31341
G1 X101.961 Y92.208 E6.35679
G1 X104.346 Y91.525 E6.38627
G1 X104.382 Y91.521 E6.3867
G1 X105.456 Y91.211 E6.39998
G1 X109.093 Y91.151 E6.44321
G1 X112.629 Y92.039 E6.48653
G1 X115.807 Y93.806 E6.52974
G1 X118.42 Y96.335 E6.57296
G1 X120.296 Y99.474 E6.61642
G1 X121.284 Y102.949 E6.65935
G1 X121.346 Y106.607 E6.70282
G1 X120.462 Y110.122 E6.7459
G1 X118.694 Y113.313 E6.78925
G1 X116.628 Y115.445 E6.82453
G1 X116.585 Y115.48 E6.82519
G1 X116.171 Y115.914 E6.83231
G1 X113.027 Y117.795 E6.87585
G1 X109.548 Y118.785 E6.91884
G1 X105.908 Y118.847 E6.9621
G1 X102.386 Y117.968 E7.00524
G1 X99.19 Y116.191 E7.04869
G1 X96.586 Y113.666 E7.0918
G1 X94.709 Y110.534 E7.13519
G1 X93.712 Y107.039 E7.17838
G1 X93.65 Y103.4 E7.22163
G1 X94.538 Y99.878 E7.26479
G1 X96.309 Y96.684 E7.30819
G1 X98.235 Y94.705 E7.34101
G1 X98.25 Y94.68 E7.34135
G0 F2025 X96.1 Y112.505
G1 F1800 X100.066 Y116.471 E7.40801
G1 X100.136 Y116.541
G0 F2025 X101.341 Y117.181
G1 F1800 X95.254 Y111.093 E7.51031
G1 X95.184 Y111.023
G0 F2025 X94.749 Y110.022
G1 F1800 X102.549 Y117.823 E7.64141
G1 X102.619 Y117.893
G0 F2025 X103.303 Y118.011
G1 F1800 X94.523 Y109.231 E7.78896
G1 X94.453 Y109.161
G0 F2025 X94.298 Y108.44
G1 F1800 X104.057 Y118.199 E7.95297
G1 X104.127 Y118.269
G0 F2025 X104.81 Y118.387
G1 F1800 X94.072 Y107.649 E8.13343
G1 X94.002 Y107.579
G0 F2025 X93.889 Y106.9
G1 F1800 X105.563 Y118.574 E8.32963
G1 X105.633 Y118.644
G0 F2025 X106.215 Y118.66
G1 F1800 X93.879 Y106.324 E8.53694
G1 X93.809 Y106.254
G0 F2025 X93.869 Y105.749
G1 F1800 X106.771 Y118.651 E8.75377
G1 X106.841 Y118.721
G0 F2025 X107.327 Y118.641
G1 F1800 X93.859 Y105.173 E8.98012
G1 X93.789 Y105.103
G0 F2025 X93.85 Y104.598
G1 F1800 X107.883 Y118.632 E9.21596
G1 X107.953 Y118.702
G0 F2025 X108.439 Y118.622
G1 F1800 X93.84 Y104.022 E9.46132
G1 X93.77 Y103.952
G0 F2025 X93.83 Y103.446
G1 F1800 X108.995 Y118.612 E9.71619
G1 X109.065 Y118.682
G0 F2025 X109.545 Y118.596
G1 F1800 X93.938 Y102.989 E9.97848
G1 X93.868 Y102.919
G0 F2025 X94.052 Y102.537
G1 F1800 X109.986 Y118.471 E10.24626
G1 X110.056 Y118.541
G0 F2025 X110.426 Y118.346
G1 F1800 X94.166 Y102.085 E10.51954
G1 X94.096 Y102.015
G0 F2025 X94.279 Y101.633
G1 F1800 X110.867 Y118.221 E10.79831
G1 X110.937 Y118.291
G0 F2025 X111.307 Y118.096
G1 F1800 X94.394 Y101.182 E11.08256
G1 X94.324 Y101.112
G0 F2025 X94.508 Y100.73
G1 F1800 X111.748 Y117.97 E11.37229
G1 X111.818 Y118.04
G0 F2025 X112.188 Y117.845
G1 F1800 X94.622 Y100.279 E11.66751
G1 X94.552 Y100.209
G0 F2025 X94.758 Y99.849
G1 F1800 X112.629 Y117.72 E11.96784
G1 X112.699 Y117.79
G0 F2025 X113.046 Y117.572
G1 F1800 X94.96 Y99.485 E12.2718
G1 X94.89 Y99.415
G0 F2025 X95.162 Y99.122
G1 F1800 X113.4 Y117.36 E12.57831
G1 X113.47 Y117.43
G0 F2025 X113.754 Y117.148
G1 F1800 X95.363 Y98.758 E12.88738
G1 X95.293 Y98.688
G0 F2025 X95.565 Y98.393
G1 F1800 X114.108 Y116.937 E13.19902
G1 X114.178 Y117.007
G0 F2025 X114.462 Y116.724
G1 F1800 X95.767 Y98.03 E13.5132
G1 X95.697 Y97.96
G0 F2025 X95.969 Y97.666
G1 F1800 X114.816 Y116.513 E13.82994
G1 X114.886 Y116.583
G0 F2025 X115.17 Y116.301
G1 F1800 X96.17 Y97.302 E14.14924
G1 X96.1 Y97.232
G0 F2025 X96.372 Y96.938
G1 F1800 X115.524 Y116.089 E14.4711
G1 X115.594 Y116.159
G0 F2025 X115.877 Y115.877
G1 F1800 X96.619 Y96.619 E14.79475
G1 X96.549 Y96.549
G0 F2025 X96.899 Y96.333
G1 F1800 X116.194 Y115.628 E15.11902
G1 X116.264 Y115.698
G0 F2025 X116.471 Y115.339
G1 F1800 X97.178 Y96.047 E15.44325
G1 X97.108 Y95.977
G0 F2025 X97.457 Y95.76
G1 F1800 X116.753 Y115.056 E15.76753
G1 X116.823 Y115.126
G0 F2025 X117.032 Y114.769
G1 F1800 X97.737 Y95.474 E16.0918
G1 X97.667 Y95.404
G0 F2025 X98.015 Y95.187
G1 F1800 X117.31 Y114.482 E16.41607
G1 X117.38 Y114.552
G0 F2025 X117.589 Y114.194
G1 F1800 X98.294 Y94.9 E16.74033
G1 X98.224 Y94.83
G0 F2025 X98.568 Y94.608
G1 F1800 X117.867 Y113.907 E17.06467
G1 X117.937 Y113.977
G0 F2025 X118.146 Y113.62
G1 F1800 X98.847 Y94.321 E17.38901
G1 X98.777 Y94.251
G0 F2025 X99.177 Y94.086
G1 F1800 X118.424 Y113.332 E17.71246
G1 X118.494 Y113.402
G0 F2025 X118.66 Y113.003
G1 F1800 X99.53 Y93.874 E18.03395
G1 X99.46 Y93.804
G0 F2025 X99.884 Y93.661
G1 F1800 X118.861 Y112.639 E18.35289
G1 X118.931 Y112.709
G0 F2025 X119.063 Y112.275
G1 F1800 X100.238 Y93.45 E18.66926
G1 X100.168 Y93.38
G0 F2025 X100.592 Y93.238
G1 F1800 X119.264 Y111.91 E18.98306
G1 X119.334 Y111.98
G0 F2025 X119.466 Y111.546
G1 F1800 X100.945 Y93.026 E19.29431
G1 X100.875 Y92.956
G0 F2025 X101.299 Y92.814
G1 F1800 X119.667 Y111.182 E19.603
G1 X119.737 Y111.252
G0 F2025 X119.869 Y110.818
G1 F1800 X101.652 Y92.601 E19.90915
G1 X101.582 Y92.531
G0 F2025 X102.006 Y92.389
G1 F1800 X120.071 Y110.455 E20.21276
G1 X120.141 Y110.525
G0 F2025 X120.273 Y110.09
G1 F1800 X102.439 Y92.257 E20.51247
G1 X102.369 Y92.187
G0 F2025 X102.879 Y92.131
G1 F1800 X120.395 Y109.647 E20.80684
G1 X120.465 Y109.717
G0 F2025 X120.508 Y109.194
G1 F1800 X103.318 Y92.005 E21.09573
G1 X103.248 Y91.935
G0 F2025 X103.758 Y91.879
G1 F1800 X120.622 Y108.743 E21.37914
G1 X120.692 Y108.813
G0 F2025 X120.736 Y108.291
G1 F1800 X104.198 Y91.753 E21.65708
G1 X104.128 Y91.683
G0 F2025 X104.643 Y91.632
G1 F1800 X120.85 Y107.839 E21.92945
G1 X120.92 Y107.909
G0 F2025 X120.964 Y107.387
G1 F1800 X105.083 Y91.506 E22.19635
G1 X105.013 Y91.436
G0 F2025 X105.532 Y91.39
G1 F1800 X121.077 Y106.935 E22.45759
G1 X121.147 Y107.005
G0 F2025 X121.162 Y106.454
G1 F1800 X106.089 Y91.381 E22.71091
G1 X106.019 Y91.311
G0 F2025 X106.645 Y91.372
G1 F1800 X121.152 Y105.879 E22.95471
G1 X121.222 Y105.949
G0 F2025 X121.143 Y105.304
G1 F1800 X107.202 Y91.363 E23.189
G1 X107.132 Y91.293
G0 F2025 X107.758 Y91.353
G1 F1800 X121.133 Y104.728 E23.41378
G1 X121.203 Y104.798
G0 F2025 X121.123 Y104.153
G1 F1800 X108.314 Y91.344 E23.62905
G1 X108.244 Y91.274
G0 F2025 X108.871 Y91.334
G1 F1800 X121.113 Y103.577 E23.8348
G1 X121.183 Y103.647
G0 F2025 X121.104 Y103.002
G1 F1800 X109.554 Y91.452 E24.0289
G1 X109.484 Y91.382
G0 F2025 X110.31 Y91.643
G1 F1800 X120.889 Y102.222 E24.20669
G1 X120.959 Y102.292
G0 F2025 X120.665 Y101.432
G1 F1800 X111.065 Y91.832 E24.36803
G1 X110.995 Y91.762
G0 F2025 X111.821 Y92.022
G1 F1800 X120.44 Y100.641 E24.51288
G1 X120.51 Y100.711
G0 F2025 X120.216 Y99.851
G1 F1800 X112.587 Y92.222 E24.64109
G1 X112.517 Y92.152
G0 F2025 X113.861 Y92.93
G1 F1800 X119.612 Y98.681 E24.73774
G1 X119.682 Y98.751
G0 F2025 X118.772 Y97.275
G1 F1800 X115.134 Y93.638 E24.79887
G1 X115.064 Y93.568
G0 F2025 X98.021 Y94.499
G0 X97.939 Y94.45
;TIME_ELAPSED:80.884129
;LAYER:1
M106 S255
G0 F2362.5 X97.939 Y94.45 Z0.5
;TYPE:WALL-INNER
G1 F2100 X97.952 Y94.429 E24.79931
G1 X98.59 Y93.773 E24.81563
G1 X101.792 Y91.854 E24.88217
G1 X105.402 Y90.819 E24.94911
G1 X109.124 Y90.761 E25.01546
G1 X112.773 Y91.672 E25.08251
G1 X116.043 Y93.491 E25.14921
