;FLAVOR:Marlin
;TIME:395
;Filament used: 0.12489m
;Layer height: 0.3
;Generated with Cura_SteamEngine master
M104 S185
M109 S185
M82 ;absolute extrusion mode
; -- START GCODE --
G21                     ;set units to millimetres
G90                     ;set to absolute positioning
M106 S0                 ;set fan speed to zero (turned off)
G28 X0 Y0               ;move to the X/Y origin (Home)
G28 Z0                  ;move to the Z origin (Home)
G1 Z15.0 F1200          ;move Z to position 15.0 mm
G92 E0                  ;zero the extruded length
G1 E20 F200             ;extrude 20mm of feed stock
G92 E0                  ;zero the extruded length again
G1 F7200                ;set feedrate to 120 mm/s
; -- end of START GCODE --
G92 E0
G1 F2400 E-1
;LAYER_COUNT:32
;LAYER:0
M107
G0 F2025 X119.022 Y102.003 Z0.2
;TYPE:SKIRT
G1 F2400 E0
G1 F1800 X119.455 Y101.598 E0.00705
G1 X119.938 Y101.254 E0.01409
G1 X120.464 Y100.979 E0.02115
G1 X121.021 Y100.777 E0.02819
G1 X121.537 Y100.661 E0.03447
G1 X125.513 Y100.018 E0.08233
G1 X126.103 Y99.963 E0.08938
G1 X126.695 Y99.988 E0.09642
G1 X127.279 Y100.093 E0.10347
G1 X127.843 Y100.274 E0.11051
G1 X128.378 Y100.531 E0.11756
G1 X129.1 Y101.04 E0.12806
G1 X129.655 Y101.522 E0.13679
G1 X130.076 Y101.94 E0.14384
G1 X130.436 Y102.411 E0.15089
G1 X130.73 Y102.926 E0.15794
G1 X130.974 Y103.546 E0.16585
G1 X131.024 Y103.708 E0.16787
G1 X131.161 Y104.285 E0.17492
G1 X131.218 Y104.876 E0.18197
G1 X131.196 Y105.468 E0.18901
G1 X131.094 Y106.052 E0.19606
G1 X130.997 Y106.389 E0.20022
G1 X130.948 Y106.537 E0.20208
G1 X130.724 Y107.086 E0.20912
G1 X130.428 Y107.6 E0.21617
G1 X129.886 Y108.262 E0.22634
G1 X129.457 Y108.692 E0.23356
G1 X129.011 Y109.082 E0.2406
G1 X128.516 Y109.409 E0.24765
G1 X127.832 Y109.724 E0.2566
G1 X127.643 Y109.792 E0.25898
G1 X127.072 Y109.955 E0.26604
G1 X126.485 Y110.039 E0.27309
G1 X125.893 Y110.044 E0.28012
G1 X125.435 Y109.993 E0.2856
G1 X121.521 Y109.346 E0.33274
G1 X120.944 Y109.21 E0.33979
G1 X120.391 Y108.998 E0.34683
G1 X119.87 Y108.713 E0.35388
G1 X119.393 Y108.361 E0.36093
G1 X118.968 Y107.948 E0.36797
G1 X118.602 Y107.481 E0.37502
G1 X118.302 Y106.97 E0.38206
G1 X118.074 Y106.423 E0.3891
G1 X117.921 Y105.85 E0.39615
G1 X117.846 Y105.261 E0.40321
G1 X117.852 Y104.669 E0.41024
G1 X117.937 Y104.082 E0.41729
G1 X118.1 Y103.512 E0.42434
G1 X118.339 Y102.969 E0.43139
G1 X118.648 Y102.463 E0.43843
G1 X119.022 Y102.003 E0.44548
G0 F2025 X119.218 Y102.383
G1 F1800 X119.618 Y101.983 E0.4522
G1 X120.07 Y101.644 E0.45891
G1 X120.566 Y101.372 E0.46564
G1 X121.094 Y101.172 E0.47235
G1 X121.6 Y101.056 E0.47852
G1 X125.576 Y100.413 E0.52638
G1 X126.139 Y100.363 E0.5331
G1 X126.704 Y100.392 E0.53982
G1 X127.259 Y100.501 E0.54654
G1 X127.793 Y100.686 E0.55326
G1 X128.295 Y100.945 E0.55997
G1 X128.838 Y101.342 E0.56796
G1 X129.393 Y101.824 E0.5767
G1 X129.792 Y102.224 E0.58341
G1 X130.132 Y102.676 E0.59013
G1 X130.404 Y103.172 E0.59686
G1 X130.592 Y103.664 E0.60311
G1 X130.642 Y103.826 E0.60513
G1 X130.77 Y104.377 E0.61185
G1 X130.819 Y104.94 E0.61857
G1 X130.789 Y105.505 E0.62529
G1 X130.617 Y106.263 E0.63453
G1 X130.568 Y106.411 E0.63638
G1 X130.353 Y106.934 E0.6431
G1 X130.066 Y107.421 E0.64982
G1 X129.603 Y107.979 E0.65843
G1 X129.174 Y108.409 E0.66565
G1 X128.747 Y108.78 E0.67237
G1 X128.273 Y109.087 E0.67908
G1 X127.696 Y109.348 E0.68661
G1 X127.507 Y109.416 E0.689
G1 X126.963 Y109.569 E0.69571
G1 X126.403 Y109.644 E0.70243
G1 X125.837 Y109.64 E0.70915
G1 X125.501 Y109.598 E0.71318
G1 X121.587 Y108.951 E0.76032
G1 X121.037 Y108.82 E0.76704
G1 X120.511 Y108.612 E0.77376
G1 X120.02 Y108.333 E0.78047
G1 X119.573 Y107.987 E0.78719
G1 X119.179 Y107.581 E0.79391
G1 X118.846 Y107.124 E0.80063
G1 X118.581 Y106.624 E0.80736
G1 X118.39 Y106.093 E0.81406
G1 X118.275 Y105.539 E0.82079
G1 X118.239 Y104.975 E0.8275
G1 X118.283 Y104.411 E0.83423
G1 X118.407 Y103.86 E0.84094
G1 X118.606 Y103.331 E0.84765
G1 X118.879 Y102.835 E0.85438
G1 X119.218 Y102.383 E0.8611
G0 F2025 X119.441 Y102.74
G1 F1800 X119.808 Y102.349 E0.86747
G1 X120.23 Y102.018 E0.87384
G1 X120.696 Y101.752 E0.88022
G1 X121.196 Y101.559 E0.88659
G1 X121.664 Y101.451 E0.8923
G1 X125.64 Y100.808 E0.94016
G1 X126.175 Y100.762 E0.94654
G1 X126.71 Y100.796 E0.95291
G1 X127.234 Y100.909 E0.95928
G1 X127.736 Y101.099 E0.96566
G1 X128.204 Y101.361 E0.97203
G1 X128.576 Y101.644 E0.97759
G1 X129.131 Y102.126 E0.98632
G1 X129.508 Y102.507 E0.99269
G1 X129.825 Y102.939 E0.99906
G1 X130.074 Y103.414 E1.00543
G1 X130.21 Y103.782 E1.0101
G1 X130.26 Y103.944 E1.01211
G1 X130.379 Y104.467 E1.01848
G1 X130.42 Y105.002 E1.02486
G1 X130.381 Y105.537 E1.03123
G1 X130.238 Y106.137 E1.03856
G1 X130.189 Y106.285 E1.04042
G1 X129.983 Y106.781 E1.0468
G1 X129.705 Y107.24 E1.05318
G1 X129.32 Y107.697 E1.06028
G1 X128.891 Y108.127 E1.0675
G1 X128.485 Y108.477 E1.07387
G1 X128.031 Y108.763 E1.08024
G1 X127.561 Y108.971 E1.08635
G1 X127.372 Y109.039 E1.08874
G1 X126.855 Y109.183 E1.09511
G1 X126.323 Y109.248 E1.10148
G1 X125.566 Y109.204 E1.11049
G1 X121.652 Y108.557 E1.15764
G1 X121.131 Y108.43 E1.16401
G1 X120.634 Y108.228 E1.17039
G1 X120.173 Y107.953 E1.17677
G1 X119.758 Y107.614 E1.18313
G1 X119.398 Y107.216 E1.18951
G1 X119.101 Y106.77 E1.19588
G1 X118.874 Y106.284 E1.20225
G1 X118.721 Y105.77 E1.20863
G1 X118.647 Y105.239 E1.215
G1 X118.652 Y104.703 E1.22137
G1 X118.736 Y104.173 E1.22774
G1 X118.899 Y103.662 E1.23412
G1 X119.135 Y103.181 E1.24048
G1 X119.441 Y102.74 E1.24686
G0 F2025 X120.026 Y102.693
G1 F1800 X120.418 Y102.374 E1.25287
G1 X120.855 Y102.12 E1.25888
G1 X121.327 Y101.938 E1.26489
G1 X121.728 Y101.846 E1.26978
G1 X125.704 Y101.203 E1.31764
G1 X126.208 Y101.162 E1.32365
G1 X126.712 Y101.201 E1.32966
G1 X127.204 Y101.319 E1.33567
G1 X127.671 Y101.512 E1.34167
G1 X128.101 Y101.777 E1.34768
G1 X128.313 Y101.946 E1.3509
G1 X128.868 Y102.428 E1.35963
G1 X129.223 Y102.789 E1.36565
G1 X129.516 Y103.201 E1.37166
G1 X129.74 Y103.653 E1.37765
G1 X129.828 Y103.9 E1.38077
G1 X129.878 Y104.062 E1.38278
G1 X129.988 Y104.556 E1.3888
G1 X130.02 Y105.06 E1.3948
G1 X129.971 Y105.563 E1.4008
G1 X129.858 Y106.012 E1.40631
G1 X129.809 Y106.16 E1.40816
G1 X129.613 Y106.626 E1.41417
G1 X129.345 Y107.055 E1.42018
G1 X129.036 Y107.414 E1.42581
G1 X128.607 Y107.844 E1.43302
G1 X128.223 Y108.173 E1.43903
G1 X127.792 Y108.437 E1.44504
G1 X127.425 Y108.595 E1.44979
G1 X127.236 Y108.663 E1.45218
G1 X126.749 Y108.796 E1.45817
G1 X126.246 Y108.851 E1.46419
G1 X125.631 Y108.809 E1.47151
G1 X121.717 Y108.162 E1.51866
G1 X121.226 Y108.041 E1.52467
G1 X120.761 Y107.843 E1.53067
G1 X120.332 Y107.575 E1.53668
G1 X119.951 Y107.243 E1.54269
G1 X119.628 Y106.854 E1.5487
G1 X119.369 Y106.42 E1.5547
G1 X119.182 Y105.95 E1.56071
G1 X119.071 Y105.457 E1.56672
G1 X119.039 Y104.952 E1.57273
G1 X119.088 Y104.449 E1.57874
G1 X119.215 Y103.96 E1.58474
G1 X119.417 Y103.496 E1.59076
G1 X119.69 Y103.071 E1.59676
G1 X120.026 Y102.693 E1.60277
G0 F2025 X97.156 Y104.74
G1 F1800 X97.151 Y105.333 E1.60982
G1 X97.066 Y105.92 E1.61686
G1 X96.903 Y106.49 E1.62391
G1 X96.665 Y107.033 E1.63096
G1 X96.356 Y107.539 E1.638
G1 X95.981 Y107.999 E1.64505
G1 X95.548 Y108.404 E1.6521
G1 X95.065 Y108.747 E1.65914
G1 X94.54 Y109.023 E1.66619
G1 X93.982 Y109.225 E1.67324
G1 X93.484 Y109.338 E1.67931
G1 X89.542 Y109.992 E1.72679
G1 X88.952 Y110.049 E1.73384
G1 X88.359 Y110.027 E1.74089
G1 X87.775 Y109.925 E1.74793
G1 X87.422 Y109.822 E1.7523
G1 X87.279 Y109.774 E1.7541
G1 X86.731 Y109.548 E1.76114
G1 X86.218 Y109.25 E1.76819
G1 X85.578 Y108.725 E1.77803
G1 X85.13 Y108.28 E1.78553
G1 X84.739 Y107.834 E1.79258
G1 X84.41 Y107.341 E1.79962
G1 X84.152 Y106.807 E1.80667
G1 X84.032 Y106.472 E1.8109
G1 X83.981 Y106.309 E1.81293
G1 X83.842 Y105.732 E1.81998
G1 X83.782 Y105.142 E1.82703
G1 X83.803 Y104.55 E1.83407
G1 X83.902 Y103.965 E1.84112
G1 X84.08 Y103.399 E1.84817
G1 X84.331 Y102.863 E1.8552
G1 X84.794 Y102.186 E1.86495
G1 X85.276 Y101.605 E1.87392
G1 X85.684 Y101.175 E1.88097
G1 X86.147 Y100.804 E1.88802
G1 X86.655 Y100.498 E1.89506
G1 X87.16 Y100.278 E1.90161
G1 X87.339 Y100.213 E1.90387
G1 X87.909 Y100.049 E1.91092
G1 X88.496 Y99.963 E1.91797
G1 X89.088 Y99.956 E1.92501
G1 X89.558 Y100.008 E1.93063
G1 X93.481 Y100.656 E1.97788
G1 X94.058 Y100.792 E1.98492
G1 X94.612 Y101.004 E1.99197
G1 X95.132 Y101.289 E1.99902
G1 X95.609 Y101.641 E2.00606
G1 X96.035 Y102.054 E2.01311
G1 X96.401 Y102.52 E2.02016
G1 X96.701 Y103.032 E2.02721
G1 X96.929 Y103.579 E2.03425
G1 X97.082 Y104.152 E2.0413
G1 X97.156 Y104.74 E2.04834
G0 F2025 X96.728 Y104.462
G1 F1800 X96.764 Y105.027 E2.05507
G1 X96.72 Y105.59 E2.06178
G1 X96.597 Y106.142 E2.0685
G1 X96.397 Y106.671 E2.07522
G1 X96.125 Y107.166 E2.08193
G1 X95.785 Y107.618 E2.08865
G1 X95.385 Y108.018 E2.09538
G1 X94.933 Y108.358 E2.1021
G1 X94.438 Y108.63 E2.10881
G1 X93.909 Y108.83 E2.11553
G1 X93.419 Y108.943 E2.12151
G1 X89.477 Y109.597 E2.16899
G1 X88.914 Y109.65 E2.17571
G1 X88.349 Y109.623 E2.18243
G1 X87.549 Y109.443 E2.19218
G1 X87.406 Y109.395 E2.19397
G1 X86.884 Y109.178 E2.20069
G1 X86.398 Y108.889 E2.20741
G1 X85.86 Y108.441 E2.21573
G1 X85.412 Y107.996 E2.22323
G1 X85.04 Y107.57 E2.22995
G1 X84.732 Y107.096 E2.23667
G1 X84.413 Y106.352 E2.24629
G1 X84.362 Y106.189 E2.24832
G1 X84.232 Y105.639 E2.25503
G1 X84.181 Y105.076 E2.26175
G1 X84.209 Y104.512 E2.26846
G1 X84.317 Y103.957 E2.27518
G1 X84.502 Y103.423 E2.2819
G1 X84.76 Y102.92 E2.28862
G1 X85.101 Y102.441 E2.2956
G1 X85.583 Y101.86 E2.30457
G1 X85.974 Y101.452 E2.31129
G1 X86.419 Y101.102 E2.31802
G1 X86.908 Y100.819 E2.32473
G1 X87.297 Y100.654 E2.32975
G1 X87.476 Y100.589 E2.33202
G1 X88.019 Y100.434 E2.33873
G1 X88.58 Y100.358 E2.34545
G1 X89.145 Y100.361 E2.35217
G1 X89.493 Y100.402 E2.35633
G1 X93.416 Y101.05 E2.40358
G1 X93.966 Y101.182 E2.41031
G1 X94.492 Y101.389 E2.41702
G1 X94.983 Y101.669 E2.42374
G1 X95.43 Y102.015 E2.43046
G1 X95.824 Y102.421 E2.43718
G1 X96.156 Y102.878 E2.44389
G1 X96.421 Y103.377 E2.45061
G1 X96.613 Y103.909 E2.45733
G1 X96.728 Y104.462 E2.46404
G0 F2025 X96.356 Y104.763
G1 F1800 X96.351 Y105.299 E2.47041
G1 X96.267 Y105.828 E2.47678
G1 X96.104 Y106.34 E2.48316
G1 X95.868 Y106.821 E2.48953
G1 X95.562 Y107.262 E2.49591
G1 X95.195 Y107.652 E2.50227
G1 X94.773 Y107.984 E2.50865
G1 X94.307 Y108.249 E2.51502
G1 X93.807 Y108.443 E2.52139
G1 X93.353 Y108.548 E2.52693
G1 X89.411 Y109.202 E2.57442
G1 X88.877 Y109.251 E2.58079
G1 X88.342 Y109.219 E2.58716
G1 X87.676 Y109.064 E2.59529
G1 X87.533 Y109.016 E2.59708
G1 X87.039 Y108.808 E2.60345
G1 X86.581 Y108.529 E2.60982
G1 X86.142 Y108.157 E2.61666
G1 X85.694 Y107.712 E2.62416
G1 X85.343 Y107.307 E2.63053
G1 X85.056 Y106.854 E2.6369
G1 X84.795 Y106.233 E2.64491
G1 X84.744 Y106.07 E2.64694
G1 X84.623 Y105.548 E2.65331
G1 X84.58 Y105.013 E2.65968
G1 X84.617 Y104.478 E2.66606
G1 X84.734 Y103.955 E2.67243
G1 X84.926 Y103.454 E2.6788
G1 X85.191 Y102.988 E2.68517
G1 X85.409 Y102.696 E2.6895
G1 X85.891 Y102.115 E2.69847
G1 X86.264 Y101.729 E2.70485
G1 X86.689 Y101.403 E2.71122
G1 X87.158 Y101.143 E2.71759
G1 X87.433 Y101.03 E2.72112
G1 X87.612 Y100.965 E2.72339
G1 X88.129 Y100.82 E2.72977
G1 X88.661 Y100.754 E2.73614
G1 X89.428 Y100.797 E2.74527
G1 X93.351 Y101.445 E2.79252
G1 X93.872 Y101.572 E2.79889
G1 X94.368 Y101.774 E2.80525
G1 X94.829 Y102.048 E2.81163
G1 X95.244 Y102.388 E2.818
G1 X95.605 Y102.785 E2.82438
G1 X95.902 Y103.232 E2.83076
G1 X96.129 Y103.718 E2.83713
G1 X96.282 Y104.232 E2.8435
G1 X96.356 Y104.763 E2.84988
G0 F2025 X95.932 Y104.545
G1 F1800 X95.964 Y105.049 E2.85588
G1 X95.915 Y105.552 E2.86188
G1 X95.789 Y106.042 E2.8679
G1 X95.586 Y106.505 E2.8739
G1 X95.314 Y106.931 E2.87991
G1 X94.977 Y107.308 E2.88592
G1 X94.586 Y107.628 E2.89192
G1 X94.148 Y107.882 E2.89794
G1 X93.677 Y108.064 E2.90394
G1 X93.288 Y108.154 E2.90869
G1 X89.346 Y108.808 E2.95617
G1 X88.842 Y108.851 E2.96218
G1 X88.338 Y108.814 E2.96819
G1 X87.804 Y108.685 E2.97472
G1 X87.661 Y108.637 E2.97651
G1 X87.196 Y108.438 E2.98252
G1 X86.768 Y108.169 E2.98853
G1 X86.424 Y107.873 E2.99392
G1 X85.976 Y107.428 E3.00142
G1 X85.646 Y107.045 E3.00743
G1 X85.382 Y106.614 E3.01344
G1 X85.177 Y106.114 E3.01986
G1 X85.126 Y105.951 E3.02189
G1 X85.014 Y105.458 E3.0279
G1 X84.98 Y104.953 E3.03391
G1 X85.027 Y104.45 E3.03991
G1 X85.152 Y103.96 E3.04592
G1 X85.353 Y103.496 E3.05193
G1 X85.717 Y102.952 E3.05971
G1 X86.199 Y102.371 E3.06868
G1 X86.552 Y102.008 E3.0747
G1 X86.957 Y101.706 E3.0807
G1 X87.57 Y101.406 E3.08881
G1 X87.749 Y101.341 E3.09108
G1 X88.236 Y101.207 E3.09708
G1 X88.739 Y101.151 E3.10309
G1 X89.363 Y101.192 E3.11052
G1 X93.286 Y101.84 E3.15778
G1 X93.776 Y101.961 E3.16377
G1 X94.242 Y102.159 E3.16979
G1 X94.67 Y102.427 E3.17579
G1 X95.051 Y102.759 E3.1818
G1 X95.375 Y103.147 E3.1878
G1 X95.634 Y103.582 E3.19382
G1 X95.821 Y104.051 E3.19982
G1 X95.932 Y104.545 E3.20584
G1 F2400 E2.20584
G0 F2025 X90.107 Y104.73
G0 X89.265 Y104.999
G0 X89.027 Y105.164
G0 X89.099 Y105.232
;TYPE:WALL-OUTER
G1 F2400 E3.20584
G1 F1800 X89.087 Y105.245 E3.20605
G1 X89.069 Y105.262 E3.20634
G1 X88.888 Y105.434 E3.20931
G1 X88.832 Y105.453 E3.21001
G1 X88.776 Y105.435 E3.21071
G1 X88.763 Y105.423 E3.21092
G1 X88.577 Y105.245 E3.21398
G1 X88.414 Y105.074 E3.21679
G1 X88.397 Y105.056 E3.21708
G1 X88.379 Y104.998 E3.2178
G1 X88.396 Y104.946 E3.21845
G1 X88.577 Y104.757 E3.22156
G1 X88.595 Y104.74 E3.22186
G1 X88.776 Y104.568 E3.22482
G1 X88.832 Y104.549 E3.22553
G1 X88.888 Y104.567 E3.22623
G1 X89.081 Y104.751 E3.22939
G1 X89.25 Y104.926 E3.23229
G1 X89.267 Y104.944 E3.23258
G1 X89.285 Y104.999 E3.23327
G1 X89.267 Y105.055 E3.23397
G1 X89.099 Y105.232 E3.23687
G0 F2025 X89.087 Y105.245
G0 X89.069 Y105.262
G0 X88.954 Y105.371
G0 X88.966 Y105.088
;TYPE:SKIN
G1 F1800 X88.744 Y104.866 E3.23873
G0 F2025 X88.814 Y104.951
G1 F2400 E2.23873
G0 F2025 X89.265 Y104.999
G0 X90.107 Y104.73
G0 X124.893 Y104.729
G0 X125.735 Y104.998
G0 X126.363 Y105.164
G0 X126.435 Y105.232
;TYPE:WALL-OUTER
G1 F2400 E3.23873
G1 F1800 X126.423 Y105.245 E3.23894
G1 X126.405 Y105.262 E3.23924
G1 X126.224 Y105.434 E3.2422
G1 X126.168 Y105.453 E3.24291
G1 X126.112 Y105.435 E3.24361
G1 X126.099 Y105.423 E3.24382
G1 X125.913 Y105.245 E3.24688
G1 X125.75 Y105.074 E3.24968
G1 X125.733 Y105.056 E3.24998
G1 X125.715 Y104.998 E3.2507
G1 X125.732 Y104.946 E3.25135
G1 X125.913 Y104.757 E3.25446
G1 X125.931 Y104.74 E3.25475
G1 X126.112 Y104.568 E3.25772
G1 X126.168 Y104.549 E3.25842
G1 X126.224 Y104.567 E3.25912
G1 X126.417 Y104.751 E3.26229
G1 X126.586 Y104.926 E3.26518
G1 X126.603 Y104.944 E3.26548
G1 X126.621 Y104.999 E3.26616
G1 X126.603 Y105.055 E3.26686
G1 X126.435 Y105.232 E3.26976
G0 F2025 X126.423 Y105.245
G0 X126.405 Y105.262
G0 X126.29 Y105.371
G0 X126.301 Y105.088
;TYPE:SKIN
G1 F1800 X126.079 Y104.866 E3.27163
G0 F2025 X126.15 Y104.951
G1 F2400 E2.27163
G0 F2025 X125.735 Y104.998
G0 X124.893 Y104.729
G0 X90.092 Y104.685
G0 X89.25 Y104.954
G0 X88.835 Y104.654
G0 X89.218 Y103.913
;TIME_ELAPSED:21.742465
;LAYER:1
M106 S255
G0 F2362.5 X89.218 Y103.913 Z0.5
;TYPE:WALL-INNER
G1 F2400 E3.27163
G1 F1291.5 X89.657 Y104.186 E3.28084
G1 X89.679 Y104.208 E3.2814
G1 X89.929 Y104.641 E3.29031
G1 X89.996 Y105.001 E3.29684
G1 X89.927 Y105.359 E3.30334
G1 X89.664 Y105.813 E3.31269
G1 X89.22 Y106.087 E3.32199
G1 X88.832 Y106.164 E3.32904
G1 X88.444 Y106.087 E3.33609
G1 X87.99 Y105.801 E3.34566
G1 X87.735 Y105.356 E3.3548
G1 X87.667 Y105.002 E3.36122
G1 X87.735 Y104.641 E3.36777
G1 X88 Y104.189 E3.37711
G1 X88.446 Y103.913 E3.38646
G1 X88.832 Y103.837 E3.39347
G1 X89.218 Y103.913 E3.40049
G0 F2362.5 X89.369 Y103.536
;TYPE:WALL-OUTER
G1 F922.5 X89.906 Y103.869 E3.41175
G1 X90 Y103.964 E3.41413
G1 X90.31 Y104.501 E3.42518
G1 X90.403 Y105.003 E3.43429
G1 X90.308 Y105.498 E3.44327
G1 X89.998 Y106.041 E3.45442
G1 X89.916 Y106.127 E3.45653
G1 X89.37 Y106.465 E3.46798
G1 X88.832 Y106.571 E3.47775
G1 X88.294 Y106.465 E3.48753
G1 X87.748 Y106.127 E3.49898
G1 X87.666 Y106.041 E3.50109
G1 X87.354 Y105.497 E3.51227
G1 X87.26 Y105.003 E3.52124
G1 X87.355 Y104.5 E3.53036
G1 X87.664 Y103.963 E3.5414
G1 X87.748 Y103.875 E3.54357
