;FLAVOR:Marlin
;TIME:1629
;Filament used: 0.561225m
;Layer height: 0.3
;Generated with Cura_SteamEngine master
M104 S185
M109 S185
M82 ;absolute extrusion mode
; -- START GCODE --
G21                     ;set units to millimetres
G90                     ;set to absolute positioning
M106 S0                 ;set fan speed to zero (turned off)
G28 X0 Y0               ;move to the X/Y origin (Home)
G28 Z0                  ;move to the Z origin (Home)
G1 Z15.0 F1200          ;move Z to position 15.0 mm
G92 E0                  ;zero the extruded length
G1 E20 F200             ;extrude 20mm of feed stock
G92 E0                  ;zero the extruded length again
G1 F7200                ;set feedrate to 120 mm/s
; -- end of START GCODE --
G92 E0
G1 F2400 E-1
;LAYER_COUNT:19
;LAYER:0
M107
G0 F2025 X90.039 Y92.841 Z0.2
;TYPE:SKIRT
G1 F2400 E0
G1 F1800 X90.37 Y92.589 E0.00494
G1 X94.602 Y89.735 E0.0656
G1 X99.685 Y85.888 E0.14136
G1 X100.136 Y85.598 E0.14773
G1 X100.625 Y85.377 E0.15411
G1 X101.141 Y85.231 E0.16048
G1 X101.673 Y85.164 E0.16685
G1 X102.078 Y85.166 E0.17166
G1 X104.307 Y85.302 E0.1982
G1 X109.807 Y85.42 E0.26357
G1 X111.745 Y85.389 E0.28661
G1 X112.28 Y85.421 E0.29298
G1 X112.805 Y85.531 E0.29935
G1 X113.308 Y85.719 E0.30573
G1 X113.885 Y86.052 E0.31365
G1 X120.955 Y91.065 E0.41664
G1 X122.916 Y92.317 E0.44429
G1 X123.345 Y92.639 E0.45067
G1 X123.722 Y93.02 E0.45704
G1 X124.038 Y93.454 E0.46342
G1 X124.286 Y93.929 E0.46978
G1 X124.398 Y94.224 E0.47353
G1 X125.715 Y98.216 E0.52349
G1 X128.013 Y104.198 E0.59964
G1 X128.167 Y104.712 E0.60602
G1 X128.244 Y105.242 E0.61238
G1 X128.24 Y105.779 E0.61876
G1 X128.157 Y106.308 E0.62513
G1 X128.083 Y106.58 E0.62847
G1 X127.425 Y108.649 E0.65428
G1 X125.951 Y113.975 E0.71995
G1 X125.167 Y117.281 E0.76032
G1 X125.005 Y117.792 E0.76669
G1 X124.768 Y118.273 E0.77307
G1 X124.463 Y118.714 E0.77944
G1 X124.096 Y119.105 E0.78581
G1 X123.735 Y119.395 E0.79131
G1 X119.498 Y122.374 E0.85286
G1 X115.078 Y125.775 E0.91914
G1 X114.63 Y126.07 E0.92551
G1 X114.143 Y126.294 E0.93188
G1 X113.628 Y126.444 E0.93826
G1 X113.097 Y126.516 E0.94463
G1 X112.808 Y126.521 E0.94806
G1 X109.454 Y126.451 E0.98793
G1 X103.916 Y126.541 E1.05375
G1 X101.882 Y126.653 E1.07795
G1 X101.346 Y126.642 E1.08432
G1 X100.817 Y126.552 E1.0907
G1 X100.308 Y126.385 E1.09707
G1 X99.829 Y126.143 E1.10344
G1 X99.448 Y125.88 E1.10895
G1 X95.446 Y122.709 E1.16962
G1 X90.621 Y119.301 E1.23982
G1 X90.207 Y118.959 E1.2462
G1 X89.849 Y118.561 E1.25257
G1 X89.554 Y118.113 E1.25894
G1 X89.275 Y117.476 E1.2672
G1 X87.007 Y110.519 E1.35416
G1 X85.794 Y107.33 E1.39471
G1 X85.641 Y106.816 E1.40108
G1 X85.567 Y106.285 E1.40745
G1 X85.572 Y105.749 E1.41382
G1 X85.656 Y105.219 E1.4202
G1 X85.739 Y104.925 E1.42383
G1 X87.874 Y98.436 E1.50501
G1 X88.909 Y94.63 E1.55188
G1 X89.088 Y94.124 E1.55826
G1 X89.34 Y93.651 E1.56462
G1 X89.659 Y93.22 E1.571
G1 X90.039 Y92.841 E1.57737
G0 F2025 X90.389 Y93.071
G1 F1800 X90.594 Y92.921 E1.58039
G1 X94.834 Y90.062 E1.64116
G1 X99.927 Y86.207 E1.71707
G1 X100.353 Y85.935 E1.72308
G1 X100.816 Y85.733 E1.72908
G1 X101.306 Y85.607 E1.73509
G1 X102.054 Y85.565 E1.74399
G1 X104.3 Y85.703 E1.77074
G1 X109.805 Y85.82 E1.83617
G1 X111.751 Y85.789 E1.8593
G1 X112.256 Y85.821 E1.86531
G1 X112.749 Y85.932 E1.87132
G1 X113.219 Y86.119 E1.87733
G1 X113.654 Y86.379 E1.88335
G1 X120.735 Y91.4 E1.9865
G1 X122.701 Y92.655 E2.01422
G1 X123.104 Y92.959 E2.02022
G1 X123.454 Y93.324 E2.02623
G1 X123.743 Y93.739 E2.03224
G1 X124.018 Y94.349 E2.04019
G1 X125.34 Y98.358 E2.09036
G1 X127.639 Y104.341 E2.16652
G1 X127.783 Y104.826 E2.17254
G1 X127.848 Y105.328 E2.17855
G1 X127.833 Y105.833 E2.18456
G1 X127.701 Y106.459 E2.19216
G1 X127.044 Y108.524 E2.21791
G1 X125.565 Y113.867 E2.28379
G1 X124.778 Y117.188 E2.32435
G1 X124.623 Y117.669 E2.33036
G1 X124.394 Y118.12 E2.33637
G1 X124.096 Y118.529 E2.34238
G1 X123.739 Y118.886 E2.34838
G1 X123.505 Y119.068 E2.3519
G1 X119.257 Y122.055 E2.41361
G1 X114.834 Y125.458 E2.47993
G1 X114.411 Y125.734 E2.48593
G1 X113.949 Y125.939 E2.49194
G1 X113.46 Y126.07 E2.49796
G1 X112.816 Y126.121 E2.50563
G1 X109.456 Y126.051 E2.54557
G1 X103.888 Y126.141 E2.61175
G1 X101.86 Y126.253 E2.63588
G1 X101.355 Y126.241 E2.64189
G1 X100.857 Y126.149 E2.64791
G1 X100.381 Y125.981 E2.6539
G1 X99.937 Y125.739 E2.65991
G1 X99.697 Y125.566 E2.66343
G1 X95.691 Y122.392 E2.72417
G1 X90.852 Y118.974 E2.79457
G1 X90.463 Y118.65 E2.80058
G1 X90.13 Y118.27 E2.80659
G1 X89.862 Y117.842 E2.81259
G1 X89.656 Y117.352 E2.81891
G1 X87.389 Y110.397 E2.90584
G1 X86.168 Y107.188 E2.94664
G1 X86.026 Y106.703 E2.95264
G1 X85.963 Y106.201 E2.95866
G1 X85.979 Y105.696 E2.96466
G1 X86.119 Y105.05 E2.97252
G1 X88.258 Y98.551 E3.05382
G1 X89.295 Y94.735 E3.10081
G1 X89.466 Y94.259 E3.10682
G1 X89.709 Y93.816 E3.11283
G1 X90.02 Y93.417 E3.11884
G1 X90.389 Y93.071 E3.12485
G1 F2400 E2.12485
G0 F2025 X92.198 Y94.91
G0 X92.608 Y95.689
G0 X93.096 Y95.991
G0 X93.205 Y95.99
;TYPE:WALL-OUTER
G1 F2400 E3.12485
G1 F1800 X93.094 Y96.192 E3.12759
G1 X92.632 Y95.977 E3.13365
G1 X92.591 Y95.68 E3.13721
G1 X92.978 Y95.477 E3.1424
G1 X93.205 Y95.99 E3.14907
G0 F2025 X93.109 Y96.165
G0 X92.902 Y95.662
G1 F2400 E2.14907
G0 F2025 X93.088 Y96.173
G0 X92.718 Y96.971
G0 X89.879 Y104.778
G0 X89.57 Y105.605
G0 X89.924 Y105.823
G0 X89.958 Y105.731
G1 F2400 E3.14907
G1 F1800 X90.059 Y105.768 E3.15035
G1 X90.255 Y105.841 E3.15283
G1 X89.945 Y106.075 E3.15558
G1 X89.842 Y106.106 E3.15675
G1 X89.681 Y106.155 E3.15875
G1 X89.535 Y106.199 E3.16056
G1 X89.374 Y106.003 E3.16358
G1 X89.431 Y105.861 E3.1654
G1 X89.547 Y105.577 E3.16904
G1 X89.958 Y105.731 E3.17426
G0 F2025 X90.059 Y105.768
G0 X90.146 Y105.8
G0 X89.794 Y105.916
;TYPE:SKIN
G1 F1800 X89.729 Y105.851 E3.1748
G0 F2025 X89.575 Y105.769
G1 F2400 E2.1748
G0 F2025 X89.576 Y105.769
G0 X89.936 Y106.058
G0 X90.191 Y106.903
G0 X92.687 Y114.958
G0 X92.735 Y115.832
G0 X92.918 Y116.119
G0 X92.88 Y116.212
;TYPE:WALL-OUTER
G1 F2400 E3.1748
G1 F1800 X92.838 Y116.197 E3.17533
G1 X92.719 Y115.821 E3.18002
G1 X92.817 Y115.816
G1 X92.862 Y115.814 E3.18054
G1 X93.278 Y115.79 E3.1855
G1 X93.43 Y115.85 E3.18744
G1 X93.391 Y115.892
G1 X93.048 Y116.265 E3.19346
G1 X92.926 Y116.23 E3.19497
G1 X92.88 Y116.212 E3.19555
G0 F2025 X92.838 Y116.197
G0 X92.791 Y116.049
G1 F2400 E2.19555
G0 F2025 X92.887 Y116.021
G0 X93.411 Y115.854
G0 X94.056 Y116.446
G0 X100.883 Y120.894
G0 X101.01 Y121.758
G0 X101.769 Y122.694
G0 X101.733 Y122.784
G1 F2400 E3.19555
G1 F1800 X101.62 Y122.627 E3.19785
G1 X100.992 Y121.751 E3.21066
G1 X101.858 Y121.625 E3.22106
G1 X101.922 Y122.41 E3.23042
G1 X101.927 Y122.644 E3.23263
G1 X101.812 Y122.804 E3.234
G1 X101.762 Y122.825 E3.23464
G1 X101.733 Y122.784
G0 F2025 X101.62 Y122.627
G0 X101.616 Y122.622
G0 X101.641 Y122.289
G1 F1800 X101.603 Y121.967 E3.23614
G0 F2025 X101.656 Y121.991
G1 F2400 E2.23614
G0 F2025 X101.916 Y122.348
G0 X102.777 Y122.278
G0 X110.618 Y121.861
G0 X111.489 Y121.715
G0 X111.591 Y121.559
G0 X111.646 Y121.478
G1 F2400 E3.23614
G1 F1800 X111.75 Y121.555 E3.23767
G1 X112.203 Y121.894 E3.2444
G1 X112.365 Y122.107 E3.24758
G1 X112.683 Y122.527 E3.25384
G1 X112.782 Y122.731 E3.25653
G1 X112.623 Y122.656 E3.25676
G1 X112.147 Y122.431 E3.26105
G1 X111.624 Y122.183 E3.26793
G1 X111.526 Y122.052 E3.26987
G1 X111.491 Y121.843 E3.27239
G1 X111.47 Y121.715 E3.27375
G1 X111.514 Y121.38 E3.27776
G1 X111.646 Y121.478 E3.27806
G0 F2025 X111.75 Y121.555
G0 X111.806 Y121.597
G0 X111.693 Y121.875
;TYPE:SKIN
G1 F1800 X111.928 Y122.11 E3.28003
G0 F2025 X111.859 Y122.136
G1 F2400 E2.28003
G0 F2025 X112.666 Y122.537
G0 X113.37 Y122.004
G0 X119.916 Y116.338
G0 X120.55 Y115.741
G0 X121.399 Y116.28
G0 X121.406 Y116.38
;TYPE:WALL-OUTER
G1 F2400 E3.28003
G1 F1800 X121.162 Y116.399 E3.28294
G1 X120.764 Y115.976 E3.28984
G1 X120.533 Y115.732 E3.29383
G1 X120.954 Y115.797 E3.296
G1 X121.378 Y116.011 E3.30165
G1 X121.536 Y116.233 E3.30489
G1 X121.521 Y116.322 E3.30596
G1 X121.478 Y116.375 E3.30677
G1 X121.406 Y116.38 E3.30698
G0 F2025 X121.206 Y116.395
G1 F2400 E2.30698
G0 F2025 X121.199 Y116.294
G0 X120.948 Y115.816
G0 X121.083 Y114.941
G0 X123.41 Y106.773
G0 X123.753 Y105.962
G0 X124.055 Y105.606
G0 X124.116 Y105.685
G1 F2400 E3.30698
G1 F1800 X124.096 Y105.702 E3.30729
G1 X123.755 Y105.981 E3.31252
G1 X123.408 Y105.833 E3.31701
G1 X123.139 Y105.719 E3.32048
G1 X123.154 Y105.476 E3.32337
G1 X123.444 Y105.441 E3.32618
G1 X123.845 Y105.392 E3.33099
G1 X123.871 Y105.389 E3.33129
G1 X124.277 Y105.553 E3.33649
G1 X124.116 Y105.685 E3.33721
G0 F2025 X124.096 Y105.702
G0 X123.962 Y105.812
G0 X123.796 Y105.694
;TYPE:SKIN
G1 F1800 X123.707 Y105.605 E3.33796
G0 F2025 X123.573 Y105.614
G1 F2400 E2.33796
G0 F2025 X123.168 Y105.489
G0 X123.063 Y104.616
G0 X120.842 Y96.873
G0 X120.615 Y96.039
G0 X120.786 Y95.709
G0 X120.882 Y95.686
;TYPE:WALL-OUTER
G1 F2400 E3.33796
G1 F1800 X120.951 Y95.949 E3.34119
G1 X120.571 Y96.052 E3.34587
G1 X120.377 Y96.104 E3.34826
G1 X120.333 Y96.116 E3.3488
G1 X120.306 Y95.843 E3.35094
G1 X120.432 Y95.688 E3.35294
G1 X120.517 Y95.583 E3.35455
G1 X120.63 Y95.445 E3.35667
G1 X120.838 Y95.513 E3.35927
G1 X120.882 Y95.686 E3.36096
G0 F2025 X120.932 Y95.88
G0 X120.703 Y95.812
;TYPE:SKIN
G1 F1800 X120.635 Y95.745 E3.36153
G0 F2025 X120.72 Y95.597
G1 F2400 E2.36153
G0 F2025 X120.325 Y95.848
G0 X119.639 Y95.292
G0 X112.586 Y90.214
G0 X112.139 Y89.463
G0 X111.667 Y89.702
G0 X111.653 Y89.763
;TYPE:WALL-OUTER
G1 F2400 E3.36153
G1 F1800 X111.629 Y89.793 E3.36198
G1 X111.577 Y89.855 E3.36294
G1 X111.566 Y89.776 E3.36309
G1 X111.56 Y89.737
G1 X111.643 Y89.27 E3.36872
G1 X111.786 Y89.207 E3.37058
G1 X112.158 Y89.463 E3.37595
G1 X111.653 Y89.763 E3.38293
G0 F2025 X111.629 Y89.793
G0 X111.577 Y89.855
G0 X111.566 Y89.776
G0 X111.566 Y89.773
G0 X111.698 Y89.271
G1 F2400 E2.38293
G0 F2025 X111.731 Y89.342
G0 X111.579 Y89.737
G0 X110.705 Y89.859
G0 X103.064 Y89.579
G0 X102.203 Y89.755
G0 X101.936 Y89.102
G0 X101.923 Y88.971
G1 F2400 E3.38293
G1 F1800 X102.105 Y89.204 E3.38644
G1 X102.22 Y89.765 E3.39325
G1 X101.992 Y89.835 E3.39608
G1 X101.673 Y89.301 E3.40347
G1 X101.864 Y89.032 E3.40647
G1 X101.91 Y88.968
G1 X101.923 Y88.971 E3.40663
G0 F2025 X102.046 Y89.128
G0 X102.064 Y89.175
G1 F2400 E2.40663
G0 F2025 X101.998 Y89.227
G0 X101.678 Y89.294
G0 X100.973 Y88.796
G0 X100.01 Y88.106
;TIME_ELAPSED:22.247492
;LAYER:1
M106 S255
G0 F2362.5 X100.01 Y88.106 Z0.5
;TYPE:WALL-INNER
G1 F2400 E3.40663
G1 F2100 X100.485 Y86.913 E3.42952
G1 X100.664 Y86.845 E3.43293
G1 X100.963 Y86.89 E3.43832
G1 X101.246 Y86.963 E3.44353
G1 X101.745 Y87.605 E3.45802
G1 X101.982 Y87.925 E3.46512
G1 X102.813 Y88.967 E3.48888
G1 X102.937 Y89.573 E3.49991
G1 X103.19 Y91.668 E3.53752
G1 X103.157 Y92.763 E3.55705
G1 X101.983 Y93.119 E3.57892
G1 X101.355 Y92.418 E3.59569
G1 X99.886 Y89.817 E3.64894
G1 X99.685 Y88.97 E3.66446
G1 X99.938 Y88.269 E3.67774
G1 X100.01 Y88.106 E3.68092
G0 F2362.5 X99.507 Y88.288
;TYPE:WALL-OUTER
G1 F1500 X99.566 Y88.121 E3.68408
G1 X99.641 Y87.951 E3.68739
G1 X100.176 Y86.606 E3.71319
G1 X100.398 Y86.516 E3.71746
G1 X100.625 Y86.434 E3.72176
G1 X101.036 Y86.496 E3.72917
G1 X101.377 Y86.584 E3.73545
G1 X101.469 Y86.599 E3.73711
G1 X102.066 Y87.367 E3.75445
G1 X102.299 Y87.681 E3.76142
G1 X103.186 Y88.793 E3.78678
G1 X103.332 Y89.507 E3.79977
G1 X103.591 Y91.652 E3.83828
G1 X103.549 Y93.028 E3.86282
G1 X103.506 Y93.075 E3.86395
G1 X101.888 Y93.566 E3.89409
G1 X101.781 Y93.493 E3.8964
G1 X101.029 Y92.653 E3.9165
G1 X99.51 Y89.965 E3.97154
G1 X99.27 Y88.952 E3.99009
G1 X99.338 Y88.742 E3.99403
G1 X99.466 Y88.39 E4.0007
G1 X99.482 Y88.33 E4.00181
G1 X99.507 Y88.288 E4.00268
G0 F2362.5 X99.566 Y88.121
G0 X99.575 Y88.1
G0 X100.3 Y88.414
;TYPE:SKIN
G1 F1500 X100.369 Y88.256 E4.00576
G1 X100.768 Y87.255 E4.02496
G1 X100.883 Y87.272 E4.02704
G1 X101.019 Y87.308 E4.02954
G1 X101.431 Y87.837 E4.0415
G1 X101.672 Y88.163 E4.04872
G1 X102.45 Y89.137 E4.07094
G1 X102.549 Y89.62 E4.07973
G1 X102.799 Y91.69 E4.1169
G1 X102.775 Y92.472 E4.13084
G1 X102.107 Y92.674 E4.14328
G1 X101.672 Y92.188 E4.15491
G1 X100.254 Y89.678 E4.2063
G1 X100.092 Y88.992 E4.21886
G1 X100.3 Y88.414 E4.22981
G0 F2362.5 X101.157 Y87.78
G1 F1500 X100.472 Y88.466 E4.24709
G1 X100.402 Y88.536
G0 F2362.5 X100.321 Y89.183
G1 F1500 X101.401 Y88.102 E4.27433
G1 X101.471 Y88.032
G0 F2362.5 X101.647 Y88.422
G1 F1500 X100.435 Y89.634 E4.30489
G1 X100.365 Y89.704
G0 F2362.5 X100.639 Y89.996
G1 F1500 X101.899 Y88.736 E4.33665
G1 X101.969 Y88.666
G0 F2362.5 X102.15 Y89.05
G1 F1500 X100.844 Y90.357 E4.36958
G1 X100.774 Y90.427
G0 F2362.5 X101.048 Y90.718
G1 F1500 X102.327 Y89.439 E4.40183
G1 X102.397 Y89.369
G0 F2362.5 X102.403 Y89.929
G1 F1500 X101.252 Y91.08 E4.43084
G1 X101.182 Y91.15
G0 F2362.5 X101.456 Y91.442
G1 F1500 X102.464 Y90.434 E4.45625
G1 X102.534 Y90.364
G0 F2362.5 X102.525 Y90.938
G1 F1500 X101.66 Y91.803 E4.47806
G1 X101.59 Y91.873
G0 F2362.5 X101.879 Y92.15
G1 F1500 X102.586 Y91.443 E4.49588
G1 X102.656 Y91.373
G0 F2362.5 X102.608 Y91.987
G1 F1500 X102.147 Y92.448 E4.5075
G1 F2400 E3.5075
G0 F2362.5 X103.171 Y91.668
G0 X104.456 Y91.706
G0 X108.975 Y91.733
G0 X110.252 Y91.599
G0 X110.784 Y88.802
G0 X110.685 Y88.789
;TYPE:WALL-INNER
G1 F2400 E4.5075
G1 F2100 X110.749 Y88.254 E4.51711
G1 X110.853 Y87.945 E4.52292
G1 X110.916 Y87.846 E4.52501
G1 X111.116 Y87.69 E4.52953
G1 X112.919 Y86.751 E4.56577
G1 X113.483 Y87.42 E4.58136
G1 X113.583 Y88.5 E4.6007
G1 X113.547 Y89.798 E4.62384
G1 X113.197 Y90.558 E4.63876
G1 X112.287 Y92.231 E4.67271
G1 X111.757 Y92.945 E4.68856
G1 X111.731 Y92.965 E4.68914
G1 X110.887 Y93.166 E4.70461
G1 X110.298 Y92.224 E4.72441
G1 X110.233 Y91.599 E4.73561
G1 X110.685 Y88.789 E4.78635
G0 F2362.5 X110.784 Y88.802
G0 X110.411 Y92.216
G0 X109.99 Y92.481
;TYPE:WALL-OUTER
G1 F1500 X109.911 Y92.367 E4.78882
G1 X109.829 Y91.588 E4.80278
G1 X110.289 Y88.734 E4.85431
G1 X110.357 Y88.162 E4.86458
G1 X110.49 Y87.77 E4.87196
G1 X110.614 Y87.575 E4.87608
G1 X110.902 Y87.35 E4.88259
G1 X112.938 Y86.29 E4.92351
G1 X113.115 Y86.362 E4.92691
G1 X113.869 Y87.257 E4.94777
G1 X113.984 Y88.491 E4.96987
G1 X113.945 Y89.891 E4.99483
G1 X113.557 Y90.732 E5.01134
G1 X112.623 Y92.45 E5.0462
G1 X112.045 Y93.228 E5.06347
G1 X111.91 Y93.334 E5.06653
G1 X110.699 Y93.622 E5.08872
G1 X109.99 Y92.481 E5.11267
G0 F2362.5 X109.911 Y92.367
G0 X109.905 Y92.306
G0 X110.676 Y92.093
;TYPE:SKIN
G1 F1500 X110.627 Y91.61 E5.12132
G1 X111.071 Y88.844 E5.17126
G1 X111.133 Y88.338 E5.18035
G1 X111.208 Y88.113 E5.18457
G1 X111.33 Y88.019 E5.18732
G1 X112.822 Y87.241 E5.21731
G1 X113.107 Y87.578 E5.22518
G1 X113.193 Y88.508 E5.24183
G1 X113.159 Y89.707 E5.26321
G1 X112.854 Y90.371 E5.27623
G1 X111.954 Y92.027 E5.30983
G1 X111.517 Y92.615 E5.32289
G1 X111.07 Y92.721 E5.33108
G1 X110.676 Y92.093 E5.34429
G0 F2362.5 X111.145 Y92.501
G1 F1500 X111.9 Y91.746 E5.36333
G1 X111.97 Y91.676
G0 F2362.5 X110.926 Y92.154
G1 F1500 X112.573 Y90.507 E5.40485
G1 X112.643 Y90.437
G0 F2362.5 X112.982 Y89.532
G1 F1500 X110.816 Y91.699 E5.45946
G1 X110.746 Y91.769
G0 F2362.5 X110.897 Y91.052
G1 F1500 X112.999 Y88.95 E5.51245
G1 X113.069 Y88.88
G0 F2362.5 X112.999 Y88.384
G1 F1500 X111.005 Y90.378 E5.56272
G1 X110.935 Y90.448
G0 F2362.5 X111.114 Y89.703
G1 F1500 X112.951 Y87.866 E5.60902
G1 X113.021 Y87.796
G0 F2362.5 X112.779 Y87.472
G1 F1500 X111.222 Y89.029 E5.64827
G1 X111.152 Y89.099
G0 F2362.5 X111.31 Y88.376
G1 F1500 X111.613 Y88.072 E5.65593
G1 F2400 E4.65593
G0 F2362.5 X113.528 Y89.794
G0 X114.695 Y90.331
G0 X119.777 Y92.93
G0 X120.544 Y93.959
G0 X121.448 Y93.912
G0 X121.461 Y93.813
;TYPE:WALL-INNER
G1 F2400 E5.65593
G1 F2100 X122.983 Y93.988 E5.68323
G1 X123.044 Y94.861 E5.69883
G1 X122.495 Y95.783 E5.71796
G1 X121.679 Y96.826 E5.74157
G1 X121.274 Y97.04 E5.74973
G1 X119.36 Y97.882 E5.78701
G1 X117.968 Y98.271 E5.81277
G1 X117.597 Y97.239 E5.83232
G1 X118.224 Y96.099 E5.85551
G1 X119.405 Y94.782 E5.88704
G1 X120.534 Y93.942 E5.91213
G1 X120.851 Y93.788 E5.91841
G1 X121.314 Y93.789 E5.92666
G1 X121.461 Y93.813 E5.92932
G0 F2362.5 X121.517 Y93.417
;TYPE:WALL-OUTER
