;FLAVOR:Marlin
;TIME:3427
;Filament used: 1.22575m
;Layer height: 0.3
;Generated with Cura_SteamEngine master
M104 S185
M109 S185
M82 ;absolute extrusion mode
; -- START GCODE --
G21                     ;set units to millimetres
G90                     ;set to absolute positioning
M106 S0                 ;set fan speed to zero (turned off)
G28 X0 Y0               ;move to the X/Y origin (Home)
G28 Z0                  ;move to the Z origin (Home)
G1 Z15.0 F1200          ;move Z to position 15.0 mm
G92 E0                  ;zero the extruded length
G1 E20 F200             ;extrude 20mm of feed stock
G92 E0                  ;zero the extruded length again
G1 F7200                ;set feedrate to 120 mm/s
; -- end of START GCODE --
G92 E0
G1 F2400 E-1
;LAYER_COUNT:84
;LAYER:0
M107
G0 F2025 X90.039 Y92.84 Z0.2
;TYPE:SKIRT
G1 F2400 E0
G1 F1800 X90.326 Y92.622 E0.00428
G1 X95.283 Y89.23 E0.07566
G1 X99.609 Y85.902 E0.14052
G1 X100.057 Y85.607 E0.1469
G1 X100.544 Y85.383 E0.15327
G1 X101.059 Y85.233 E0.15964
G1 X101.59 Y85.161 E0.16601
G1 X101.965 Y85.159 E0.17046
G1 X107.455 Y85.405 E0.23577
G1 X111.776 Y85.392 E0.28712
G1 X112.311 Y85.43 E0.29349
G1 X112.835 Y85.548 E0.29988
G1 X113.335 Y85.742 E0.30625
G1 X113.892 Y86.072 E0.31394
G1 X118.992 Y89.749 E0.38866
G1 X122.945 Y92.342 E0.44484
G1 X123.37 Y92.669 E0.45121
G1 X123.742 Y93.055 E0.45758
G1 X124.053 Y93.492 E0.46396
G1 X124.295 Y93.971 E0.47033
G1 X124.398 Y94.252 E0.47389
G1 X125.358 Y97.243 E0.51122
G1 X127.265 Y102.426 E0.57685
G1 X127.964 Y104.131 E0.59875
G1 X128.13 Y104.641 E0.60512
G1 X128.218 Y105.17 E0.61149
G1 X128.227 Y105.706 E0.61786
G1 X128.156 Y106.238 E0.62424
G1 X128.077 Y106.545 E0.62801
G1 X126.714 Y111.026 E0.68367
G1 X125.099 Y117.397 E0.76177
G1 X124.929 Y117.906 E0.76815
G1 X124.685 Y118.384 E0.77453
G1 X124.373 Y118.82 E0.7809
G1 X123.999 Y119.205 E0.78728
G1 X123.662 Y119.47 E0.79237
G1 X120.302 Y121.803 E0.84098
G1 X115.101 Y125.778 E0.91877
G1 X114.652 Y126.071 E0.92515
G1 X114.164 Y126.294 E0.93152
G1 X113.649 Y126.442 E0.93789
G1 X112.89 Y126.518 E0.94695
G1 X106.002 Y126.471 E1.02881
G1 X101.808 Y126.638 E1.07869
G1 X101.272 Y126.62 E1.08506
G1 X100.744 Y126.522 E1.09144
G1 X100.238 Y126.346 E1.09781
G1 X99.762 Y126.098 E1.10419
G1 X99.442 Y125.874 E1.10883
G1 X94.864 Y122.283 E1.17797
G1 X90.606 Y119.312 E1.23967
G1 X90.19 Y118.974 E1.24604
G1 X89.829 Y118.577 E1.25242
G1 X89.532 Y118.131 E1.25879
G1 X89.237 Y117.458 E1.26752
G1 X87.221 Y111.161 E1.34609
G1 X85.768 Y107.309 E1.39502
G1 X85.616 Y106.794 E1.4014
G1 X85.543 Y106.263 E1.40777
G1 X85.549 Y105.727 E1.41414
G1 X85.636 Y105.197 E1.42052
G1 X85.727 Y104.881 E1.42443
G1 X87.361 Y100.066 E1.48485
G1 X88.893 Y94.618 E1.5521
G1 X89.077 Y94.114 E1.55848
G1 X89.333 Y93.643 E1.56485
G1 X89.656 Y93.215 E1.57122
G1 X90.039 Y92.84 E1.57759
G0 F2025 X90.552 Y92.952
G1 F1800 X95.519 Y89.554 E1.64911
G1 X99.853 Y86.219 E1.7141
G1 X100.276 Y85.943 E1.7201
G1 X100.738 Y85.738 E1.7261
G1 X101.227 Y85.607 E1.73212
G1 X101.947 Y85.558 E1.7407
G1 X107.459 Y85.805 E1.80626
G1 X111.778 Y85.792 E1.85759
G1 X112.282 Y85.83 E1.8636
G1 X112.773 Y85.948 E1.8696
G1 X113.241 Y86.141 E1.87561
G1 X113.658 Y86.396 E1.88142
G1 X118.771 Y90.082 E1.95632
G1 X122.725 Y92.676 E2.01252
G1 X123.125 Y92.986 E2.01854
G1 X123.471 Y93.355 E2.02455
G1 X123.754 Y93.774 E2.03055
G1 X124.017 Y94.374 E2.03834
G1 X124.983 Y97.384 E2.07591
G1 X126.886 Y102.558 E2.14142
G1 X127.594 Y104.283 E2.16358
G1 X127.748 Y104.764 E2.16958
G1 X127.824 Y105.264 E2.17559
G1 X127.821 Y105.769 E2.18159
G1 X127.694 Y106.429 E2.18958
G1 X126.328 Y110.918 E2.24534
G1 X124.711 Y117.299 E2.32356
G1 X124.548 Y117.778 E2.32958
G1 X124.313 Y118.225 E2.33558
G1 X124.009 Y118.629 E2.34159
G1 X123.646 Y118.981 E2.3476
G1 X123.434 Y119.141 E2.35075
G1 X120.082 Y121.468 E2.39924
G1 X114.858 Y125.461 E2.47738
G1 X114.433 Y125.735 E2.48339
G1 X113.971 Y125.939 E2.48939
G1 X113.482 Y126.067 E2.4954
G1 X112.893 Y126.118 E2.50242
G1 X105.989 Y126.07 E2.58447
G1 X101.792 Y126.238 E2.63439
G1 X101.286 Y126.219 E2.6404
G1 X100.791 Y126.12 E2.6464
G1 X100.317 Y125.944 E2.65241
G1 X99.689 Y125.559 E2.66116
G1 X95.106 Y121.964 E2.73038
G1 X90.835 Y118.984 E2.79227
G1 X90.444 Y118.663 E2.79828
G1 X90.109 Y118.284 E2.80429
G1 X89.838 Y117.858 E2.81029
G1 X89.618 Y117.336 E2.81703
G1 X87.599 Y111.029 E2.89572
G1 X86.142 Y107.167 E2.94477
G1 X86.001 Y106.682 E2.95078
G1 X85.939 Y106.18 E2.95679
G1 X85.957 Y105.675 E2.96279
G1 X86.106 Y105.01 E2.97089
G1 X87.742 Y100.189 E3.03139
G1 X89.278 Y94.727 E3.09882
G1 X89.453 Y94.252 E3.10483
G1 X89.701 Y93.812 E3.11083
G1 X90.015 Y93.415 E3.11685
G1 X90.552 Y92.952 E3.12527
G1 F2400 E2.12527
G0 F2025 X92.167 Y94.916
G0 X92.59 Y95.688
G0 X93.079 Y95.977
G0 X93.187 Y95.988
;TYPE:WALL-OUTER
G1 F2400 E3.12527
G1 F1800 X93.074 Y96.188 E3.128
G1 X92.617 Y95.977 E3.13399
G1 X92.573 Y95.68 E3.13755
G1 X92.967 Y95.465 E3.14289
G1 X93.187 Y95.988 E3.14963
G0 F2025 X93.089 Y96.162
G0 X92.881 Y95.659
G1 F2400 E2.14963
G0 F2025 X93.068 Y96.169
G0 X92.699 Y96.967
G0 X89.846 Y104.755
G0 X89.535 Y105.576
G0 X89.815 Y106.001
G0 X89.841 Y106.097
G1 F2400 E3.14963
G1 F1800 X89.66 Y106.152 E3.15188
G1 X89.517 Y106.195 E3.15365
G1 X89.354 Y106.001 E3.15666
G1 X89.408 Y105.862 E3.15844
G1 X89.527 Y105.558 E3.16232
G1 X89.963 Y105.724 E3.16786
G1 X90.049 Y105.756 E3.16895
G1 X90.253 Y105.834 E3.17155
G1 X89.929 Y106.071 E3.17442
G1 X89.841 Y106.097 E3.17543
G0 F2025 X89.66 Y106.152
G0 X89.65 Y106.155
G0 X89.787 Y105.909
;TYPE:SKIN
G1 F1800 X89.714 Y105.836 E3.17604
G0 F2025 X89.562 Y105.764
G1 F2400 E2.17604
G0 F2025 X89.872 Y106.067
G0 X90.126 Y106.915
G0 X92.662 Y114.957
G0 X92.714 Y115.832
G0 X92.894 Y116.118
G0 X92.848 Y116.213
;TYPE:WALL-OUTER
G1 F2400 E3.17604
G1 F1800 X92.815 Y116.201 E3.17646
G1 X92.698 Y115.821 E3.18118
G1 X92.792 Y115.816
G1 X92.827 Y115.814 E3.18159
G1 X93.259 Y115.788 E3.18673
G1 X93.408 Y115.851 E3.18866
G1 X93.373 Y115.89
G1 X93.028 Y116.268 E3.19474
G1 X92.903 Y116.234 E3.19628
G1 X92.848 Y116.213 E3.19698
G0 F2025 X92.815 Y116.201
G0 X92.767 Y116.044
G1 F2400 E2.19698
G0 F2025 X92.862 Y116.016
G0 X93.389 Y115.855
G0 X94.037 Y116.443
G0 X100.902 Y120.952
G0 X101.046 Y121.813
G0 X101.757 Y122.667
G0 X101.726 Y122.764
G1 F2400 E3.19698
G1 F1800 X101.699 Y122.743 E3.19738
G1 X101.614 Y122.624 E3.19912
G1 X101.028 Y121.806 E3.21108
G1 X101.83 Y121.673 E3.22074
G1 X101.889 Y122.425 E3.2297
G1 X101.895 Y122.646 E3.2317
G1 X101.784 Y122.801 E3.23311
G1 X101.75 Y122.813 E3.23354
G1 X101.726 Y122.764
G0 F2025 X101.699 Y122.743
G0 X101.614 Y122.624
G0 X101.603 Y122.608
G0 X101.615 Y122.263
G1 F1800 X101.606 Y121.971 E3.2346
G0 F2025 X101.691 Y122.045
G1 F2400 E2.2346
G0 F2025 X101.882 Y122.345
G0 X102.743 Y122.277
G0 X110.6 Y121.863
G0 X111.471 Y121.721
G0 X111.65 Y121.579
G0 X111.709 Y121.499
G1 F2400 E3.2346
G1 F1800 X112.138 Y121.803 E3.24084
G1 X112.381 Y122.127 E3.24566
G1 X112.663 Y122.503 E3.25124
G1 X112.775 Y122.723 E3.25418
G1 X112.767 Y122.747 E3.25448
G1 X112.588 Y122.66 E3.25534
G1 X112.166 Y122.454 E3.25938
G1 X111.6 Y122.178 E3.26686
G1 X111.506 Y122.053 E3.26872
G1 X111.465 Y121.803 E3.27173
G1 X111.452 Y121.721 E3.27272
G1 X111.497 Y121.349 E3.27717
G1 X111.642 Y121.451 E3.27759
G1 X111.709 Y121.499 E3.27849
G0 F2025 X111.872 Y121.614
G0 X111.67 Y121.852
;TYPE:SKIN
G1 F1800 X111.949 Y122.131 E3.28083
G0 F2025 X111.851 Y122.087
G1 F2400 E2.28083
G0 F2025 X112.647 Y122.513
G0 X113.353 Y121.982
G0 X119.87 Y116.32
G0 X120.509 Y115.728
G0 X121.378 Y116.293
G0 X121.384 Y116.393
;TYPE:WALL-OUTER
G1 F2400 E3.28083
G1 F1800 X121.132 Y116.41 E3.28383
G1 X120.72 Y115.965 E3.29104
G1 X120.492 Y115.719 E3.29502
G1 X120.921 Y115.779 E3.29734
G1 X121.358 Y115.998 E3.30315
G1 X121.528 Y116.235 E3.30661
G1 X121.511 Y116.332 E3.30778
G1 X121.465 Y116.388 E3.30864
G1 X121.384 Y116.393 E3.309
G0 F2025 X121.184 Y116.406
G0 X121.022 Y116.277
G1 F2400 E2.309
G0 F2025 X121.089 Y116.216
G0 X120.916 Y115.798
G0 X121.039 Y114.922
G0 X123.395 Y106.764
G0 X123.735 Y105.951
G0 X124.003 Y105.628
G0 X124.063 Y105.707
G1 F2400 E3.309
G1 F1800 X123.737 Y105.97 E3.31398
G1 X123.41 Y105.832 E3.31819
G1 X123.128 Y105.714 E3.32183
G1 X123.138 Y105.477 E3.32465
G1 X123.441 Y105.44 E3.32756
G1 X123.816 Y105.394 E3.33205
G1 X123.853 Y105.39 E3.33249
G1 X124.254 Y105.553 E3.33763
G1 X124.092 Y105.684 E3.33834
G1 X124.063 Y105.707 E3.33877
G0 F2025 X123.908 Y105.832
G0 X123.782 Y105.68
;TYPE:SKIN
G1 F1800 X123.706 Y105.604 E3.33941
G0 F2025 X123.561 Y105.598
G1 F2400 E2.33941
G0 F2025 X123.152 Y105.49
G0 X123.047 Y104.617
G0 X121.042 Y96.825
G0 X120.838 Y95.986
G0 X120.404 Y95.999
G0 X120.348 Y96.105
;TYPE:WALL-OUTER
G1 F2400 E3.33941
G1 F1800 X120.317 Y96.113 E3.33979
G1 X120.284 Y95.844 E3.34192
G1 X120.614 Y95.447 E3.34805
G1 X120.825 Y95.512 E3.35067
G1 X120.945 Y95.96 E3.35619
G1 X120.348 Y96.105 E3.36248
G0 F2025 X120.317 Y96.113
G0 X120.297 Y95.947
G0 X120.625 Y95.735
;TYPE:SKIN
G1 F1800 X120.701 Y95.811 E3.36312
G0 F2025 X120.671 Y96.003
G1 F2400 E2.36312
G0 F2025 X120.655 Y95.928
G0 X120.303 Y95.849
G0 X119.624 Y95.286
G0 X112.565 Y90.226
G0 X112.134 Y89.466
G0 X111.648 Y89.701
G0 X111.632 Y89.762
;TYPE:WALL-OUTER
G1 F2400 E3.36312
G1 F1800 X111.609 Y89.79 E3.36355
G1 X111.557 Y89.853 E3.36452
G1 X111.547 Y89.774 E3.36465
G1 X111.541 Y89.735
G1 X111.623 Y89.272 E3.37024
G1 X111.766 Y89.207 E3.3721
G1 X112.153 Y89.466 E3.37764
G1 X111.632 Y89.762 E3.38476
G0 F2025 X111.609 Y89.79
G0 X111.557 Y89.853
G0 X111.547 Y89.774
G0 X111.547 Y89.77
G0 X111.689 Y89.271
G1 F2400 E2.38476
G0 F2025 X111.718 Y89.339
G0 X111.56 Y89.735
G0 X110.686 Y89.851
G0 X103.045 Y89.582
G0 X102.183 Y89.758
G0 X101.89 Y89.115
G0 X101.842 Y89.033
G1 F2400 E3.38476
G1 F1800 X101.886 Y88.97 E3.38567
G1 X101.905 Y88.973 E3.3859
G1 X102.085 Y89.203 E3.38821
G1 X102.2 Y89.768 E3.39506
G1 X101.97 Y89.843 E3.39793
G1 X101.652 Y89.304 E3.40537
G1 X101.842 Y89.033 E3.4084
G0 F2025 X101.886 Y88.97
G0 X101.905 Y88.973
G0 X101.969 Y89.055
G0 X101.982 Y89.53
G1 F2400 E2.4084
G0 F2025 X101.671 Y89.304
G0 X100.913 Y89.752
G0 X92.187 Y94.035
;TIME_ELAPSED:22.529520
;LAYER:1
M106 S255
G0 F2362.5 X92.187 Y94.035 Z0.5
;TYPE:WALL-INNER
G1 F2400 E3.4084
G1 F2100 X92.409 Y94.088 E3.41247
G1 X93.596 Y94.506 E3.4349
G1 X94.093 Y94.975 E3.44708
G1 X95.464 Y96.466 E3.48318
G1 X96.079 Y97.353 E3.50242
G1 X95.366 Y98.396 E3.52495
G1 X94.399 Y98.201 E3.54253
G1 X91.773 Y96.985 E3.59411
G1 X91.081 Y96.387 E3.61042
G1 X90.96 Y95.965 E3.61824
G1 X90.781 Y95.132 E3.63343
G1 X91.204 Y94.44 E3.64789
G1 X91.567 Y93.91 E3.65934
G1 X92.187 Y94.035 E3.67061
G0 F2362.5 X92.281 Y93.646
;TYPE:WALL-OUTER
G1 F1500 X92.518 Y93.703 E3.67496
G1 X93.808 Y94.157 E3.69933
G1 X94.379 Y94.695 E3.71332
G1 X95.779 Y96.218 E3.75019
G1 X96.417 Y97.138 E3.77015
G1 X96.558 Y97.36 E3.77484
G1 X95.591 Y98.775 E3.80539
G1 X95.491 Y98.829 E3.80741
G1 X94.273 Y98.584 E3.82956
G1 X91.554 Y97.325 E3.88297
G1 X90.73 Y96.612 E3.9024
G1 X90.57 Y96.055 E3.91273
G1 X90.356 Y95.06 E3.93087
G1 X90.868 Y94.222 E3.94837
G1 X91.387 Y93.466 E3.96472
G1 X92.281 Y93.646 E3.98097
G0 F2362.5 X92.476 Y93.692
G0 X92.304 Y94.465
;TYPE:SKIN
G1 F1500 X93.39 Y94.847 E4.00149
G1 X93.81 Y95.243 E4.01178
G1 X95.161 Y96.713 E4.04737
G1 X95.606 Y97.355 E4.0613
G1 X95.19 Y97.963 E4.07443
G1 X94.519 Y97.827 E4.08663
G1 X91.988 Y96.656 E4.13634
G1 X91.425 Y96.168 E4.14962
G1 X91.339 Y95.87 E4.15515
G1 X91.196 Y95.202 E4.16733
G1 X91.526 Y94.66 E4.17864
G1 X91.743 Y94.343 E4.18549
G1 X92.304 Y94.465 E4.19572
G0 F2362.5 X92.077 Y94.598
G1 F1500 X91.397 Y95.278 E4.21287
G1 X91.327 Y95.348
G0 F2362.5 X91.497 Y95.744
G1 F1500 X92.512 Y94.728 E4.23847
G1 X92.582 Y94.658
G0 F2362.5 X92.931 Y94.876
G1 F1500 X91.667 Y96.14 E4.27033
G1 X91.597 Y96.21
G0 F2362.5 X91.97 Y96.402
G1 F1500 X93.333 Y95.04 E4.30468
G1 X93.403 Y94.97
G0 F2362.5 X93.624 Y95.314
G1 F1500 X92.325 Y96.613 E4.33742
G1 X92.255 Y96.683
G0 F2362.5 X92.712 Y96.792
G1 F1500 X93.898 Y95.605 E4.36733
G1 X93.968 Y95.535
G0 F2362.5 X94.17 Y95.899
G1 F1500 X93.099 Y96.971 E4.39434
G1 X93.029 Y97.041
G0 F2362.5 X93.485 Y97.15
G1 F1500 X94.441 Y96.194 E4.41844
G1 X94.511 Y96.124
G0 F2362.5 X94.712 Y96.489
G1 F1500 X93.872 Y97.329 E4.43962
G1 X93.802 Y97.399
G0 F2362.5 X94.259 Y97.507
G1 F1500 X94.983 Y96.783 E4.45787
G1 X95.053 Y96.713
G0 F2362.5 X95.219 Y97.113
G1 F1500 X94.661 Y97.671 E4.47194
G1 F2400 E3.47194
G0 F2362.5 X94.166 Y95.082
G0 X95.11 Y94.213
G0 X99.64 Y91.993
G0 X100.739 Y91.371
G0 X101.884 Y87.988
G0 X101.963 Y87.927
;TYPE:WALL-INNER
G1 F2400 E4.47194
G1 F2100 X102.797 Y88.966 E4.49569
G1 X102.916 Y89.551 E4.50633
G1 X103.168 Y91.671 E4.54438
G1 X103.136 Y92.765 E4.56389
G1 X101.965 Y93.13 E4.58576
G1 X101.334 Y92.425 E4.60262
G1 X99.863 Y89.82 E4.65595
G1 X99.663 Y88.969 E4.67153
G1 X99.832 Y88.488 E4.68062
G1 X100.475 Y86.908 E4.71103
G1 X100.645 Y86.844 E4.71426
G1 X100.934 Y86.888 E4.71948
G1 X101.225 Y86.966 E4.72485
G1 X101.725 Y87.607 E4.73934
G1 X101.963 Y87.927 E4.74645
G0 F2362.5 X101.884 Y87.988
G0 X101.17 Y87.049
G0 X101.358 Y86.587
;TYPE:WALL-OUTER
G1 F1500 X101.448 Y86.601 E4.74807
G1 X102.046 Y87.368 E4.76541
G1 X102.28 Y87.682 E4.77239
G1 X103.17 Y88.792 E4.79775
G1 X103.311 Y89.484 E4.81034
G1 X103.569 Y91.656 E4.84932
G1 X103.528 Y93.029 E4.87381
G1 X103.486 Y93.075 E4.87492
G1 X101.872 Y93.578 E4.90505
G1 X101.765 Y93.506 E4.90735
G1 X101.008 Y92.66 E4.92759
G1 X99.487 Y89.968 E4.9827
G1 X99.249 Y88.954 E5.00127
G1 X99.315 Y88.74 E5.00526
G1 X99.461 Y88.337 E5.0129
G1 X100.167 Y86.602 E5.04629
G1 X100.386 Y86.512 E5.05051
G1 X100.604 Y86.434 E5.05464
G1 X101.024 Y86.498 E5.06221
G1 X101.358 Y86.587 E5.06837
G0 F2362.5 X101.448 Y86.601
G0 X101.515 Y86.687
G0 X101.17 Y87.049
G0 X100.996 Y87.308
;TYPE:SKIN
G1 F1500 X101.438 Y87.874 E5.08118
G1 X101.655 Y88.165 E5.08765
G1 X102.434 Y89.136 E5.10984
G1 X102.528 Y89.597 E5.11822
G1 X102.777 Y91.692 E5.15583
G1 X102.754 Y92.475 E5.16979
G1 X102.089 Y92.683 E5.18221
G1 X101.649 Y92.192 E5.19397
G1 X100.232 Y89.682 E5.24535
G1 X100.069 Y88.99 E5.25802
G1 X100.197 Y88.626 E5.2649
G1 X100.754 Y87.256 E5.29126
G1 X100.862 Y87.272 E5.2932
G1 X100.996 Y87.308 E5.29568
G0 F2362.5 X100.863 Y87.509
G1 F1500 X100.794 Y88.143 E5.30534
G1 X100.373 Y88.565
G0 F2362.5 X100.303 Y89.2
G1 F1500 X101.391 Y88.113 E5.33275
G1 X101.461 Y88.043
G0 F2362.5 X101.638 Y88.432
G1 F1500 X100.419 Y89.65 E5.36347
G1 X100.349 Y89.72
G0 F2362.5 X100.624 Y90.011
G1 F1500 X101.889 Y88.746 E5.39536
G1 X101.959 Y88.676
G0 F2362.5 X102.141 Y89.06
G1 F1500 X100.828 Y90.373 E5.42846
G1 X100.758 Y90.443
G0 F2362.5 X101.032 Y90.734
G1 F1500 X102.314 Y89.452 E5.46078
G1 X102.384 Y89.382
G0 F2362.5 X102.386 Y89.946
G1 F1500 X101.236 Y91.096 E5.48977
G1 X101.166 Y91.166
G0 F2362.5 X101.44 Y91.457
G1 F1500 X102.447 Y90.451 E5.51514
G1 X102.517 Y90.381
G0 F2362.5 X102.507 Y90.957
G1 F1500 X101.645 Y91.819 E5.53687
G1 X101.575 Y91.889
G0 F2362.5 X101.865 Y92.164
G1 F1500 X102.566 Y91.463 E5.55454
G1 X102.636 Y91.393
G0 F2362.5 X102.586 Y92.009
G1 F1500 X102.133 Y92.461 E5.56595
G1 F2400 E4.56595
G0 F2362.5 X103.149 Y91.671
G0 X104.434 Y91.709
G0 X108.958 Y91.737
G0 X110.234 Y91.598
G0 X110.767 Y88.794
G0 X110.668 Y88.781
;TYPE:WALL-INNER
G1 F2400 E5.56595
G1 F2100 X110.733 Y88.248 E5.57552
G1 X110.835 Y87.947 E5.58119
G1 X110.891 Y87.86 E5.58303
G1 X111.098 Y87.697 E5.58773
G1 X112.905 Y86.749 E5.6241
G1 X113.467 Y87.404 E5.63948
G1 X113.568 Y88.496 E5.65903
G1 X113.529 Y89.8 E5.68229
G1 X113.179 Y90.559 E5.69719
G1 X112.266 Y92.235 E5.73121
G1 X111.737 Y92.947 E5.74702
G1 X111.71 Y92.968 E5.74763
G1 X110.867 Y93.17 E5.76308
G1 X110.281 Y92.214 E5.78307
G1 X110.215 Y91.598 E5.79411
G1 X110.668 Y88.781 E5.84497
G0 F2362.5 X110.767 Y88.794
G0 X110.396 Y92.211
G0 X109.972 Y92.47
;TYPE:WALL-OUTER
G1 F1500 X109.894 Y92.356 E5.84743
G1 X109.811 Y91.588 E5.8612
G1 X110.272 Y88.725 E5.91289
G1 X110.341 Y88.156 E5.92311
G1 X110.472 Y87.772 E5.93034
G1 X110.589 Y87.588 E5.93423
G1 X110.878 Y87.361 E5.94078
G1 X112.921 Y86.289 E5.98191
G1 X113.1 Y86.362 E5.98535
